(Projekt back)
(Erstellt mit Estlcam 13.002)
(Laufzeit ca. 00:14:19 Stunden)

(Benoetigte Werkzeuge:)
(Beispielwerkzeug)

G21
G90
G94
M03 S24000
G00 Z5.0000 F800

(Nr. 1 Raeumen parallel: Tasche 1)
G00 X2.2712 Y2.3063 F2000
G00 Z0.5000 F800
G01 X3.0524 F1000 S24000
G02 X1.8805 Y1.6297 Z0.1667 I-0.7813 J0.0000
G02 Y2.9828 Z-0.1667 I0.3906 J0.6766
G02 X3.0524 Y2.3063 Z-0.5000 I0.3906 J-0.6766
G02 X2.2712 Y1.5250 Z-0.7500 I-0.7813 J0.0000
G02 X1.4899 Y2.3063 Z-1.0000 I0.0000 J0.7813
G02 X2.6618 Y2.9828 I0.7813 J0.0000
G02 Y1.6297 I-0.3906 J-0.6766
G02 X1.4899 Y2.3063 I-0.3906 J0.6766
G01 X2.2712 F2000
G01 X0.9493 Y175.0500
G01 X0.8368 Y190.9969
G01 X3.7055 Y191.2219
G01 Y5.7375
G03 X5.7868 Y3.6844 I2.2828 J0.2326
G01 X180.2180
G03 X182.2993 Y5.7375 I-0.2241 J2.3087
G01 Y223.6781
G01 X183.7055
G01 Y2.3063
G01 X2.2712
G01 X1.5450 Y2.3007
G01 X0.1041 Y191.6994
G01 X4.4375 Y192.0369
G01 Y6.0000
G03 X6.0000 Y4.4375 I1.5625 J0.0000
G01 X180.1022 Y4.4408
G03 X181.5625 Y6.0000 I-0.1022 J1.5592
G01 Y6.7433
G01 Y224.4375
G01 X184.4375
G01 Y1.5625
G01 X1.5507
G01 X1.5450 Y2.3007
G00 Z5.0000 F800
G00 X2.2712 Y2.3063 F2000
G00 Z-0.5000 F800
G01 X3.0524 F1000
G02 X1.8805 Y1.6297 Z-0.8333 I-0.7813 J0.0000
G02 Y2.9829 Z-1.1667 I0.3906 J0.6766
G02 X3.0524 Y2.3063 Z-1.5000 I0.3906 J-0.6766
G02 X2.2712 Y1.5250 Z-1.7500 I-0.7813 J0.0000
G02 X1.4899 Y2.3063 Z-2.0000 I0.0000 J0.7813
G02 X2.6618 Y2.9829 I0.7813 J0.0000
G02 Y1.6297 I-0.3906 J-0.6766
G02 X1.4899 Y2.3063 I-0.3906 J0.6766
G01 X2.2712 F2000
G01 X0.9493 Y175.0500
G01 X0.8368 Y190.9969
G01 X3.7055 Y191.2219
G01 Y5.7375
G03 X5.7868 Y3.6844 I2.2828 J0.2326
G01 X180.2180
G03 X182.2993 Y5.7375 I-0.2241 J2.3087
G01 Y223.6781
G01 X183.7055
G01 Y2.3063
G01 X2.2712
G01 X1.5450 Y2.3007
G01 X0.1041 Y191.6994
G01 X4.4375 Y192.0369
G01 Y6.0000
G03 X6.0000 Y4.4375 I1.5625 J0.0000
G01 X180.1022 Y4.4408
G03 X181.5625 Y6.0000 I-0.1022 J1.5592
G01 Y6.7433
G01 Y224.4375
G01 X184.4375
G01 Y1.5625
G01 X1.5507
G01 X1.5450 Y2.3007
G00 Z5.0000 F800
G00 X2.2712 Y2.3063 F2000
G00 Z-1.5000 F800
G01 X3.0524 F1000
G02 X1.8805 Y1.6297 Z-1.8333 I-0.7813 J0.0000
G02 Y2.9829 Z-2.1667 I0.3906 J0.6766
G02 X3.0524 Y2.3063 Z-2.5000 I0.3906 J-0.6766
G02 X2.2712 Y1.5250 Z-2.7500 I-0.7813 J0.0000
G02 X1.4899 Y2.3063 Z-3.0000 I0.0000 J0.7813
G02 X2.6618 Y2.9829 I0.7813 J0.0000
G02 Y1.6297 I-0.3906 J-0.6766
G02 X1.4899 Y2.3063 I-0.3906 J0.6766
G01 X2.2712 F2000
G01 X0.9493 Y175.0500
G01 X0.8368 Y190.9969
G01 X3.7055 Y191.2219
G01 Y5.7375
G03 X5.7868 Y3.6844 I2.2828 J0.2326
G01 X180.2180
G03 X182.2993 Y5.7375 I-0.2241 J2.3087
G01 Y223.6781
G01 X183.7055
G01 Y2.3063
G01 X2.2712
G01 X1.5450 Y2.3007
G01 X0.1041 Y191.6994
G01 X4.4375 Y192.0369
G01 Y6.0000
G03 X6.0000 Y4.4375 I1.5625 J0.0000
G01 X180.1022 Y4.4408
G03 X181.5625 Y6.0000 I-0.1022 J1.5592
G01 Y6.7433
G01 Y224.4375
G01 X184.4375
G01 Y1.5625
G01 X1.5507
G01 X1.5450 Y2.3007
G00 Z5.0000 F800
G00 X2.2712 Y2.3063 F2000
G00 Z-2.5000 F800
G01 X3.0524 F1000
G02 X1.8805 Y1.6297 Z-2.8333 I-0.7813 J0.0000
G02 Y2.9829 Z-3.1667 I0.3906 J0.6766
G02 X3.0524 Y2.3063 Z-3.5000 I0.3906 J-0.6766
G02 X2.2712 Y1.5250 Z-3.7500 I-0.7813 J0.0000
G02 X1.4899 Y2.3063 Z-4.0000 I0.0000 J0.7813
G02 X2.6618 Y2.9829 I0.7813 J0.0000
G02 Y1.6297 I-0.3906 J-0.6766
G02 X1.4899 Y2.3063 I-0.3906 J0.6766
G01 X2.2712 F2000
G01 X0.9493 Y175.0500
G01 X0.8368 Y190.9969
G01 X3.7055 Y191.2219
G01 Y5.7375
G03 X5.7868 Y3.6844 I2.2828 J0.2326
G01 X180.2180
G03 X182.2993 Y5.7375 I-0.2241 J2.3087
G01 Y223.6781
G01 X183.7055
G01 Y2.3063
G01 X2.2712
G01 X1.5450 Y2.3007
G01 X0.1041 Y191.6994
G01 X4.4375 Y192.0369
G01 Y6.0000
G03 X6.0000 Y4.4375 I1.5625 J0.0000
G01 X180.1022 Y4.4408
G03 X181.5625 Y6.0000 I-0.1022 J1.5592
G01 Y6.7433
G01 Y224.4375
G01 X184.4375
G01 Y1.5625
G01 X1.5507
G01 X1.5450 Y2.3007
G00 Z5.0000 F800
G00 X2.2712 Y2.3063 F2000
G00 Z-3.5000 F800
G01 X3.0524 F1000
G02 X1.8805 Y1.6297 Z-3.8333 I-0.7813 J0.0000
G02 Y2.9829 Z-4.1667 I0.3906 J0.6766
G02 X3.0524 Y2.3063 Z-4.5000 I0.3906 J-0.6766
G02 X2.2712 Y1.5250 Z-4.7500 I-0.7813 J0.0000
G02 X1.4899 Y2.3063 Z-5.0000 I0.0000 J0.7813
G02 X2.6618 Y2.9829 I0.7813 J0.0000
G02 Y1.6297 I-0.3906 J-0.6766
G02 X1.4899 Y2.3063 I-0.3906 J0.6766
G01 X2.2712 F2000
G01 X0.9493 Y175.0500
G01 X0.8368 Y190.9969
G01 X3.7055 Y191.2219
G01 Y5.7375
G03 X5.7868 Y3.6844 I2.2828 J0.2326
G01 X180.2180
G03 X182.2993 Y5.7375 I-0.2241 J2.3087
G01 Y223.6781
G01 X183.7055
G01 Y2.3063
G01 X2.2712
G01 X1.5450 Y2.3007
G01 X0.1041 Y191.6994
G01 X4.4375 Y192.0369
G01 Y6.0000
G03 X6.0000 Y4.4375 I1.5625 J0.0000
G01 X180.1022 Y4.4408
G03 X181.5625 Y6.0000 I-0.1022 J1.5592
G01 Y6.7433
G01 Y224.4375
G01 X184.4375
G01 Y1.5625
G01 X1.5507
G01 X1.5450 Y2.3007
G00 Z5.0000 F800
G00 X2.2712 Y2.3063 F2000
G00 Z-4.5000 F800
G01 X3.0524 F1000
G02 X1.8805 Y1.6297 Z-4.8333 I-0.7813 J0.0000
G02 Y2.9829 Z-5.1667 I0.3906 J0.6766
G02 X3.0524 Y2.3063 Z-5.5000 I0.3906 J-0.6766
G02 X2.2712 Y1.5250 Z-5.7500 I-0.7813 J0.0000
G02 X1.4899 Y2.3063 Z-6.0000 I0.0000 J0.7813
G02 X2.6618 Y2.9829 I0.7813 J0.0000
G02 Y1.6297 I-0.3906 J-0.6766
G02 X1.4899 Y2.3063 I-0.3906 J0.6766
G01 X2.2712 F2000
G01 X0.9493 Y175.0500
G01 X0.8368 Y190.9969
G01 X3.7055 Y191.2219
G01 Y5.7375
G03 X5.7868 Y3.6844 I2.2828 J0.2326
G01 X180.2180
G03 X182.2993 Y5.7375 I-0.2241 J2.3087
G01 Y223.6781
G01 X183.7055
G01 Y2.3063
G01 X2.2712
G01 X1.5450 Y2.3007
G01 X0.1041 Y191.6994
G01 X4.4375 Y192.0369
G01 Y6.0000
G03 X6.0000 Y4.4375 I1.5625 J0.0000
G01 X180.1022 Y4.4408
G03 X181.5625 Y6.0000 I-0.1022 J1.5592
G01 Y6.7433
G01 Y224.4375
G01 X184.4375
G01 Y1.5625
G01 X1.5507
G01 X1.5450 Y2.3007
G00 Z5.0000 F800

(Nr. 2 Teil bearbeiten: Teil 1)
G00 X187.5625 Y40.7835 Z5.0000 F2000
G00 Z0.5000 F800
G01 Z0.0000 F1000
G01 Y42.1572 Z-0.5000
G01 Y40.7835 Z-1.0000
G01 Y115.0084 F2000
G01 Y121.1334
G01 Y195.3583
G01 Y201.4833
G01 Y226.0000
G03 X186.0000 Y227.5625 I-1.5625 J0.0000
G01 X180.0000
G03 X179.7150 Y227.5363 I0.0000 J-1.5625
G01 X139.4344 Y220.0649
G01 X133.4121 Y218.9479
G01 X60.4320 Y205.4112
G01 X54.4098 Y204.2942
G01 X6.3824 Y195.3859
G01 X0.5327 Y194.3009
G03 X-0.5962 Y194.0572 I0.3343 J-4.2856
G03 X-1.5625 Y192.6129 I0.5962 J-1.4443
G01 Y191.9709
G01 Y176.1830
G01 Y170.0580
G01 Y95.8332
G01 Y89.7082
G01 Y15.4833
G01 Y9.3583
G01 Y0.0000
G03 X0.0000 Y-1.5625 I1.5625 J0.0000
G01 X62.4127
G01 X68.5377
G01 X142.7626
G01 X148.8876
G01 X186.0000
G03 X187.5625 Y0.0000 I0.0000 J1.5625
G01 Y34.6585
G01 Y40.7835
G01 Y42.1572 Z-1.5000 F1000
G01 Y40.7835 Z-2.0000
G01 Y115.0084 F2000
G01 Y121.1334
G01 Y195.3583
G01 Y201.4833
G01 Y226.0000
G03 X186.0000 Y227.5625 I-1.5625 J0.0000
G01 X180.0000
G03 X179.7150 Y227.5363 I0.0000 J-1.5625
G01 X139.4344 Y220.0649
G01 X133.4121 Y218.9479
G01 X60.4320 Y205.4112
G01 X54.4098 Y204.2942
G01 X6.3824 Y195.3859
G01 X0.5327 Y194.3009
G03 X-0.5962 Y194.0572 I0.3343 J-4.2856
G03 X-1.5625 Y192.6129 I0.5962 J-1.4443
G01 Y191.9709
G01 Y176.1830
G01 Y170.0580
G01 Y95.8332
G01 Y89.7082
G01 Y15.4833
G01 Y9.3583
G01 Y0.0000
G03 X0.0000 Y-1.5625 I1.5625 J0.0000
G01 X62.4127
G01 X68.5377
G01 X142.7626
G01 X148.8876
G01 X186.0000
G03 X187.5625 Y0.0000 I0.0000 J1.5625
G01 Y34.6585
G01 Y40.7835
G01 Y42.1572 Z-2.5000 F1000
G01 Y40.7835 Z-3.0000
G01 Y115.0084 F2000
G01 Y121.1334
G01 Y195.3583
G01 Y201.4833
G01 Y226.0000
G03 X186.0000 Y227.5625 I-1.5625 J0.0000
G01 X180.0000
G03 X179.7150 Y227.5363 I0.0000 J-1.5625
G01 X139.4344 Y220.0649
G01 X133.4121 Y218.9479
G01 X60.4320 Y205.4112
G01 X54.4098 Y204.2942
G01 X6.3824 Y195.3859
G01 X0.5327 Y194.3009
G03 X-0.5962 Y194.0572 I0.3343 J-4.2856
G03 X-1.5625 Y192.6129 I0.5962 J-1.4443
G01 Y191.9709
G01 Y176.1830
G01 Y170.0580
G01 Y95.8332
G01 Y89.7082
G01 Y15.4833
G01 Y9.3583
G01 Y0.0000
G03 X0.0000 Y-1.5625 I1.5625 J0.0000
G01 X62.4127
G01 X68.5377
G01 X142.7626
G01 X148.8876
G01 X186.0000
G03 X187.5625 Y0.0000 I0.0000 J1.5625
G01 Y34.6585
G01 Y40.7835
G01 Y42.1572 Z-3.5000 F1000
G01 Y40.7835 Z-4.0000
G01 Y115.0084 F2000
G01 Y121.1334
G01 Y195.3583
G01 Y201.4833
G01 Y226.0000
G03 X186.0000 Y227.5625 I-1.5625 J0.0000
G01 X180.0000
G03 X179.7150 Y227.5363 I0.0000 J-1.5625
G01 X139.4344 Y220.0649
G01 X133.4121 Y218.9479
G01 X60.4320 Y205.4112
G01 X54.4098 Y204.2942
G01 X6.3824 Y195.3859
G01 X0.5327 Y194.3009
G03 X-0.5962 Y194.0572 I0.3343 J-4.2856
G03 X-1.5625 Y192.6129 I0.5962 J-1.4443
G01 Y191.9709
G01 Y176.1830
G01 Y170.0580
G01 Y95.8332
G01 Y89.7082
G01 Y15.4833
G01 Y9.3583
G01 Y0.0000
G03 X0.0000 Y-1.5625 I1.5625 J0.0000
G01 X62.4127
G01 X68.5377
G01 X142.7626
G01 X148.8876
G01 X186.0000
G03 X187.5625 Y0.0000 I0.0000 J1.5625
G01 Y34.6585
G01 Y40.7835
G01 Y42.1572 Z-4.5000 F1000
G01 Y40.7835 Z-5.0000
G01 Y115.0084 F2000
G01 Y121.1334
G01 Y195.3583
G01 Y201.4833
G01 Y226.0000
G03 X186.0000 Y227.5625 I-1.5625 J0.0000
G01 X180.0000
G03 X179.7150 Y227.5363 I0.0000 J-1.5625
G01 X139.4344 Y220.0649
G01 X133.4121 Y218.9479
G01 X60.4320 Y205.4112
G01 X54.4098 Y204.2942
G01 X6.3824 Y195.3859
G01 X0.5327 Y194.3009
G03 X-0.5962 Y194.0572 I0.3343 J-4.2856
G03 X-1.5625 Y192.6129 I0.5962 J-1.4443
G01 Y191.9709
G01 Y176.1830
G01 Y170.0580
G01 Y95.8332
G01 Y89.7082
G01 Y15.4833
G01 Y9.3583
G01 Y0.0000
G03 X0.0000 Y-1.5625 I1.5625 J0.0000
G01 X62.4127
G01 X68.5377
G01 X142.7626
G01 X148.8876
G01 X186.0000
G03 X187.5625 Y0.0000 I0.0000 J1.5625
G01 Y34.6585
G01 Y40.7835
G01 Y42.1572 Z-5.5000 F1000
G01 Y40.7835 Z-6.0000
G01 Y115.0084 F2000
G01 Y121.1334
G01 Y195.3583
G01 Y201.4833
G01 Y226.0000
G03 X186.0000 Y227.5625 I-1.5625 J0.0000
G01 X180.0000
G03 X179.7150 Y227.5363 I0.0000 J-1.5625
G01 X139.4344 Y220.0649
G01 X133.4121 Y218.9479
G01 X60.4320 Y205.4112
G01 X54.4098 Y204.2942
G01 X6.3824 Y195.3859
G01 X0.5327 Y194.3009
G03 X-0.5962 Y194.0572 I0.3343 J-4.2856
G03 X-1.5625 Y192.6129 I0.5962 J-1.4443
G01 Y191.9709
G01 Y176.1830
G01 Y170.0580
G01 Y95.8332
G01 Y89.7082
G01 Y15.4833
G01 Y9.3583
G01 Y0.0000
G03 X0.0000 Y-1.5625 I1.5625 J0.0000
G01 X62.4127
G01 X68.5377
G01 X142.7626
G01 X148.8876
G01 X186.0000
G03 X187.5625 Y0.0000 I0.0000 J1.5625
G01 Y34.6585
G01 Y40.7835
G01 Y42.1572 Z-6.5000 F1000
G01 Y40.7835 Z-7.0000
G01 Y115.0084 F2000
G01 Y121.1334
G01 Y195.3583
G01 Y201.4833
G01 Y226.0000
G03 X186.0000 Y227.5625 I-1.5625 J0.0000
G01 X180.0000
G03 X179.7150 Y227.5363 I0.0000 J-1.5625
G01 X139.4344 Y220.0649
G01 X133.4121 Y218.9479
G01 X60.4320 Y205.4112
G01 X54.4098 Y204.2942
G01 X6.3824 Y195.3859
G01 X0.5327 Y194.3009
G03 X-0.5962 Y194.0572 I0.3343 J-4.2856
G03 X-1.5625 Y192.6129 I0.5962 J-1.4443
G01 Y191.9709
G01 Y176.1830
G01 Y170.0580
G01 Y95.8332
G01 Y89.7082
G01 Y15.4833
G01 Y9.3583
G01 Y0.0000
G03 X0.0000 Y-1.5625 I1.5625 J0.0000
G01 X62.4127
G01 X68.5377
G01 X142.7626
G01 X148.8876
G01 X186.0000
G03 X187.5625 Y0.0000 I0.0000 J1.5625
G01 Y34.6585
G01 Y40.7835
G01 Y42.1572 Z-7.5000 F1000
G01 Y40.7835 Z-8.0000
G01 Y115.0084 F2000
G01 Y121.1334
G01 Y195.3583
G01 Y201.4833
G01 Y226.0000
G03 X186.0000 Y227.5625 I-1.5625 J0.0000
G01 X180.0000
G03 X179.7150 Y227.5363 I0.0000 J-1.5625
G01 X139.4344 Y220.0649
G01 X133.4121 Y218.9479
G01 X60.4320 Y205.4112
G01 X54.4098 Y204.2942
G01 X6.3824 Y195.3859
G01 X0.5327 Y194.3009
G03 X-0.5962 Y194.0572 I0.3343 J-4.2856
G03 X-1.5625 Y192.6129 I0.5962 J-1.4443
G01 Y191.9709
G01 Y176.1830
G01 Y170.0580
G01 Y95.8332
G01 Y89.7082
G01 Y15.4833
G01 Y9.3583
G01 Y0.0000
G03 X0.0000 Y-1.5625 I1.5625 J0.0000
G01 X62.4127
G01 X68.5377
G01 X142.7626
G01 X148.8876
G01 X186.0000
G03 X187.5625 Y0.0000 I0.0000 J1.5625
G01 Y34.6585
G01 Y40.7835
G01 Y42.1572 Z-8.5000 F1000
G01 Y40.7835 Z-9.0000
G01 Y115.0084 F2000
G01 Y121.1334
G01 Y195.3583
G01 Y201.4833
G01 Y226.0000
G03 X186.0000 Y227.5625 I-1.5625 J0.0000
G01 X180.0000
G03 X179.7150 Y227.5363 I0.0000 J-1.5625
G01 X139.4344 Y220.0649
G01 X133.4121 Y218.9479
G01 X60.4320 Y205.4112
G01 X54.4098 Y204.2942
G01 X6.3824 Y195.3859
G01 X0.5327 Y194.3009
G03 X-0.5962 Y194.0572 I0.3343 J-4.2856
G03 X-1.5625 Y192.6129 I0.5962 J-1.4443
G01 Y191.9709
G01 Y176.1830
G01 Y170.0580
G01 Y95.8332
G01 Y89.7082
G01 Y15.4833
G01 Y9.3583
G01 Y0.0000
G03 X0.0000 Y-1.5625 I1.5625 J0.0000
G01 X62.4127
G01 X68.5377
G01 X142.7626
G01 X148.8876
G01 X186.0000
G03 X187.5625 Y0.0000 I0.0000 J1.5625
G01 Y34.6585
G01 Y40.7835
G01 Y42.1572 Z-9.5000 F1000
G01 Y40.7835 Z-10.0000
G01 Y115.0084 F2000
G00 Z-9.0000 F800
G01 Y121.1334 F2000
G01 Y122.5071 Z-9.5000 F1000
G01 Y121.1334 Z-10.0000
G01 Y195.3583 F2000
G00 Z-9.0000 F800
G01 Y201.4833 F2000
G01 Y202.8570 Z-9.5000 F1000
G01 Y201.4833 Z-10.0000
G01 Y226.0000 F2000
G03 X186.0000 Y227.5625 I-1.5625 J0.0000
G01 X180.0000
G03 X179.7150 Y227.5363 I0.0000 J-1.5625
G01 X139.4344 Y220.0649
G00 Z-9.0000 F800
G01 X133.4121 Y218.9479 F2000
G01 X132.0614 Y218.6973 Z-9.5000 F1000
G01 X133.4121 Y218.9479 Z-10.0000
G01 X60.4320 Y205.4112 F2000
G00 Z-9.0000 F800
G01 X54.4098 Y204.2942 F2000
G01 X53.0591 Y204.0437 Z-9.5000 F1000
G01 X54.4098 Y204.2942 Z-10.0000
G01 X6.3824 Y195.3859 F2000
G01 X0.5327 Y194.3009
G03 X-0.5962 Y194.0572 I0.3343 J-4.2856
G03 X-1.5625 Y192.6129 I0.5962 J-1.4443
G01 Y191.9709
G01 Y176.1830
G00 Z-9.0000 F800
G01 Y170.0580 F2000
G01 Y168.6843 Z-9.5000 F1000
G01 Y170.0580 Z-10.0000
G01 Y95.8332 F2000
G00 Z-9.0000 F800
G01 Y89.7082 F2000
G01 Y88.3344 Z-9.5000 F1000
G01 Y89.7082 Z-10.0000
G01 Y15.4833 F2000
G00 Z-9.0000 F800
G01 Y9.3583 F2000
G01 Y7.9845 Z-9.5000 F1000
G01 Y9.3583 Z-10.0000
G01 Y0.0000 F2000
G03 X0.0000 Y-1.5625 I1.5625 J0.0000
G01 X62.4127
G00 Z-9.0000 F800
G01 X68.5377 F2000
G01 X69.9114 Z-9.5000 F1000
G01 X68.5377 Z-10.0000
G01 X142.7626 F2000
G00 Z-9.0000 F800
G01 X148.8876 F2000
G01 X150.2613 Z-9.5000 F1000
G01 X148.8876 Z-10.0000
G01 X186.0000 F2000
G03 X187.5625 Y0.0000 I0.0000 J1.5625
G01 Y34.6585
G00 Z-9.0000 F800
G01 Y40.7835 F2000
G00 Z-9.5000 F800
G01 Z-10.0000 F1000
G01 Y42.1572 Z-10.5000
G01 Y40.7835 Z-11.0000
G01 Y115.0084 F2000
G00 Z-9.0000 F800
G01 Y121.1334 F2000
G00 Z-9.5000 F800
G01 Z-10.0000 F1000
G01 Y122.5071 Z-10.5000
G01 Y121.1334 Z-11.0000
G01 Y195.3583 F2000
G00 Z-9.0000 F800
G01 Y201.4833 F2000
G00 Z-9.5000 F800
G01 Z-10.0000 F1000
G01 Y202.8570 Z-10.5000
G01 Y201.4833 Z-11.0000
G01 Y226.0000 F2000
G03 X186.0000 Y227.5625 I-1.5625 J0.0000
G01 X180.0000
G03 X179.7150 Y227.5363 I0.0000 J-1.5625
G01 X139.4344 Y220.0649
G00 Z-9.0000 F800
G01 X133.4121 Y218.9479 F2000
G00 Z-9.5000 F800
G01 Z-10.0000 F1000
G01 X132.0614 Y218.6973 Z-10.5000
G01 X133.4121 Y218.9479 Z-11.0000
G01 X60.4320 Y205.4112 F2000
G00 Z-9.0000 F800
G01 X54.4098 Y204.2942 F2000
G00 Z-9.5000 F800
G01 Z-10.0000 F1000
G01 X53.0591 Y204.0437 Z-10.5000
G01 X54.4098 Y204.2942 Z-11.0000
G01 X6.3824 Y195.3859 F2000
G01 X0.5327 Y194.3009
G03 X-0.5962 Y194.0572 I0.3343 J-4.2856
G03 X-1.5625 Y192.6129 I0.5962 J-1.4443
G01 Y191.9709
G01 Y176.1830
G00 Z-9.0000 F800
G01 Y170.0580 F2000
G00 Z-9.5000 F800
G01 Z-10.0000 F1000
G01 Y168.6843 Z-10.5000
G01 Y170.0580 Z-11.0000
G01 Y95.8332 F2000
G00 Z-9.0000 F800
G01 Y89.7082 F2000
G00 Z-9.5000 F800
G01 Z-10.0000 F1000
G01 Y88.3344 Z-10.5000
G01 Y89.7082 Z-11.0000
G01 Y15.4833 F2000
G00 Z-9.0000 F800
G01 Y9.3583 F2000
G00 Z-9.5000 F800
G01 Z-10.0000 F1000
G01 Y7.9845 Z-10.5000
G01 Y9.3583 Z-11.0000
G01 Y0.0000 F2000
G03 X0.0000 Y-1.5625 I1.5625 J0.0000
G01 X62.4127
G00 Z-9.0000 F800
G01 X68.5377 F2000
G00 Z-9.5000 F800
G01 Z-10.0000 F1000
G01 X69.9114 Z-10.5000
G01 X68.5377 Z-11.0000
G01 X142.7626 F2000
G00 Z-9.0000 F800
G01 X148.8876 F2000
G00 Z-9.5000 F800
G01 Z-10.0000 F1000
G01 X150.2613 Z-10.5000
G01 X148.8876 Z-11.0000
G01 X186.0000 F2000
G03 X187.5625 Y0.0000 I0.0000 J1.5625
G01 Y34.6585
G00 Z-9.0000 F800
G01 Y40.7835 F2000
G00 Z-10.5000 F800
G01 Z-11.0000 F1000
G01 Y42.1572 Z-11.5000
G01 Y40.7835 Z-12.0000
G01 Y115.0084 F2000
G00 Z-9.0000 F800
G01 Y121.1334 F2000
G00 Z-10.5000 F800
G01 Z-11.0000 F1000
G01 Y122.5071 Z-11.5000
G01 Y121.1334 Z-12.0000
G01 Y195.3583 F2000
G00 Z-9.0000 F800
G01 Y201.4833 F2000
G00 Z-10.5000 F800
G01 Z-11.0000 F1000
G01 Y202.8570 Z-11.5000
G01 Y201.4833 Z-12.0000
G01 Y226.0000 F2000
G03 X186.0000 Y227.5625 I-1.5625 J0.0000
G01 X180.0000
G03 X179.7150 Y227.5363 I0.0000 J-1.5625
G01 X139.4344 Y220.0649
G00 Z-9.0000 F800
G01 X133.4121 Y218.9479 F2000
G00 Z-10.5000 F800
G01 Z-11.0000 F1000
G01 X132.0614 Y218.6973 Z-11.5000
G01 X133.4121 Y218.9479 Z-12.0000
G01 X60.4320 Y205.4112 F2000
G00 Z-9.0000 F800
G01 X54.4098 Y204.2942 F2000
G00 Z-10.5000 F800
G01 Z-11.0000 F1000
G01 X53.0591 Y204.0437 Z-11.5000
G01 X54.4098 Y204.2942 Z-12.0000
G01 X6.3824 Y195.3859 F2000
G01 X0.5327 Y194.3009
G03 X-0.5962 Y194.0572 I0.3343 J-4.2856
G03 X-1.5625 Y192.6129 I0.5962 J-1.4443
G01 Y191.9709
G01 Y176.1830
G00 Z-9.0000 F800
G01 Y170.0580 F2000
G00 Z-10.5000 F800
G01 Z-11.0000 F1000
G01 Y168.6843 Z-11.5000
G01 Y170.0580 Z-12.0000
G01 Y95.8332 F2000
G00 Z-9.0000 F800
G01 Y89.7082 F2000
G00 Z-10.5000 F800
G01 Z-11.0000 F1000
G01 Y88.3344 Z-11.5000
G01 Y89.7082 Z-12.0000
G01 Y15.4833 F2000
G00 Z-9.0000 F800
G01 Y9.3583 F2000
G00 Z-10.5000 F800
G01 Z-11.0000 F1000
G01 Y7.9845 Z-11.5000
G01 Y9.3583 Z-12.0000
G01 Y0.0000 F2000
G03 X0.0000 Y-1.5625 I1.5625 J0.0000
G01 X62.4127
G00 Z-9.0000 F800
G01 X68.5377 F2000
G00 Z-10.5000 F800
G01 Z-11.0000 F1000
G01 X69.9114 Z-11.5000
G01 X68.5377 Z-12.0000
G01 X142.7626 F2000
G00 Z-9.0000 F800
G01 X148.8876 F2000
G00 Z-10.5000 F800
G01 Z-11.0000 F1000
G01 X150.2613 Z-11.5000
G01 X148.8876 Z-12.0000
G01 X186.0000 F2000
G03 X187.5625 Y0.0000 I0.0000 J1.5625
G01 Y34.6585
G00 Z-9.0000 F800
G01 Y40.7835 F2000
G00 Z-11.5000 F800
G01 Z-12.0000 F1000
G01 Y42.1572 Z-12.5000
G01 Y40.7835 Z-13.0000
G01 Y115.0084 F2000
G00 Z-9.0000 F800
G01 Y121.1334 F2000
G00 Z-11.5000 F800
G01 Z-12.0000 F1000
G01 Y122.5071 Z-12.5000
G01 Y121.1334 Z-13.0000
G01 Y195.3583 F2000
G00 Z-9.0000 F800
G01 Y201.4833 F2000
G00 Z-11.5000 F800
G01 Z-12.0000 F1000
G01 Y202.8570 Z-12.5000
G01 Y201.4833 Z-13.0000
G01 Y226.0000 F2000
G03 X186.0000 Y227.5625 I-1.5625 J0.0000
G01 X180.0000
G03 X179.7150 Y227.5363 I0.0000 J-1.5625
G01 X139.4344 Y220.0649
G00 Z-9.0000 F800
G01 X133.4121 Y218.9479 F2000
G00 Z-11.5000 F800
G01 Z-12.0000 F1000
G01 X132.0614 Y218.6973 Z-12.5000
G01 X133.4121 Y218.9479 Z-13.0000
G01 X60.4320 Y205.4112 F2000
G00 Z-9.0000 F800
G01 X54.4098 Y204.2942 F2000
G00 Z-11.5000 F800
G01 Z-12.0000 F1000
G01 X53.0591 Y204.0437 Z-12.5000
G01 X54.4098 Y204.2942 Z-13.0000
G01 X6.3824 Y195.3859 F2000
G01 X0.5327 Y194.3009
G03 X-0.5962 Y194.0572 I0.3343 J-4.2856
G03 X-1.5625 Y192.6129 I0.5962 J-1.4443
G01 Y191.9709
G01 Y176.1830
G00 Z-9.0000 F800
G01 Y170.0580 F2000
G00 Z-11.5000 F800
G01 Z-12.0000 F1000
G01 Y168.6843 Z-12.5000
G01 Y170.0580 Z-13.0000
G01 Y95.8332 F2000
G00 Z-9.0000 F800
G01 Y89.7082 F2000
G00 Z-11.5000 F800
G01 Z-12.0000 F1000
G01 Y88.3344 Z-12.5000
G01 Y89.7082 Z-13.0000
G01 Y15.4833 F2000
G00 Z-9.0000 F800
G01 Y9.3583 F2000
G00 Z-11.5000 F800
G01 Z-12.0000 F1000
G01 Y7.9845 Z-12.5000
G01 Y9.3583 Z-13.0000
G01 Y0.0000 F2000
G03 X0.0000 Y-1.5625 I1.5625 J0.0000
G01 X62.4127
G00 Z-9.0000 F800
G01 X68.5377 F2000
G00 Z-11.5000 F800
G01 Z-12.0000 F1000
G01 X69.9114 Z-12.5000
G01 X68.5377 Z-13.0000
G01 X142.7626 F2000
G00 Z-9.0000 F800
G01 X148.8876 F2000
G00 Z-11.5000 F800
G01 Z-12.0000 F1000
G01 X150.2613 Z-12.5000
G01 X148.8876 Z-13.0000
G01 X186.0000 F2000
G03 X187.5625 Y0.0000 I0.0000 J1.5625
G01 Y34.6585
G00 Z-9.0000 F800
G01 Y40.7835 F2000
G00 Z5.0000 F800
G00 X0.0000 Y0.0000 F2000


M05
M30
