(Projekt base)
(Erstellt mit Estlcam 13.002)
(Laufzeit ca. 00:15:52 Stunden)

(Benoetigte Werkzeuge:)
(Beispielwerkzeug)

G21
G90
G94
M03 S24000
G00 Z5.0000 F800

(Nr. 1 Ausschnitt bearbeiten: Ausschnitt 2)
G00 X6.0003 Y13.4973 Z5.0000 F2000
G00 Z0.5000 F800
G01 Z0.0000 F1000 S24000
G01 X6.0007 Y16.2447 Z-1.0000
G01 X6.0090 Y67.4292 F2000
G01 X6.0852 Y67.4375
G01 X6.0800
G01 X7.4375
G01 Y13.5100
G01 X7.4307 Y13.5107
G01 X6.0003 Y13.4973
G01 X6.0007 Y16.2447 Z-2.0000 F1000
G01 X6.0090 Y67.4292 F2000
G01 X6.0852 Y67.4375
G01 X6.0800
G01 X7.4375
G01 Y13.5100
G01 X7.4307 Y13.5107
G01 X6.0003 Y13.4973
G01 X6.0007 Y16.2447 Z-3.0000 F1000
G01 X6.0090 Y67.4292 F2000
G01 X6.0852 Y67.4375
G01 X6.0800
G01 X7.4375
G01 Y13.5100
G01 X7.4307 Y13.5107
G01 X6.0003 Y13.4973
G01 X6.0007 Y16.2447
G00 Z5.0000 F800

(Nr. 2 Ausschnitt bearbeiten: Ausschnitt 4)
G00 X178.5625 Y16.2447 Z5.0000 F2000
G00 Z0.5000 F800
G01 Z0.0000 F1000
G01 Y18.9922 Z-1.0000
G01 Y67.5200 F2000
G01 X178.5677 Y67.5210
G01 X181.3889 Y67.6094
G01 X181.5161 Y13.6271
G01 X180.3562 Y13.5214
G03 X180.0000 Y13.5625 I-0.3565 J-1.5263
G01 X178.5625
G01 Y16.2447
G01 Y18.9922 Z-2.0000 F1000
G01 Y67.5200 F2000
G01 X178.5677 Y67.5210
G01 X181.3889 Y67.6094
G01 X181.5161 Y13.6271
G01 X180.3562 Y13.5214
G03 X180.0000 Y13.5625 I-0.3565 J-1.5263
G01 X178.5625
G01 Y16.2447
G01 Y18.9922 Z-3.0000 F1000
G01 Y67.5200 F2000
G01 X178.5677 Y67.5210
G01 X181.3889 Y67.6094
G01 X181.5161 Y13.6271
G01 X180.3562 Y13.5214
G03 X180.0000 Y13.5625 I-0.3565 J-1.5263
G01 X178.5625
G01 Y16.2447
G01 Y18.9922
G00 Z5.0000 F800

(Nr. 3 Raeumen parallel: Tasche 1)
G00 X182.3063 Y18.9922 Z5.0000 F2000
G00 Z0.5000 F800
G01 X183.0875 F1000
G02 X181.9156 Y18.3156 Z0.1667 I-0.7813 J0.0000
G02 Y19.6688 Z-0.1667 I0.3906 J0.6766
G02 X183.0875 Y18.9922 Z-0.5000 I0.3906 J-0.6766
G02 X182.3063 Y18.2110 Z-0.7500 I-0.7813 J0.0000
G02 X181.5250 Y18.9922 Z-1.0000 I0.0000 J0.7813
G02 X182.6969 Y19.6688 I0.7813 J0.0000
G02 Y18.3156 I-0.3906 J-0.6766
G02 X181.5250 Y18.9922 I-0.3906 J0.6766
G01 X182.3063 F2000
G01 X182.3062 Y144.1406
G03 X180.0281 Y146.3063 I-2.3245 J-0.1642
G01 X5.9625
G03 X3.7125 Y144.3375 I0.1025 J-2.3872
G01 Y2.3063
G01 X2.3063
G01 Y147.6844
G01 X183.7125
G01 Y2.3063
G01 X182.3063
G01 Y18.9922
G01 X181.5625
G01 Y144.0000
G03 X180.0000 Y145.5625 I-1.5625 J0.0000
G01 X6.0000
G03 X4.4375 Y144.0000 I0.0000 J-1.5625
G01 Y11.9200
G01 Y5.9600
G01 Y1.5625
G01 X1.5625
G01 Y148.4375
G01 X184.4375
G01 Y1.5700
G01 Y1.5625
G01 X181.5625
G01 Y5.9600
G01 Y11.9200
G01 Y18.9922
G00 Z5.0000 F800
G00 X182.3063 F2000
G00 Z-0.5000 F800
G01 X183.0875 F1000
G02 X181.9156 Y18.3156 Z-0.8333 I-0.7813 J0.0000
G02 Y19.6688 Z-1.1667 I0.3906 J0.6766
G02 X183.0875 Y18.9922 Z-1.5000 I0.3906 J-0.6766
G02 X182.3063 Y18.2110 Z-1.7500 I-0.7813 J0.0000
G02 X181.5250 Y18.9922 Z-2.0000 I0.0000 J0.7813
G02 X182.6969 Y19.6688 I0.7813 J0.0000
G02 Y18.3156 I-0.3906 J-0.6766
G02 X181.5250 Y18.9922 I-0.3906 J0.6766
G01 X182.3063 F2000
G01 X182.3062 Y144.1406
G03 X180.0281 Y146.3063 I-2.3245 J-0.1642
G01 X5.9625
G03 X3.7125 Y144.3375 I0.1025 J-2.3872
G01 Y2.3063
G01 X2.3063
G01 Y147.6844
G01 X183.7125
G01 Y2.3063
G01 X182.3063
G01 Y18.9922
G01 X181.5625
G01 Y144.0000
G03 X180.0000 Y145.5625 I-1.5625 J0.0000
G01 X6.0000
G03 X4.4375 Y144.0000 I0.0000 J-1.5625
G01 Y11.9200
G01 Y5.9600
G01 Y1.5625
G01 X1.5625
G01 Y148.4375
G01 X184.4375
G01 Y1.5700
G01 Y1.5625
G01 X181.5625
G01 Y5.9600
G01 Y11.9200
G01 Y18.9922
G00 Z5.0000 F800
G00 X182.3063 F2000
G00 Z-1.5000 F800
G01 X183.0875 F1000
G02 X181.9156 Y18.3156 Z-1.8333 I-0.7813 J0.0000
G02 Y19.6688 Z-2.1667 I0.3906 J0.6766
G02 X183.0875 Y18.9922 Z-2.5000 I0.3906 J-0.6766
G02 X182.3063 Y18.2110 Z-2.7500 I-0.7813 J0.0000
G02 X181.5250 Y18.9922 Z-3.0000 I0.0000 J0.7813
G02 X182.6969 Y19.6688 I0.7813 J0.0000
G02 Y18.3156 I-0.3906 J-0.6766
G02 X181.5250 Y18.9922 I-0.3906 J0.6766
G01 X182.3063 F2000
G01 X182.3062 Y144.1406
G03 X180.0281 Y146.3063 I-2.3245 J-0.1642
G01 X5.9625
G03 X3.7125 Y144.3375 I0.1025 J-2.3872
G01 Y2.3063
G01 X2.3063
G01 Y147.6844
G01 X183.7125
G01 Y2.3063
G01 X182.3063
G01 Y18.9922
G01 X181.5625
G01 Y144.0000
G03 X180.0000 Y145.5625 I-1.5625 J0.0000
G01 X6.0000
G03 X4.4375 Y144.0000 I0.0000 J-1.5625
G01 Y11.9200
G01 Y5.9600
G01 Y1.5625
G01 X1.5625
G01 Y148.4375
G01 X184.4375
G01 Y1.5700
G01 Y1.5625
G01 X181.5625
G01 Y5.9600
G01 Y11.9200
G01 Y18.9922
G00 Z5.0000 F800
G00 X182.3063 F2000
G00 Z-2.5000 F800
G01 X183.0875 F1000
G02 X181.9156 Y18.3156 Z-2.8333 I-0.7813 J0.0000
G02 Y19.6688 Z-3.1667 I0.3906 J0.6766
G02 X183.0875 Y18.9922 Z-3.5000 I0.3906 J-0.6766
G02 X182.3063 Y18.2110 Z-3.7500 I-0.7813 J0.0000
G02 X181.5250 Y18.9922 Z-4.0000 I0.0000 J0.7813
G02 X182.6969 Y19.6688 I0.7813 J0.0000
G02 Y18.3156 I-0.3906 J-0.6766
G02 X181.5250 Y18.9922 I-0.3906 J0.6766
G01 X182.3063 F2000
G01 X182.3062 Y144.1406
G03 X180.0281 Y146.3063 I-2.3245 J-0.1642
G01 X5.9625
G03 X3.7125 Y144.3375 I0.1025 J-2.3872
G01 Y2.3063
G01 X2.3063
G01 Y147.6844
G01 X183.7125
G01 Y2.3063
G01 X182.3063
G01 Y18.9922
G01 X181.5625
G01 Y144.0000
G03 X180.0000 Y145.5625 I-1.5625 J0.0000
G01 X6.0000
G03 X4.4375 Y144.0000 I0.0000 J-1.5625
G01 Y11.9200
G01 Y5.9600
G01 Y1.5625
G01 X1.5625
G01 Y148.4375
G01 X184.4375
G01 Y1.5700
G01 Y1.5625
G01 X181.5625
G01 Y5.9600
G01 Y11.9200
G01 Y18.9922
G00 Z5.0000 F800
G00 X182.3063 F2000
G00 Z-3.5000 F800
G01 X183.0875 F1000
G02 X181.9156 Y18.3156 Z-3.8333 I-0.7813 J0.0000
G02 Y19.6688 Z-4.1667 I0.3906 J0.6766
G02 X183.0875 Y18.9922 Z-4.5000 I0.3906 J-0.6766
G02 X182.3063 Y18.2110 Z-4.7500 I-0.7813 J0.0000
G02 X181.5250 Y18.9922 Z-5.0000 I0.0000 J0.7813
G02 X182.6969 Y19.6688 I0.7813 J0.0000
G02 Y18.3156 I-0.3906 J-0.6766
G02 X181.5250 Y18.9922 I-0.3906 J0.6766
G01 X182.3063 F2000
G01 X182.3062 Y144.1406
G03 X180.0281 Y146.3063 I-2.3245 J-0.1642
G01 X5.9625
G03 X3.7125 Y144.3375 I0.1025 J-2.3872
G01 Y2.3063
G01 X2.3063
G01 Y147.6844
G01 X183.7125
G01 Y2.3063
G01 X182.3063
G01 Y18.9922
G01 X181.5625
G01 Y144.0000
G03 X180.0000 Y145.5625 I-1.5625 J0.0000
G01 X6.0000
G03 X4.4375 Y144.0000 I0.0000 J-1.5625
G01 Y11.9200
G01 Y5.9600
G01 Y1.5625
G01 X1.5625
G01 Y148.4375
G01 X184.4375
G01 Y1.5700
G01 Y1.5625
G01 X181.5625
G01 Y5.9600
G01 Y11.9200
G01 Y18.9922
G00 Z5.0000 F800
G00 X182.3063 F2000
G00 Z-4.5000 F800
G01 X183.0875 F1000
G02 X181.9156 Y18.3156 Z-4.8333 I-0.7813 J0.0000
G02 Y19.6688 Z-5.1667 I0.3906 J0.6766
G02 X183.0875 Y18.9922 Z-5.5000 I0.3906 J-0.6766
G02 X182.3063 Y18.2110 Z-5.7500 I-0.7813 J0.0000
G02 X181.5250 Y18.9922 Z-6.0000 I0.0000 J0.7813
G02 X182.6969 Y19.6688 I0.7813 J0.0000
G02 Y18.3156 I-0.3906 J-0.6766
G02 X181.5250 Y18.9922 I-0.3906 J0.6766
G01 X182.3063 F2000
G01 X182.3062 Y144.1406
G03 X180.0281 Y146.3063 I-2.3245 J-0.1642
G01 X5.9625
G03 X3.7125 Y144.3375 I0.1025 J-2.3872
G01 Y2.3063
G01 X2.3063
G01 Y147.6844
G01 X183.7125
G01 Y2.3063
G01 X182.3063
G01 Y18.9922
G01 X181.5625
G01 Y144.0000
G03 X180.0000 Y145.5625 I-1.5625 J0.0000
G01 X6.0000
G03 X4.4375 Y144.0000 I0.0000 J-1.5625
G01 Y11.9200
G01 Y5.9600
G01 Y1.5625
G01 X1.5625
G01 Y148.4375
G01 X184.4375
G01 Y1.5700
G01 Y1.5625
G01 X181.5625
G01 Y5.9600
G01 Y11.9200
G01 Y18.9922
G00 Z5.0000 F800

(Nr. 4 Ausschnitt bearbeiten: Ausschnitt 6)
G00 X70.8087 Y80.6230 Z5.0000 F2000
G00 Z0.5000 F800
G01 Z0.0000 F1000
G01 X70.7564 Y80.5639 Z-0.0287
G02 X70.6279 Y80.4488 Z-0.0923 I-0.2791 J0.1822
G02 X70.4724 Y80.3697 Z-0.1565 I-0.2252 J0.2507
G02 X70.2291 Y80.3292 Z-0.2473 I-0.1972 J0.4337
G01 X70.2029 Y80.3276 Z-0.2568
G02 X69.9616 Y80.3971 Z-0.3493 I0.0090 J0.4850
G02 X69.8154 Y80.4923 Z-0.4135 I0.1045 J0.3204
G02 X69.6977 Y80.6237 Z-0.4785 I0.1864 J0.2853
G02 X69.6191 Y80.7795 Z-0.5427 I0.2514 J0.2245
G02 X69.5835 Y80.9503 Z-0.6069 I0.3009 J0.1518
G02 X69.5934 Y81.1245 Z-0.6712 I0.3300 J0.0687
G02 X69.6480 Y81.2902 Z-0.7354 I0.3365 J-0.0190
G02 X69.7436 Y81.4361 Z-0.7996 I0.3201 J-0.1055
G02 X69.8721 Y81.5512 Z-0.8631 I0.2791 J-0.1822
G02 X70.0386 Y81.6339 Z-0.9316 I0.2376 J-0.2694
G01 X70.1215 Y81.6617 Z-0.9634
G01 X70.1983 Y81.6663 Z-0.9914
G02 X70.2217 Y81.6697 Z-1.0000 I0.0779 J-0.4647
G02 X70.4411 Y81.6430 I0.0546 J-0.4680 F2000
G01 X70.4695 Y81.6373
G01 X70.5384 Y81.6029
G02 X70.6846 Y81.5077 I-0.1045 J-0.3204
G02 X70.8023 Y81.3763 I-0.1864 J-0.2853
G02 X70.8846 Y81.2095 I-0.2701 J-0.2369
G01 X70.9117 Y81.1285
G01 X70.9165 Y81.0497
G02 X70.9066 Y80.8755 I-0.3300 J-0.0687
G02 X70.8468 Y80.6993 I-0.3587 J0.0235
G01 X70.8087 Y80.6230
G01 X70.7564 Y80.5639 Z-1.0287 F1000
G02 X70.6279 Y80.4488 Z-1.0923 I-0.2791 J0.1822
G02 X70.4724 Y80.3697 Z-1.1565 I-0.2252 J0.2507
G02 X70.2291 Y80.3292 Z-1.2473 I-0.1972 J0.4337
G01 X70.2029 Y80.3276 Z-1.2568
G02 X69.9616 Y80.3971 Z-1.3493 I0.0090 J0.4850
G02 X69.8154 Y80.4923 Z-1.4135 I0.1045 J0.3204
G02 X69.6977 Y80.6237 Z-1.4785 I0.1864 J0.2853
G02 X69.6191 Y80.7795 Z-1.5427 I0.2514 J0.2245
G02 X69.5835 Y80.9503 Z-1.6069 I0.3009 J0.1518
G02 X69.5934 Y81.1245 Z-1.6712 I0.3300 J0.0687
G02 X69.6480 Y81.2902 Z-1.7354 I0.3365 J-0.0190
G02 X69.7436 Y81.4361 Z-1.7996 I0.3201 J-0.1055
G02 X69.8721 Y81.5512 Z-1.8631 I0.2791 J-0.1822
G02 X70.0386 Y81.6339 Z-1.9316 I0.2376 J-0.2694
G01 X70.1215 Y81.6617 Z-1.9634
G01 X70.1983 Y81.6663 Z-1.9914
G02 X70.2217 Y81.6697 Z-2.0000 I0.0779 J-0.4647
G02 X70.4411 Y81.6430 I0.0546 J-0.4680 F2000
G01 X70.4695 Y81.6373
G01 X70.5384 Y81.6029
G02 X70.6846 Y81.5077 I-0.1045 J-0.3204
G02 X70.8023 Y81.3763 I-0.1864 J-0.2853
G02 X70.8846 Y81.2095 I-0.2701 J-0.2369
G01 X70.9117 Y81.1285
G01 X70.9165 Y81.0497
G02 X70.9066 Y80.8755 I-0.3300 J-0.0687
G02 X70.8468 Y80.6993 I-0.3587 J0.0235
G01 X70.8087 Y80.6230
G01 X70.7564 Y80.5639 Z-2.0287 F1000
G02 X70.6279 Y80.4488 Z-2.0923 I-0.2791 J0.1822
G02 X70.4724 Y80.3697 Z-2.1565 I-0.2252 J0.2507
G02 X70.2291 Y80.3292 Z-2.2473 I-0.1972 J0.4337
G01 X70.2029 Y80.3276 Z-2.2568
G02 X69.9616 Y80.3971 Z-2.3493 I0.0090 J0.4850
G02 X69.8154 Y80.4923 Z-2.4135 I0.1045 J0.3204
G02 X69.6977 Y80.6237 Z-2.4785 I0.1864 J0.2853
G02 X69.6191 Y80.7795 Z-2.5427 I0.2514 J0.2245
G02 X69.5835 Y80.9503 Z-2.6069 I0.3009 J0.1518
G02 X69.5934 Y81.1245 Z-2.6712 I0.3300 J0.0687
G02 X69.6480 Y81.2902 Z-2.7354 I0.3365 J-0.0190
G02 X69.7436 Y81.4361 Z-2.7996 I0.3201 J-0.1055
G02 X69.8721 Y81.5512 Z-2.8631 I0.2791 J-0.1822
G02 X70.0386 Y81.6339 Z-2.9316 I0.2376 J-0.2694
G01 X70.1215 Y81.6617 Z-2.9634
G01 X70.1983 Y81.6663 Z-2.9914
G02 X70.2217 Y81.6697 Z-3.0000 I0.0779 J-0.4647
G02 X70.4411 Y81.6430 I0.0546 J-0.4680 F2000
G01 X70.4695 Y81.6373
G01 X70.5384 Y81.6029
G02 X70.6846 Y81.5077 I-0.1045 J-0.3204
G02 X70.8023 Y81.3763 I-0.1864 J-0.2853
G02 X70.8846 Y81.2095 I-0.2701 J-0.2369
G01 X70.9117 Y81.1285
G01 X70.9165 Y81.0497
G02 X70.9066 Y80.8755 I-0.3300 J-0.0687
G02 X70.8468 Y80.6993 I-0.3587 J0.0235
G01 X70.8087 Y80.6230
G01 X70.7564 Y80.5639 Z-3.0287 F1000
G02 X70.6279 Y80.4488 Z-3.0923 I-0.2791 J0.1822
G02 X70.4724 Y80.3697 Z-3.1565 I-0.2252 J0.2507
G02 X70.2291 Y80.3292 Z-3.2473 I-0.1972 J0.4337
G01 X70.2029 Y80.3276 Z-3.2568
G02 X69.9616 Y80.3971 Z-3.3493 I0.0090 J0.4850
G02 X69.8154 Y80.4923 Z-3.4135 I0.1045 J0.3204
G02 X69.6977 Y80.6237 Z-3.4785 I0.1864 J0.2853
G02 X69.6191 Y80.7795 Z-3.5427 I0.2514 J0.2245
G02 X69.5835 Y80.9503 Z-3.6069 I0.3009 J0.1518
G02 X69.5934 Y81.1245 Z-3.6712 I0.3300 J0.0687
G02 X69.6480 Y81.2902 Z-3.7354 I0.3365 J-0.0190
G02 X69.7436 Y81.4361 Z-3.7996 I0.3201 J-0.1055
G02 X69.8721 Y81.5512 Z-3.8631 I0.2791 J-0.1822
G02 X70.0386 Y81.6339 Z-3.9316 I0.2376 J-0.2694
G01 X70.1215 Y81.6617 Z-3.9634
G01 X70.1983 Y81.6663 Z-3.9914
G02 X70.2217 Y81.6697 Z-4.0000 I0.0779 J-0.4647
G02 X70.4411 Y81.6430 I0.0546 J-0.4680 F2000
G01 X70.4695 Y81.6373
G01 X70.5384 Y81.6029
G02 X70.6846 Y81.5077 I-0.1045 J-0.3204
G02 X70.8023 Y81.3763 I-0.1864 J-0.2853
G02 X70.8846 Y81.2095 I-0.2701 J-0.2369
G01 X70.9117 Y81.1285
G01 X70.9165 Y81.0497
G02 X70.9066 Y80.8755 I-0.3300 J-0.0687
G02 X70.8468 Y80.6993 I-0.3587 J0.0235
G01 X70.8087 Y80.6230
G01 X70.7564 Y80.5639 Z-4.0287 F1000
G02 X70.6279 Y80.4488 Z-4.0923 I-0.2791 J0.1822
G02 X70.4724 Y80.3697 Z-4.1565 I-0.2252 J0.2507
G02 X70.2291 Y80.3292 Z-4.2473 I-0.1972 J0.4337
G01 X70.2029 Y80.3276 Z-4.2568
G02 X69.9616 Y80.3971 Z-4.3493 I0.0090 J0.4850
G02 X69.8154 Y80.4923 Z-4.4135 I0.1045 J0.3204
G02 X69.6977 Y80.6237 Z-4.4785 I0.1864 J0.2853
G02 X69.6191 Y80.7795 Z-4.5427 I0.2514 J0.2245
G02 X69.5835 Y80.9503 Z-4.6069 I0.3009 J0.1518
G02 X69.5934 Y81.1245 Z-4.6712 I0.3300 J0.0687
G02 X69.6480 Y81.2902 Z-4.7354 I0.3365 J-0.0190
G02 X69.7436 Y81.4361 Z-4.7996 I0.3201 J-0.1055
G02 X69.8721 Y81.5512 Z-4.8631 I0.2791 J-0.1822
G02 X70.0386 Y81.6339 Z-4.9316 I0.2376 J-0.2694
G01 X70.1215 Y81.6617 Z-4.9634
G01 X70.1983 Y81.6663 Z-4.9914
G02 X70.2217 Y81.6697 Z-5.0000 I0.0779 J-0.4647
G02 X70.4411 Y81.6430 I0.0546 J-0.4680 F2000
G01 X70.4695 Y81.6373
G01 X70.5384 Y81.6029
G02 X70.6846 Y81.5077 I-0.1045 J-0.3204
G02 X70.8023 Y81.3763 I-0.1864 J-0.2853
G02 X70.8846 Y81.2095 I-0.2701 J-0.2369
G01 X70.9117 Y81.1285
G01 X70.9165 Y81.0497
G02 X70.9066 Y80.8755 I-0.3300 J-0.0687
G02 X70.8468 Y80.6993 I-0.3587 J0.0235
G01 X70.8087 Y80.6230
G01 X70.7564 Y80.5639 Z-5.0287 F1000
G02 X70.6279 Y80.4488 Z-5.0923 I-0.2791 J0.1822
G02 X70.4724 Y80.3697 Z-5.1565 I-0.2252 J0.2507
G02 X70.2291 Y80.3292 Z-5.2473 I-0.1972 J0.4337
G01 X70.2029 Y80.3276 Z-5.2568
G02 X69.9616 Y80.3971 Z-5.3493 I0.0090 J0.4850
G02 X69.8154 Y80.4923 Z-5.4135 I0.1045 J0.3204
G02 X69.6977 Y80.6237 Z-5.4785 I0.1864 J0.2853
G02 X69.6191 Y80.7795 Z-5.5427 I0.2514 J0.2245
G02 X69.5835 Y80.9503 Z-5.6069 I0.3009 J0.1518
G02 X69.5934 Y81.1245 Z-5.6712 I0.3300 J0.0687
G02 X69.6480 Y81.2902 Z-5.7354 I0.3365 J-0.0190
G02 X69.7436 Y81.4361 Z-5.7996 I0.3201 J-0.1055
G02 X69.8721 Y81.5512 Z-5.8631 I0.2791 J-0.1822
G02 X70.0386 Y81.6339 Z-5.9316 I0.2376 J-0.2694
G01 X70.1215 Y81.6617 Z-5.9634
G01 X70.1983 Y81.6663 Z-5.9914
G02 X70.2217 Y81.6697 Z-6.0000 I0.0779 J-0.4647
G02 X70.4411 Y81.6430 I0.0546 J-0.4680 F2000
G01 X70.4695 Y81.6373
G01 X70.5384 Y81.6029
G02 X70.6846 Y81.5077 I-0.1045 J-0.3204
G02 X70.8023 Y81.3763 I-0.1864 J-0.2853
G02 X70.8846 Y81.2095 I-0.2701 J-0.2369
G01 X70.9117 Y81.1285
G01 X70.9165 Y81.0497
G02 X70.9066 Y80.8755 I-0.3300 J-0.0687
G02 X70.8468 Y80.6993 I-0.3587 J0.0235
G01 X70.8087 Y80.6230
G01 X70.7564 Y80.5639 Z-6.0287 F1000
G02 X70.6279 Y80.4488 Z-6.0923 I-0.2791 J0.1822
G02 X70.4724 Y80.3697 Z-6.1565 I-0.2252 J0.2507
G02 X70.2291 Y80.3292 Z-6.2473 I-0.1972 J0.4337
G01 X70.2029 Y80.3276 Z-6.2568
G02 X69.9616 Y80.3971 Z-6.3493 I0.0090 J0.4850
G02 X69.8154 Y80.4923 Z-6.4135 I0.1045 J0.3204
G02 X69.6977 Y80.6237 Z-6.4785 I0.1864 J0.2853
G02 X69.6191 Y80.7795 Z-6.5427 I0.2514 J0.2245
G02 X69.5835 Y80.9503 Z-6.6069 I0.3009 J0.1518
G02 X69.5934 Y81.1245 Z-6.6712 I0.3300 J0.0687
G02 X69.6480 Y81.2902 Z-6.7354 I0.3365 J-0.0190
G02 X69.7436 Y81.4361 Z-6.7996 I0.3201 J-0.1055
G02 X69.8721 Y81.5512 Z-6.8631 I0.2791 J-0.1822
G02 X70.0386 Y81.6339 Z-6.9316 I0.2376 J-0.2694
G01 X70.1215 Y81.6617 Z-6.9634
G01 X70.1983 Y81.6663 Z-6.9914
G02 X70.2217 Y81.6697 Z-7.0000 I0.0779 J-0.4647
G02 X70.4411 Y81.6430 I0.0546 J-0.4680 F2000
G01 X70.4695 Y81.6373
G01 X70.5384 Y81.6029
G02 X70.6846 Y81.5077 I-0.1045 J-0.3204
G02 X70.8023 Y81.3763 I-0.1864 J-0.2853
G02 X70.8846 Y81.2095 I-0.2701 J-0.2369
G01 X70.9117 Y81.1285
G01 X70.9165 Y81.0497
G02 X70.9066 Y80.8755 I-0.3300 J-0.0687
G02 X70.8468 Y80.6993 I-0.3587 J0.0235
G01 X70.8087 Y80.6230
G01 X70.7564 Y80.5639 Z-7.0287 F1000
G02 X70.6279 Y80.4488 Z-7.0923 I-0.2791 J0.1822
G02 X70.4724 Y80.3697 Z-7.1565 I-0.2252 J0.2507
G02 X70.2291 Y80.3292 Z-7.2473 I-0.1972 J0.4337
G01 X70.2029 Y80.3276 Z-7.2568
G02 X69.9616 Y80.3971 Z-7.3493 I0.0090 J0.4850
G02 X69.8154 Y80.4923 Z-7.4135 I0.1045 J0.3204
G02 X69.6977 Y80.6237 Z-7.4785 I0.1864 J0.2853
G02 X69.6191 Y80.7795 Z-7.5427 I0.2514 J0.2245
G02 X69.5835 Y80.9503 Z-7.6069 I0.3009 J0.1518
G02 X69.5934 Y81.1245 Z-7.6712 I0.3300 J0.0687
G02 X69.6480 Y81.2902 Z-7.7354 I0.3365 J-0.0190
G02 X69.7436 Y81.4361 Z-7.7996 I0.3201 J-0.1055
G02 X69.8721 Y81.5512 Z-7.8631 I0.2791 J-0.1822
G02 X70.0386 Y81.6339 Z-7.9316 I0.2376 J-0.2694
G01 X70.1215 Y81.6617 Z-7.9634
G01 X70.1983 Y81.6663 Z-7.9914
G02 X70.2217 Y81.6697 Z-8.0000 I0.0779 J-0.4647
G02 X70.4411 Y81.6430 I0.0546 J-0.4680 F2000
G01 X70.4695 Y81.6373
G01 X70.5384 Y81.6029
G02 X70.6846 Y81.5077 I-0.1045 J-0.3204
G02 X70.8023 Y81.3763 I-0.1864 J-0.2853
G02 X70.8846 Y81.2095 I-0.2701 J-0.2369
G01 X70.9117 Y81.1285
G01 X70.9165 Y81.0497
G02 X70.9066 Y80.8755 I-0.3300 J-0.0687
G02 X70.8468 Y80.6993 I-0.3587 J0.0235
G01 X70.8087 Y80.6230
G01 X70.7564 Y80.5639 Z-8.0287 F1000
G02 X70.6279 Y80.4488 Z-8.0923 I-0.2791 J0.1822
G02 X70.4724 Y80.3697 Z-8.1565 I-0.2252 J0.2507
G02 X70.2291 Y80.3292 Z-8.2473 I-0.1972 J0.4337
G01 X70.2029 Y80.3276 Z-8.2568
G02 X69.9616 Y80.3971 Z-8.3493 I0.0090 J0.4850
G02 X69.8154 Y80.4923 Z-8.4135 I0.1045 J0.3204
G02 X69.6977 Y80.6237 Z-8.4785 I0.1864 J0.2853
G02 X69.6191 Y80.7795 Z-8.5427 I0.2514 J0.2245
G02 X69.5835 Y80.9503 Z-8.6069 I0.3009 J0.1518
G02 X69.5934 Y81.1245 Z-8.6712 I0.3300 J0.0687
G02 X69.6480 Y81.2902 Z-8.7354 I0.3365 J-0.0190
G02 X69.7436 Y81.4361 Z-8.7996 I0.3201 J-0.1055
G02 X69.8721 Y81.5512 Z-8.8631 I0.2791 J-0.1822
G02 X70.0386 Y81.6339 Z-8.9316 I0.2376 J-0.2694
G01 X70.1215 Y81.6617 Z-8.9634
G01 X70.1983 Y81.6663 Z-8.9914
G02 X70.2217 Y81.6697 Z-9.0000 I0.0779 J-0.4647
G02 X70.4411 Y81.6430 I0.0546 J-0.4680 F2000
G01 X70.4695 Y81.6373
G01 X70.5384 Y81.6029
G02 X70.6846 Y81.5077 I-0.1045 J-0.3204
G02 X70.8023 Y81.3763 I-0.1864 J-0.2853
G02 X70.8846 Y81.2095 I-0.2701 J-0.2369
G01 X70.9117 Y81.1285
G01 X70.9165 Y81.0497
G02 X70.9066 Y80.8755 I-0.3300 J-0.0687
G02 X70.8468 Y80.6993 I-0.3587 J0.0235
G01 X70.8087 Y80.6230
G01 X70.7564 Y80.5639 Z-9.0287 F1000
G02 X70.6279 Y80.4488 Z-9.0923 I-0.2791 J0.1822
G02 X70.4724 Y80.3697 Z-9.1565 I-0.2252 J0.2507
G02 X70.2291 Y80.3292 Z-9.2473 I-0.1972 J0.4337
G01 X70.2029 Y80.3276 Z-9.2568
G02 X69.9616 Y80.3971 Z-9.3493 I0.0090 J0.4850
G02 X69.8154 Y80.4923 Z-9.4135 I0.1045 J0.3204
G02 X69.6977 Y80.6237 Z-9.4785 I0.1864 J0.2853
G02 X69.6191 Y80.7795 Z-9.5427 I0.2514 J0.2245
G02 X69.5835 Y80.9503 Z-9.6069 I0.3009 J0.1518
G02 X69.5934 Y81.1245 Z-9.6712 I0.3300 J0.0687
G02 X69.6480 Y81.2902 Z-9.7354 I0.3365 J-0.0190
G02 X69.7436 Y81.4361 Z-9.7996 I0.3201 J-0.1055
G02 X69.8721 Y81.5512 Z-9.8631 I0.2791 J-0.1822
G02 X70.0386 Y81.6339 Z-9.9316 I0.2376 J-0.2694
G01 X70.1215 Y81.6617 Z-9.9634
G01 X70.1983 Y81.6663 Z-9.9914
G02 X70.2217 Y81.6697 Z-10.0000 I0.0779 J-0.4647
G02 X70.4411 Y81.6430 I0.0546 J-0.4680 F2000
G01 X70.4695 Y81.6373
G01 X70.5384 Y81.6029
G02 X70.6846 Y81.5077 I-0.1045 J-0.3204
G02 X70.8023 Y81.3763 I-0.1864 J-0.2853
G02 X70.8846 Y81.2095 I-0.2701 J-0.2369
G01 X70.9117 Y81.1285
G01 X70.9165 Y81.0497
G02 X70.9066 Y80.8755 I-0.3300 J-0.0687
G02 X70.8468 Y80.6993 I-0.3587 J0.0235
G01 X70.8087 Y80.6230
G01 X70.7564 Y80.5639 Z-10.0287 F1000
G02 X70.6279 Y80.4488 Z-10.0923 I-0.2791 J0.1822
G02 X70.4724 Y80.3697 Z-10.1565 I-0.2252 J0.2507
G02 X70.2291 Y80.3292 Z-10.2473 I-0.1972 J0.4337
G01 X70.2029 Y80.3276 Z-10.2568
G02 X69.9616 Y80.3971 Z-10.3493 I0.0090 J0.4850
G02 X69.8154 Y80.4923 Z-10.4135 I0.1045 J0.3204
G02 X69.6977 Y80.6237 Z-10.4785 I0.1864 J0.2853
G02 X69.6191 Y80.7795 Z-10.5427 I0.2514 J0.2245
G02 X69.5835 Y80.9503 Z-10.6069 I0.3009 J0.1518
G02 X69.5934 Y81.1245 Z-10.6712 I0.3300 J0.0687
G02 X69.6480 Y81.2902 Z-10.7354 I0.3365 J-0.0190
G02 X69.7436 Y81.4361 Z-10.7996 I0.3201 J-0.1055
G02 X69.8721 Y81.5512 Z-10.8631 I0.2791 J-0.1822
G02 X70.0386 Y81.6339 Z-10.9316 I0.2376 J-0.2694
G01 X70.1215 Y81.6617 Z-10.9634
G01 X70.1983 Y81.6663 Z-10.9914
G02 X70.2217 Y81.6697 Z-11.0000 I0.0779 J-0.4647
G02 X70.4411 Y81.6430 I0.0546 J-0.4680 F2000
G01 X70.4695 Y81.6373
G01 X70.5384 Y81.6029
G02 X70.6846 Y81.5077 I-0.1045 J-0.3204
G02 X70.8023 Y81.3763 I-0.1864 J-0.2853
G02 X70.8846 Y81.2095 I-0.2701 J-0.2369
G01 X70.9117 Y81.1285
G01 X70.9165 Y81.0497
G02 X70.9066 Y80.8755 I-0.3300 J-0.0687
G02 X70.8468 Y80.6993 I-0.3587 J0.0235
G01 X70.8087 Y80.6230
G01 X70.7564 Y80.5639 Z-11.0287 F1000
G02 X70.6279 Y80.4488 Z-11.0923 I-0.2791 J0.1822
G02 X70.4724 Y80.3697 Z-11.1565 I-0.2252 J0.2507
G02 X70.2291 Y80.3292 Z-11.2473 I-0.1972 J0.4337
G01 X70.2029 Y80.3276 Z-11.2568
G02 X69.9616 Y80.3971 Z-11.3493 I0.0090 J0.4850
G02 X69.8154 Y80.4923 Z-11.4135 I0.1045 J0.3204
G02 X69.6977 Y80.6237 Z-11.4785 I0.1864 J0.2853
G02 X69.6191 Y80.7795 Z-11.5427 I0.2514 J0.2245
G02 X69.5835 Y80.9503 Z-11.6069 I0.3009 J0.1518
G02 X69.5934 Y81.1245 Z-11.6712 I0.3300 J0.0687
G02 X69.6480 Y81.2902 Z-11.7354 I0.3365 J-0.0190
G02 X69.7436 Y81.4361 Z-11.7996 I0.3201 J-0.1055
G02 X69.8721 Y81.5512 Z-11.8631 I0.2791 J-0.1822
G02 X70.0386 Y81.6339 Z-11.9316 I0.2376 J-0.2694
G01 X70.1215 Y81.6617 Z-11.9634
G01 X70.1983 Y81.6663 Z-11.9914
G02 X70.2217 Y81.6697 Z-12.0000 I0.0779 J-0.4647
G02 X70.4411 Y81.6430 I0.0546 J-0.4680 F2000
G01 X70.4695 Y81.6373
G01 X70.5384 Y81.6029
G02 X70.6846 Y81.5077 I-0.1045 J-0.3204
G02 X70.8023 Y81.3763 I-0.1864 J-0.2853
G02 X70.8846 Y81.2095 I-0.2701 J-0.2369
G01 X70.9117 Y81.1285
G01 X70.9165 Y81.0497
G02 X70.9066 Y80.8755 I-0.3300 J-0.0687
G02 X70.8468 Y80.6993 I-0.3587 J0.0235
G01 X70.8087 Y80.6230
G01 X70.7564 Y80.5639 Z-12.0287 F1000
G02 X70.6279 Y80.4488 Z-12.0923 I-0.2791 J0.1822
G02 X70.4724 Y80.3697 Z-12.1565 I-0.2252 J0.2507
G02 X70.2291 Y80.3292 Z-12.2473 I-0.1972 J0.4337
G01 X70.2029 Y80.3276 Z-12.2568
G02 X69.9616 Y80.3971 Z-12.3493 I0.0090 J0.4850
G02 X69.8154 Y80.4923 Z-12.4135 I0.1045 J0.3204
G02 X69.6977 Y80.6237 Z-12.4785 I0.1864 J0.2853
G02 X69.6191 Y80.7795 Z-12.5427 I0.2514 J0.2245
G02 X69.5835 Y80.9503 Z-12.6069 I0.3009 J0.1518
G02 X69.5934 Y81.1245 Z-12.6712 I0.3300 J0.0687
G02 X69.6480 Y81.2902 Z-12.7354 I0.3365 J-0.0190
G02 X69.7436 Y81.4361 Z-12.7996 I0.3201 J-0.1055
G02 X69.8721 Y81.5512 Z-12.8631 I0.2791 J-0.1822
G02 X70.0386 Y81.6339 Z-12.9316 I0.2376 J-0.2694
G01 X70.1215 Y81.6617 Z-12.9634
G01 X70.1983 Y81.6663 Z-12.9914
G02 X70.2217 Y81.6697 Z-13.0000 I0.0779 J-0.4647
G02 X70.4411 Y81.6430 I0.0546 J-0.4680 F2000
G01 X70.4695 Y81.6373
G01 X70.5384 Y81.6029
G02 X70.6846 Y81.5077 I-0.1045 J-0.3204
G02 X70.8023 Y81.3763 I-0.1864 J-0.2853
G02 X70.8846 Y81.2095 I-0.2701 J-0.2369
G01 X70.9117 Y81.1285
G01 X70.9165 Y81.0497
G02 X70.9066 Y80.8755 I-0.3300 J-0.0687
G02 X70.8468 Y80.6993 I-0.3587 J0.0235
G01 X70.8087 Y80.6230
G01 X70.7564 Y80.5639
G02 X70.6279 Y80.4488 I-0.2791 J0.1822
G02 X70.4724 Y80.3697 I-0.2252 J0.2507
G02 X70.2291 Y80.3292 I-0.1972 J0.4337
G01 X70.2029 Y80.3276
G02 X69.9616 Y80.3971 I0.0090 J0.4850
G02 X69.8154 Y80.4923 I0.1045 J0.3204
G02 X69.6977 Y80.6237 I0.1864 J0.2853
G02 X69.6191 Y80.7795 I0.2514 J0.2245
G02 X69.5835 Y80.9503 I0.3009 J0.1518
G02 X69.5934 Y81.1245 I0.3300 J0.0687
G02 X69.6480 Y81.2902 I0.3365 J-0.0190
G02 X69.7436 Y81.4361 I0.3201 J-0.1055
G02 X69.8721 Y81.5512 I0.2791 J-0.1822
G02 X70.0386 Y81.6339 I0.2376 J-0.2694
G01 X70.1215 Y81.6617
G01 X70.1983 Y81.6663
G02 X70.2217 Y81.6697 I0.0779 J-0.4647
G00 Z5.0000 F800

(Nr. 5 Ausschnitt bearbeiten: Ausschnitt 7)
G00 X115.0760 Y81.0000 Z5.0000 F2000
G00 Z0.5000 F800
G01 Z0.0000 F1000
G02 X115.0998 Y81.1764 Z-0.0655 I0.3411 J0.0438
G01 X115.1663 Y81.3370 Z-0.1288
G02 X115.4113 Y81.5824 Z-0.2565 I0.5805 J-0.3345
G01 X115.4130 Y81.5837 Z-0.2573
G02 X115.7530 Y81.6744 Z-0.3868 I0.3392 J-0.5891
G01 X115.7500 Y81.6740 Z-0.3879
G02 X116.0851 Y81.5845 Z-0.5156 I0.0005 J-0.6700
G01 X116.0870 Y81.5837 Z-0.5164
G02 X116.2279 Y81.4749 Z-0.5819 I-0.1326 J-0.3173
G01 X116.3337 Y81.3370 Z-0.6452
G02 X116.4013 Y81.1724 Z-0.7107 I-0.2734 J-0.2085
G01 X116.4240 Y81.0000 Z-0.7740
G02 X116.4002 Y80.8236 Z-0.8395 I-0.3411 J-0.0438
G01 X116.3337 Y80.6630 Z-0.9028
G02 X116.1583 Y80.4639 Z-1.0000 I-0.5805 J0.3345
G02 X116.0887 Y80.4176 I-0.4051 J0.5336 F2000
G01 X116.0870 Y80.4163
G02 X115.5776 Y80.3487 I-0.3365 J0.5824
G01 X115.5756 Y80.3489
G02 X115.2751 Y80.5221 I0.1729 J0.6473
G01 X115.2734 Y80.5234
G02 X115.1655 Y80.6649 I0.2102 J0.2722
G01 X115.0989 Y80.8256
G01 X115.0987 Y80.8276
G01 X115.0760 Y81.0000
G02 X115.0998 Y81.1764 Z-1.0655 I0.3411 J0.0438 F1000
G01 X115.1663 Y81.3370 Z-1.1288
G02 X115.4113 Y81.5824 Z-1.2565 I0.5805 J-0.3345
G01 X115.4130 Y81.5837 Z-1.2573
G02 X115.7530 Y81.6744 Z-1.3868 I0.3392 J-0.5891
G01 X115.7500 Y81.6740 Z-1.3879
G02 X116.0851 Y81.5845 Z-1.5156 I0.0005 J-0.6700
G01 X116.0870 Y81.5837 Z-1.5164
G02 X116.2279 Y81.4749 Z-1.5819 I-0.1326 J-0.3173
G01 X116.3337 Y81.3370 Z-1.6452
G02 X116.4013 Y81.1724 Z-1.7107 I-0.2734 J-0.2085
G01 X116.4240 Y81.0000 Z-1.7740
G02 X116.4002 Y80.8236 Z-1.8395 I-0.3411 J-0.0438
G01 X116.3337 Y80.6630 Z-1.9028
G02 X116.1583 Y80.4639 Z-2.0000 I-0.5805 J0.3345
G02 X116.0887 Y80.4176 I-0.4051 J0.5336 F2000
G01 X116.0870 Y80.4163
G02 X115.5776 Y80.3487 I-0.3365 J0.5824
G01 X115.5756 Y80.3489
G02 X115.2751 Y80.5221 I0.1729 J0.6473
G01 X115.2734 Y80.5234
G02 X115.1655 Y80.6649 I0.2102 J0.2722
G01 X115.0989 Y80.8256
G01 X115.0987 Y80.8276
G01 X115.0760 Y81.0000
G02 X115.0998 Y81.1764 Z-2.0655 I0.3411 J0.0438 F1000
G01 X115.1663 Y81.3370 Z-2.1288
G02 X115.4113 Y81.5824 Z-2.2565 I0.5805 J-0.3345
G01 X115.4130 Y81.5837 Z-2.2573
G02 X115.7530 Y81.6744 Z-2.3868 I0.3392 J-0.5891
G01 X115.7500 Y81.6740 Z-2.3879
G02 X116.0851 Y81.5845 Z-2.5156 I0.0005 J-0.6700
G01 X116.0870 Y81.5837 Z-2.5164
G02 X116.2279 Y81.4749 Z-2.5819 I-0.1326 J-0.3173
G01 X116.3337 Y81.3370 Z-2.6452
G02 X116.4013 Y81.1724 Z-2.7107 I-0.2734 J-0.2085
G01 X116.4240 Y81.0000 Z-2.7740
G02 X116.4002 Y80.8236 Z-2.8395 I-0.3411 J-0.0438
G01 X116.3337 Y80.6630 Z-2.9028
G02 X116.1583 Y80.4639 Z-3.0000 I-0.5805 J0.3345
G02 X116.0887 Y80.4176 I-0.4051 J0.5336 F2000
G01 X116.0870 Y80.4163
G02 X115.5776 Y80.3487 I-0.3365 J0.5824
G01 X115.5756 Y80.3489
G02 X115.2751 Y80.5221 I0.1729 J0.6473
G01 X115.2734 Y80.5234
G02 X115.1655 Y80.6649 I0.2102 J0.2722
G01 X115.0989 Y80.8256
G01 X115.0987 Y80.8276
G01 X115.0760 Y81.0000
G02 X115.0998 Y81.1764 Z-3.0655 I0.3411 J0.0438 F1000
G01 X115.1663 Y81.3370 Z-3.1288
G02 X115.4113 Y81.5824 Z-3.2565 I0.5805 J-0.3345
G01 X115.4130 Y81.5837 Z-3.2573
G02 X115.7530 Y81.6744 Z-3.3868 I0.3392 J-0.5891
G01 X115.7500 Y81.6740 Z-3.3879
G02 X116.0851 Y81.5845 Z-3.5156 I0.0005 J-0.6700
G01 X116.0870 Y81.5837 Z-3.5164
G02 X116.2279 Y81.4749 Z-3.5819 I-0.1326 J-0.3173
G01 X116.3337 Y81.3370 Z-3.6452
G02 X116.4013 Y81.1724 Z-3.7107 I-0.2734 J-0.2085
G01 X116.4240 Y81.0000 Z-3.7740
G02 X116.4002 Y80.8236 Z-3.8395 I-0.3411 J-0.0438
G01 X116.3337 Y80.6630 Z-3.9028
G02 X116.1583 Y80.4639 Z-4.0000 I-0.5805 J0.3345
G02 X116.0887 Y80.4176 I-0.4051 J0.5336 F2000
G01 X116.0870 Y80.4163
G02 X115.5776 Y80.3487 I-0.3365 J0.5824
G01 X115.5756 Y80.3489
G02 X115.2751 Y80.5221 I0.1729 J0.6473
G01 X115.2734 Y80.5234
G02 X115.1655 Y80.6649 I0.2102 J0.2722
G01 X115.0989 Y80.8256
G01 X115.0987 Y80.8276
G01 X115.0760 Y81.0000
G02 X115.0998 Y81.1764 Z-4.0655 I0.3411 J0.0438 F1000
G01 X115.1663 Y81.3370 Z-4.1288
G02 X115.4113 Y81.5824 Z-4.2565 I0.5805 J-0.3345
G01 X115.4130 Y81.5837 Z-4.2573
G02 X115.7530 Y81.6744 Z-4.3868 I0.3392 J-0.5891
G01 X115.7500 Y81.6740 Z-4.3879
G02 X116.0851 Y81.5845 Z-4.5156 I0.0005 J-0.6700
G01 X116.0870 Y81.5837 Z-4.5164
G02 X116.2279 Y81.4749 Z-4.5819 I-0.1326 J-0.3173
G01 X116.3337 Y81.3370 Z-4.6452
G02 X116.4013 Y81.1724 Z-4.7107 I-0.2734 J-0.2085
G01 X116.4240 Y81.0000 Z-4.7740
G02 X116.4002 Y80.8236 Z-4.8395 I-0.3411 J-0.0438
G01 X116.3337 Y80.6630 Z-4.9028
G02 X116.1583 Y80.4639 Z-5.0000 I-0.5805 J0.3345
G02 X116.0887 Y80.4176 I-0.4051 J0.5336 F2000
G01 X116.0870 Y80.4163
G02 X115.5776 Y80.3487 I-0.3365 J0.5824
G01 X115.5756 Y80.3489
G02 X115.2751 Y80.5221 I0.1729 J0.6473
G01 X115.2734 Y80.5234
G02 X115.1655 Y80.6649 I0.2102 J0.2722
G01 X115.0989 Y80.8256
G01 X115.0987 Y80.8276
G01 X115.0760 Y81.0000
G02 X115.0998 Y81.1764 Z-5.0655 I0.3411 J0.0438 F1000
G01 X115.1663 Y81.3370 Z-5.1288
G02 X115.4113 Y81.5824 Z-5.2565 I0.5805 J-0.3345
G01 X115.4130 Y81.5837 Z-5.2573
G02 X115.7530 Y81.6744 Z-5.3868 I0.3392 J-0.5891
G01 X115.7500 Y81.6740 Z-5.3879
G02 X116.0851 Y81.5845 Z-5.5156 I0.0005 J-0.6700
G01 X116.0870 Y81.5837 Z-5.5164
G02 X116.2279 Y81.4749 Z-5.5819 I-0.1326 J-0.3173
G01 X116.3337 Y81.3370 Z-5.6452
G02 X116.4013 Y81.1724 Z-5.7107 I-0.2734 J-0.2085
G01 X116.4240 Y81.0000 Z-5.7740
G02 X116.4002 Y80.8236 Z-5.8395 I-0.3411 J-0.0438
G01 X116.3337 Y80.6630 Z-5.9028
G02 X116.1583 Y80.4639 Z-6.0000 I-0.5805 J0.3345
G02 X116.0887 Y80.4176 I-0.4051 J0.5336 F2000
G01 X116.0870 Y80.4163
G02 X115.5776 Y80.3487 I-0.3365 J0.5824
G01 X115.5756 Y80.3489
G02 X115.2751 Y80.5221 I0.1729 J0.6473
G01 X115.2734 Y80.5234
G02 X115.1655 Y80.6649 I0.2102 J0.2722
G01 X115.0989 Y80.8256
G01 X115.0987 Y80.8276
G01 X115.0760 Y81.0000
G02 X115.0998 Y81.1764 Z-6.0655 I0.3411 J0.0438 F1000
G01 X115.1663 Y81.3370 Z-6.1288
G02 X115.4113 Y81.5824 Z-6.2565 I0.5805 J-0.3345
G01 X115.4130 Y81.5837 Z-6.2573
G02 X115.7530 Y81.6744 Z-6.3868 I0.3392 J-0.5891
G01 X115.7500 Y81.6740 Z-6.3879
G02 X116.0851 Y81.5845 Z-6.5156 I0.0005 J-0.6700
G01 X116.0870 Y81.5837 Z-6.5164
G02 X116.2279 Y81.4749 Z-6.5819 I-0.1326 J-0.3173
G01 X116.3337 Y81.3370 Z-6.6452
G02 X116.4013 Y81.1724 Z-6.7107 I-0.2734 J-0.2085
G01 X116.4240 Y81.0000 Z-6.7740
G02 X116.4002 Y80.8236 Z-6.8395 I-0.3411 J-0.0438
G01 X116.3337 Y80.6630 Z-6.9028
G02 X116.1583 Y80.4639 Z-7.0000 I-0.5805 J0.3345
G02 X116.0887 Y80.4176 I-0.4051 J0.5336 F2000
G01 X116.0870 Y80.4163
G02 X115.5776 Y80.3487 I-0.3365 J0.5824
G01 X115.5756 Y80.3489
G02 X115.2751 Y80.5221 I0.1729 J0.6473
G01 X115.2734 Y80.5234
G02 X115.1655 Y80.6649 I0.2102 J0.2722
G01 X115.0989 Y80.8256
G01 X115.0987 Y80.8276
G01 X115.0760 Y81.0000
G02 X115.0998 Y81.1764 Z-7.0655 I0.3411 J0.0438 F1000
G01 X115.1663 Y81.3370 Z-7.1288
G02 X115.4113 Y81.5824 Z-7.2565 I0.5805 J-0.3345
G01 X115.4130 Y81.5837 Z-7.2573
G02 X115.7530 Y81.6744 Z-7.3868 I0.3392 J-0.5891
G01 X115.7500 Y81.6740 Z-7.3879
G02 X116.0851 Y81.5845 Z-7.5156 I0.0005 J-0.6700
G01 X116.0870 Y81.5837 Z-7.5164
G02 X116.2279 Y81.4749 Z-7.5819 I-0.1326 J-0.3173
G01 X116.3337 Y81.3370 Z-7.6452
G02 X116.4013 Y81.1724 Z-7.7107 I-0.2734 J-0.2085
G01 X116.4240 Y81.0000 Z-7.7740
G02 X116.4002 Y80.8236 Z-7.8395 I-0.3411 J-0.0438
G01 X116.3337 Y80.6630 Z-7.9028
G02 X116.1583 Y80.4639 Z-8.0000 I-0.5805 J0.3345
G02 X116.0887 Y80.4176 I-0.4051 J0.5336 F2000
G01 X116.0870 Y80.4163
G02 X115.5776 Y80.3487 I-0.3365 J0.5824
G01 X115.5756 Y80.3489
G02 X115.2751 Y80.5221 I0.1729 J0.6473
G01 X115.2734 Y80.5234
G02 X115.1655 Y80.6649 I0.2102 J0.2722
G01 X115.0989 Y80.8256
G01 X115.0987 Y80.8276
G01 X115.0760 Y81.0000
G02 X115.0998 Y81.1764 Z-8.0655 I0.3411 J0.0438 F1000
G01 X115.1663 Y81.3370 Z-8.1288
G02 X115.4113 Y81.5824 Z-8.2565 I0.5805 J-0.3345
G01 X115.4130 Y81.5837 Z-8.2573
G02 X115.7530 Y81.6744 Z-8.3868 I0.3392 J-0.5891
G01 X115.7500 Y81.6740 Z-8.3879
G02 X116.0851 Y81.5845 Z-8.5156 I0.0005 J-0.6700
G01 X116.0870 Y81.5837 Z-8.5164
G02 X116.2279 Y81.4749 Z-8.5819 I-0.1326 J-0.3173
G01 X116.3337 Y81.3370 Z-8.6452
G02 X116.4013 Y81.1724 Z-8.7107 I-0.2734 J-0.2085
G01 X116.4240 Y81.0000 Z-8.7740
G02 X116.4002 Y80.8236 Z-8.8395 I-0.3411 J-0.0438
G01 X116.3337 Y80.6630 Z-8.9028
G02 X116.1583 Y80.4639 Z-9.0000 I-0.5805 J0.3345
G02 X116.0887 Y80.4176 I-0.4051 J0.5336 F2000
G01 X116.0870 Y80.4163
G02 X115.5776 Y80.3487 I-0.3365 J0.5824
G01 X115.5756 Y80.3489
G02 X115.2751 Y80.5221 I0.1729 J0.6473
G01 X115.2734 Y80.5234
G02 X115.1655 Y80.6649 I0.2102 J0.2722
G01 X115.0989 Y80.8256
G01 X115.0987 Y80.8276
G01 X115.0760 Y81.0000
G02 X115.0998 Y81.1764 Z-9.0655 I0.3411 J0.0438 F1000
G01 X115.1663 Y81.3370 Z-9.1288
G02 X115.4113 Y81.5824 Z-9.2565 I0.5805 J-0.3345
G01 X115.4130 Y81.5837 Z-9.2573
G02 X115.7530 Y81.6744 Z-9.3868 I0.3392 J-0.5891
G01 X115.7500 Y81.6740 Z-9.3879
G02 X116.0851 Y81.5845 Z-9.5156 I0.0005 J-0.6700
G01 X116.0870 Y81.5837 Z-9.5164
G02 X116.2279 Y81.4749 Z-9.5819 I-0.1326 J-0.3173
G01 X116.3337 Y81.3370 Z-9.6452
G02 X116.4013 Y81.1724 Z-9.7107 I-0.2734 J-0.2085
G01 X116.4240 Y81.0000 Z-9.7740
G02 X116.4002 Y80.8236 Z-9.8395 I-0.3411 J-0.0438
G01 X116.3337 Y80.6630 Z-9.9028
G02 X116.1583 Y80.4639 Z-10.0000 I-0.5805 J0.3345
G02 X116.0887 Y80.4176 I-0.4051 J0.5336 F2000
G01 X116.0870 Y80.4163
G02 X115.5776 Y80.3487 I-0.3365 J0.5824
G01 X115.5756 Y80.3489
G02 X115.2751 Y80.5221 I0.1729 J0.6473
G01 X115.2734 Y80.5234
G02 X115.1655 Y80.6649 I0.2102 J0.2722
G01 X115.0989 Y80.8256
G01 X115.0987 Y80.8276
G01 X115.0760 Y81.0000
G02 X115.0998 Y81.1764 Z-10.0655 I0.3411 J0.0438 F1000
G01 X115.1663 Y81.3370 Z-10.1288
G02 X115.4113 Y81.5824 Z-10.2565 I0.5805 J-0.3345
G01 X115.4130 Y81.5837 Z-10.2573
G02 X115.7530 Y81.6744 Z-10.3868 I0.3392 J-0.5891
G01 X115.7500 Y81.6740 Z-10.3879
G02 X116.0851 Y81.5845 Z-10.5156 I0.0005 J-0.6700
G01 X116.0870 Y81.5837 Z-10.5164
G02 X116.2279 Y81.4749 Z-10.5819 I-0.1326 J-0.3173
G01 X116.3337 Y81.3370 Z-10.6452
G02 X116.4013 Y81.1724 Z-10.7107 I-0.2734 J-0.2085
G01 X116.4240 Y81.0000 Z-10.7740
G02 X116.4002 Y80.8236 Z-10.8395 I-0.3411 J-0.0438
G01 X116.3337 Y80.6630 Z-10.9028
G02 X116.1583 Y80.4639 Z-11.0000 I-0.5805 J0.3345
G02 X116.0887 Y80.4176 I-0.4051 J0.5336 F2000
G01 X116.0870 Y80.4163
G02 X115.5776 Y80.3487 I-0.3365 J0.5824
G01 X115.5756 Y80.3489
G02 X115.2751 Y80.5221 I0.1729 J0.6473
G01 X115.2734 Y80.5234
G02 X115.1655 Y80.6649 I0.2102 J0.2722
G01 X115.0989 Y80.8256
G01 X115.0987 Y80.8276
G01 X115.0760 Y81.0000
G02 X115.0998 Y81.1764 Z-11.0655 I0.3411 J0.0438 F1000
G01 X115.1663 Y81.3370 Z-11.1288
G02 X115.4113 Y81.5824 Z-11.2565 I0.5805 J-0.3345
G01 X115.4130 Y81.5837 Z-11.2573
G02 X115.7530 Y81.6744 Z-11.3868 I0.3392 J-0.5891
G01 X115.7500 Y81.6740 Z-11.3879
G02 X116.0851 Y81.5845 Z-11.5156 I0.0005 J-0.6700
G01 X116.0870 Y81.5837 Z-11.5164
G02 X116.2279 Y81.4749 Z-11.5819 I-0.1326 J-0.3173
G01 X116.3337 Y81.3370 Z-11.6452
G02 X116.4013 Y81.1724 Z-11.7107 I-0.2734 J-0.2085
G01 X116.4240 Y81.0000 Z-11.7740
G02 X116.4002 Y80.8236 Z-11.8395 I-0.3411 J-0.0438
G01 X116.3337 Y80.6630 Z-11.9028
G02 X116.1583 Y80.4639 Z-12.0000 I-0.5805 J0.3345
G02 X116.0887 Y80.4176 I-0.4051 J0.5336 F2000
G01 X116.0870 Y80.4163
G02 X115.5776 Y80.3487 I-0.3365 J0.5824
G01 X115.5756 Y80.3489
G02 X115.2751 Y80.5221 I0.1729 J0.6473
G01 X115.2734 Y80.5234
G02 X115.1655 Y80.6649 I0.2102 J0.2722
G01 X115.0989 Y80.8256
G01 X115.0987 Y80.8276
G01 X115.0760 Y81.0000
G02 X115.0998 Y81.1764 Z-12.0655 I0.3411 J0.0438 F1000
G01 X115.1663 Y81.3370 Z-12.1288
G02 X115.4113 Y81.5824 Z-12.2565 I0.5805 J-0.3345
G01 X115.4130 Y81.5837 Z-12.2573
G02 X115.7530 Y81.6744 Z-12.3868 I0.3392 J-0.5891
G01 X115.7500 Y81.6740 Z-12.3879
G02 X116.0851 Y81.5845 Z-12.5156 I0.0005 J-0.6700
G01 X116.0870 Y81.5837 Z-12.5164
G02 X116.2279 Y81.4749 Z-12.5819 I-0.1326 J-0.3173
G01 X116.3337 Y81.3370 Z-12.6452
G02 X116.4013 Y81.1724 Z-12.7107 I-0.2734 J-0.2085
G01 X116.4240 Y81.0000 Z-12.7740
G02 X116.4002 Y80.8236 Z-12.8395 I-0.3411 J-0.0438
G01 X116.3337 Y80.6630 Z-12.9028
G02 X116.1583 Y80.4639 Z-13.0000 I-0.5805 J0.3345
G02 X116.0887 Y80.4176 I-0.4051 J0.5336 F2000
G01 X116.0870 Y80.4163
G02 X115.5776 Y80.3487 I-0.3365 J0.5824
G01 X115.5756 Y80.3489
G02 X115.2751 Y80.5221 I0.1729 J0.6473
G01 X115.2734 Y80.5234
G02 X115.1655 Y80.6649 I0.2102 J0.2722
G01 X115.0989 Y80.8256
G01 X115.0987 Y80.8276
G01 X115.0760 Y81.0000
G02 X115.0998 Y81.1764 I0.3411 J0.0438
G01 X115.1663 Y81.3370
G02 X115.4113 Y81.5824 I0.5805 J-0.3345
G01 X115.4130 Y81.5837
G02 X115.7530 Y81.6744 I0.3392 J-0.5891
G01 X115.7500 Y81.6740
G02 X116.0851 Y81.5845 I0.0005 J-0.6700
G01 X116.0870 Y81.5837
G02 X116.2279 Y81.4749 I-0.1326 J-0.3173
G01 X116.3337 Y81.3370
G02 X116.4013 Y81.1724 I-0.2734 J-0.2085
G01 X116.4240 Y81.0000
G02 X116.4002 Y80.8236 I-0.3411 J-0.0438
G01 X116.3337 Y80.6630
G02 X116.1583 Y80.4639 I-0.5805 J0.3345
G00 Z5.0000 F800

(Nr. 6 Ausschnitt bearbeiten: Ausschnitt 5)
G00 X112.3527 Y104.3985 Z5.0000 F2000
G00 Z0.5000 F800
G01 Z0.0000 F1000
G01 X111.6389 Y104.2998 Z-0.2623
G01 X111.6191 Y104.2971 Z-0.2695
G01 X111.5209 Y104.2835 Z-0.3056
G01 X110.8059 Y104.3729 Z-0.5679
G01 X110.7861 Y104.3754 Z-0.5752
G01 X110.6877 Y104.3877 Z-0.6112
G01 X110.0202 Y104.6591 Z-0.8735
G01 X110.0017 Y104.6666 Z-0.8808
G01 X109.9098 Y104.7040 Z-0.9169
G01 X109.7277 Y104.8418 Z-1.0000
G01 X109.3354 Y105.1389 F2000
G02 X109.1795 Y105.2891 I0.2023 J0.3660
G01 X109.1672 Y105.3049
G01 X108.7249 Y105.8737
G01 X108.6863 Y105.9650
G01 X108.6786 Y105.9834
G01 X108.3985 Y106.6473
G01 X108.3576 Y106.9429
G01 X108.2835 Y107.4791
G01 X108.2958 Y107.5775
G01 X108.2983 Y107.5973
G01 X108.3877 Y108.3123
G01 X108.4250 Y108.4042
G01 X108.4326 Y108.4227
G01 X108.7040 Y109.0902
G01 X108.7638 Y109.1692
G02 X109.7796 Y110.2020 I2.4350 J-1.3791
G01 X109.7954 Y110.2143
G01 X109.8737 Y110.2751
G01 X110.4047 Y110.4992
G01 X110.6473 Y110.6015
G01 X111.3611 Y110.7002
G01 X111.3809 Y110.7029
G01 X111.4791 Y110.7165
G01 X112.1941 Y110.6271
G01 X112.2139 Y110.6246
G01 X112.3123 Y110.6123
G01 X112.9798 Y110.3409
G01 X112.9983 Y110.3334
G01 X113.0902 Y110.2960
G01 X113.6646 Y109.8611
G02 X113.8205 Y109.7109 I-0.2023 J-0.3660
G01 X113.8328 Y109.6951
G01 X114.2751 Y109.1263
G01 X114.3137 Y109.0350
G01 X114.3214 Y109.0166
G01 X114.6015 Y108.3527
G01 X114.6424 Y108.0571
G01 X114.7165 Y107.5209
G01 X114.7042 Y107.4225
G01 X114.7017 Y107.4027
G01 X114.6123 Y106.6877
G01 X114.5750 Y106.5958
G01 X114.5674 Y106.5773
G01 X114.2960 Y105.9098
G01 X114.2362 Y105.8308
G02 X113.2204 Y104.7980 I-2.4350 J1.3791
G01 X113.2046 Y104.7857
G01 X113.1263 Y104.7249
G01 X112.5953 Y104.5008
G01 X112.3527 Y104.3985
G01 X111.6389 Y104.2998 Z-1.2623 F1000
G01 X111.6191 Y104.2971 Z-1.2695
G01 X111.5209 Y104.2835 Z-1.3056
G01 X110.8059 Y104.3729 Z-1.5679
G01 X110.7861 Y104.3754 Z-1.5752
G01 X110.6877 Y104.3877 Z-1.6112
G01 X110.0202 Y104.6591 Z-1.8735
G01 X110.0017 Y104.6666 Z-1.8808
G01 X109.9098 Y104.7040 Z-1.9169
G01 X109.7277 Y104.8418 Z-2.0000
G01 X109.3354 Y105.1389 F2000
G02 X109.1795 Y105.2891 I0.2023 J0.3660
G01 X109.1672 Y105.3049
G01 X108.7249 Y105.8737
G01 X108.6863 Y105.9650
G01 X108.6786 Y105.9834
G01 X108.3985 Y106.6473
G01 X108.3576 Y106.9429
G01 X108.2835 Y107.4791
G01 X108.2958 Y107.5775
G01 X108.2983 Y107.5973
G01 X108.3877 Y108.3123
G01 X108.4250 Y108.4042
G01 X108.4326 Y108.4227
G01 X108.7040 Y109.0902
G01 X108.7638 Y109.1692
G02 X109.7796 Y110.2020 I2.4350 J-1.3791
G01 X109.7954 Y110.2143
G01 X109.8737 Y110.2751
G01 X110.4047 Y110.4992
G01 X110.6473 Y110.6015
G01 X111.3611 Y110.7002
G01 X111.3809 Y110.7029
G01 X111.4791 Y110.7165
G01 X112.1941 Y110.6271
G01 X112.2139 Y110.6246
G01 X112.3123 Y110.6123
G01 X112.9798 Y110.3409
G01 X112.9983 Y110.3334
G01 X113.0902 Y110.2960
G01 X113.6646 Y109.8611
G02 X113.8205 Y109.7109 I-0.2023 J-0.3660
G01 X113.8328 Y109.6951
G01 X114.2751 Y109.1263
G01 X114.3137 Y109.0350
G01 X114.3214 Y109.0166
G01 X114.6015 Y108.3527
G01 X114.6424 Y108.0571
G01 X114.7165 Y107.5209
G01 X114.7042 Y107.4225
G01 X114.7017 Y107.4027
G01 X114.6123 Y106.6877
G01 X114.5750 Y106.5958
G01 X114.5674 Y106.5773
G01 X114.2960 Y105.9098
G01 X114.2362 Y105.8308
G02 X113.2204 Y104.7980 I-2.4350 J1.3791
G01 X113.2046 Y104.7857
G01 X113.1263 Y104.7249
G01 X112.5953 Y104.5008
G01 X112.3527 Y104.3985
G01 X111.6389 Y104.2998 Z-2.2623 F1000
G01 X111.6191 Y104.2971 Z-2.2695
G01 X111.5209 Y104.2835 Z-2.3056
G01 X110.8059 Y104.3729 Z-2.5679
G01 X110.7861 Y104.3754 Z-2.5752
G01 X110.6877 Y104.3877 Z-2.6112
G01 X110.0202 Y104.6591 Z-2.8735
G01 X110.0017 Y104.6666 Z-2.8808
G01 X109.9098 Y104.7040 Z-2.9169
G01 X109.7277 Y104.8418 Z-3.0000
G01 X109.3354 Y105.1389 F2000
G02 X109.1795 Y105.2891 I0.2023 J0.3660
G01 X109.1672 Y105.3049
G01 X108.7249 Y105.8737
G01 X108.6863 Y105.9650
G01 X108.6786 Y105.9834
G01 X108.3985 Y106.6473
G01 X108.3576 Y106.9429
G01 X108.2835 Y107.4791
G01 X108.2958 Y107.5775
G01 X108.2983 Y107.5973
G01 X108.3877 Y108.3123
G01 X108.4250 Y108.4042
G01 X108.4326 Y108.4227
G01 X108.7040 Y109.0902
G01 X108.7638 Y109.1692
G02 X109.7796 Y110.2020 I2.4350 J-1.3791
G01 X109.7954 Y110.2143
G01 X109.8737 Y110.2751
G01 X110.4047 Y110.4992
G01 X110.6473 Y110.6015
G01 X111.3611 Y110.7002
G01 X111.3809 Y110.7029
G01 X111.4791 Y110.7165
G01 X112.1941 Y110.6271
G01 X112.2139 Y110.6246
G01 X112.3123 Y110.6123
G01 X112.9798 Y110.3409
G01 X112.9983 Y110.3334
G01 X113.0902 Y110.2960
G01 X113.6646 Y109.8611
G02 X113.8205 Y109.7109 I-0.2023 J-0.3660
G01 X113.8328 Y109.6951
G01 X114.2751 Y109.1263
G01 X114.3137 Y109.0350
G01 X114.3214 Y109.0166
G01 X114.6015 Y108.3527
G01 X114.6424 Y108.0571
G01 X114.7165 Y107.5209
G01 X114.7042 Y107.4225
G01 X114.7017 Y107.4027
G01 X114.6123 Y106.6877
G01 X114.5750 Y106.5958
G01 X114.5674 Y106.5773
G01 X114.2960 Y105.9098
G01 X114.2362 Y105.8308
G02 X113.2204 Y104.7980 I-2.4350 J1.3791
G01 X113.2046 Y104.7857
G01 X113.1263 Y104.7249
G01 X112.5953 Y104.5008
G01 X112.3527 Y104.3985
G01 X111.6389 Y104.2998 Z-3.2623 F1000
G01 X111.6191 Y104.2971 Z-3.2695
G01 X111.5209 Y104.2835 Z-3.3056
G01 X110.8059 Y104.3729 Z-3.5679
G01 X110.7861 Y104.3754 Z-3.5752
G01 X110.6877 Y104.3877 Z-3.6112
G01 X110.0202 Y104.6591 Z-3.8735
G01 X110.0017 Y104.6666 Z-3.8808
G01 X109.9098 Y104.7040 Z-3.9169
G01 X109.7277 Y104.8418 Z-4.0000
G01 X109.3354 Y105.1389 F2000
G02 X109.1795 Y105.2891 I0.2023 J0.3660
G01 X109.1672 Y105.3049
G01 X108.7249 Y105.8737
G01 X108.6863 Y105.9650
G01 X108.6786 Y105.9834
G01 X108.3985 Y106.6473
G01 X108.3576 Y106.9429
G01 X108.2835 Y107.4791
G01 X108.2958 Y107.5775
G01 X108.2983 Y107.5973
G01 X108.3877 Y108.3123
G01 X108.4250 Y108.4042
G01 X108.4326 Y108.4227
G01 X108.7040 Y109.0902
G01 X108.7638 Y109.1692
G02 X109.7796 Y110.2020 I2.4350 J-1.3791
G01 X109.7954 Y110.2143
G01 X109.8737 Y110.2751
G01 X110.4047 Y110.4992
G01 X110.6473 Y110.6015
G01 X111.3611 Y110.7002
G01 X111.3809 Y110.7029
G01 X111.4791 Y110.7165
G01 X112.1941 Y110.6271
G01 X112.2139 Y110.6246
G01 X112.3123 Y110.6123
G01 X112.9798 Y110.3409
G01 X112.9983 Y110.3334
G01 X113.0902 Y110.2960
G01 X113.6646 Y109.8611
G02 X113.8205 Y109.7109 I-0.2023 J-0.3660
G01 X113.8328 Y109.6951
G01 X114.2751 Y109.1263
G01 X114.3137 Y109.0350
G01 X114.3214 Y109.0166
G01 X114.6015 Y108.3527
G01 X114.6424 Y108.0571
G01 X114.7165 Y107.5209
G01 X114.7042 Y107.4225
G01 X114.7017 Y107.4027
G01 X114.6123 Y106.6877
G01 X114.5750 Y106.5958
G01 X114.5674 Y106.5773
G01 X114.2960 Y105.9098
G01 X114.2362 Y105.8308
G02 X113.2204 Y104.7980 I-2.4350 J1.3791
G01 X113.2046 Y104.7857
G01 X113.1263 Y104.7249
G01 X112.5953 Y104.5008
G01 X112.3527 Y104.3985
G01 X111.6389 Y104.2998 Z-4.2623 F1000
G01 X111.6191 Y104.2971 Z-4.2695
G01 X111.5209 Y104.2835 Z-4.3056
G01 X110.8059 Y104.3729 Z-4.5679
G01 X110.7861 Y104.3754 Z-4.5752
G01 X110.6877 Y104.3877 Z-4.6112
G01 X110.0202 Y104.6591 Z-4.8735
G01 X110.0017 Y104.6666 Z-4.8808
G01 X109.9098 Y104.7040 Z-4.9169
G01 X109.7277 Y104.8418 Z-5.0000
G01 X109.3354 Y105.1389 F2000
G02 X109.1795 Y105.2891 I0.2023 J0.3660
G01 X109.1672 Y105.3049
G01 X108.7249 Y105.8737
G01 X108.6863 Y105.9650
G01 X108.6786 Y105.9834
G01 X108.3985 Y106.6473
G01 X108.3576 Y106.9429
G01 X108.2835 Y107.4791
G01 X108.2958 Y107.5775
G01 X108.2983 Y107.5973
G01 X108.3877 Y108.3123
G01 X108.4250 Y108.4042
G01 X108.4326 Y108.4227
G01 X108.7040 Y109.0902
G01 X108.7638 Y109.1692
G02 X109.7796 Y110.2020 I2.4350 J-1.3791
G01 X109.7954 Y110.2143
G01 X109.8737 Y110.2751
G01 X110.4047 Y110.4992
G01 X110.6473 Y110.6015
G01 X111.3611 Y110.7002
G01 X111.3809 Y110.7029
G01 X111.4791 Y110.7165
G01 X112.1941 Y110.6271
G01 X112.2139 Y110.6246
G01 X112.3123 Y110.6123
G01 X112.9798 Y110.3409
G01 X112.9983 Y110.3334
G01 X113.0902 Y110.2960
G01 X113.6646 Y109.8611
G02 X113.8205 Y109.7109 I-0.2023 J-0.3660
G01 X113.8328 Y109.6951
G01 X114.2751 Y109.1263
G01 X114.3137 Y109.0350
G01 X114.3214 Y109.0166
G01 X114.6015 Y108.3527
G01 X114.6424 Y108.0571
G01 X114.7165 Y107.5209
G01 X114.7042 Y107.4225
G01 X114.7017 Y107.4027
G01 X114.6123 Y106.6877
G01 X114.5750 Y106.5958
G01 X114.5674 Y106.5773
G01 X114.2960 Y105.9098
G01 X114.2362 Y105.8308
G02 X113.2204 Y104.7980 I-2.4350 J1.3791
G01 X113.2046 Y104.7857
G01 X113.1263 Y104.7249
G01 X112.5953 Y104.5008
G01 X112.3527 Y104.3985
G01 X111.6389 Y104.2998 Z-5.2623 F1000
G01 X111.6191 Y104.2971 Z-5.2695
G01 X111.5209 Y104.2835 Z-5.3056
G01 X110.8059 Y104.3729 Z-5.5679
G01 X110.7861 Y104.3754 Z-5.5752
G01 X110.6877 Y104.3877 Z-5.6112
G01 X110.0202 Y104.6591 Z-5.8735
G01 X110.0017 Y104.6666 Z-5.8808
G01 X109.9098 Y104.7040 Z-5.9169
G01 X109.7277 Y104.8418 Z-6.0000
G01 X109.3354 Y105.1389 F2000
G02 X109.1795 Y105.2891 I0.2023 J0.3660
G01 X109.1672 Y105.3049
G01 X108.7249 Y105.8737
G01 X108.6863 Y105.9650
G01 X108.6786 Y105.9834
G01 X108.3985 Y106.6473
G01 X108.3576 Y106.9429
G01 X108.2835 Y107.4791
G01 X108.2958 Y107.5775
G01 X108.2983 Y107.5973
G01 X108.3877 Y108.3123
G01 X108.4250 Y108.4042
G01 X108.4326 Y108.4227
G01 X108.7040 Y109.0902
G01 X108.7638 Y109.1692
G02 X109.7796 Y110.2020 I2.4350 J-1.3791
G01 X109.7954 Y110.2143
G01 X109.8737 Y110.2751
G01 X110.4047 Y110.4992
G01 X110.6473 Y110.6015
G01 X111.3611 Y110.7002
G01 X111.3809 Y110.7029
G01 X111.4791 Y110.7165
G01 X112.1941 Y110.6271
G01 X112.2139 Y110.6246
G01 X112.3123 Y110.6123
G01 X112.9798 Y110.3409
G01 X112.9983 Y110.3334
G01 X113.0902 Y110.2960
G01 X113.6646 Y109.8611
G02 X113.8205 Y109.7109 I-0.2023 J-0.3660
G01 X113.8328 Y109.6951
G01 X114.2751 Y109.1263
G01 X114.3137 Y109.0350
G01 X114.3214 Y109.0166
G01 X114.6015 Y108.3527
G01 X114.6424 Y108.0571
G01 X114.7165 Y107.5209
G01 X114.7042 Y107.4225
G01 X114.7017 Y107.4027
G01 X114.6123 Y106.6877
G01 X114.5750 Y106.5958
G01 X114.5674 Y106.5773
G01 X114.2960 Y105.9098
G01 X114.2362 Y105.8308
G02 X113.2204 Y104.7980 I-2.4350 J1.3791
G01 X113.2046 Y104.7857
G01 X113.1263 Y104.7249
G01 X112.5953 Y104.5008
G01 X112.3527 Y104.3985
G01 X111.6389 Y104.2998 Z-6.2623 F1000
G01 X111.6191 Y104.2971 Z-6.2695
G01 X111.5209 Y104.2835 Z-6.3056
G01 X110.8059 Y104.3729 Z-6.5679
G01 X110.7861 Y104.3754 Z-6.5752
G01 X110.6877 Y104.3877 Z-6.6112
G01 X110.0202 Y104.6591 Z-6.8735
G01 X110.0017 Y104.6666 Z-6.8808
G01 X109.9098 Y104.7040 Z-6.9169
G01 X109.7277 Y104.8418 Z-7.0000
G01 X109.3354 Y105.1389 F2000
G02 X109.1795 Y105.2891 I0.2023 J0.3660
G01 X109.1672 Y105.3049
G01 X108.7249 Y105.8737
G01 X108.6863 Y105.9650
G01 X108.6786 Y105.9834
G01 X108.3985 Y106.6473
G01 X108.3576 Y106.9429
G01 X108.2835 Y107.4791
G01 X108.2958 Y107.5775
G01 X108.2983 Y107.5973
G01 X108.3877 Y108.3123
G01 X108.4250 Y108.4042
G01 X108.4326 Y108.4227
G01 X108.7040 Y109.0902
G01 X108.7638 Y109.1692
G02 X109.7796 Y110.2020 I2.4350 J-1.3791
G01 X109.7954 Y110.2143
G01 X109.8737 Y110.2751
G01 X110.4047 Y110.4992
G01 X110.6473 Y110.6015
G01 X111.3611 Y110.7002
G01 X111.3809 Y110.7029
G01 X111.4791 Y110.7165
G01 X112.1941 Y110.6271
G01 X112.2139 Y110.6246
G01 X112.3123 Y110.6123
G01 X112.9798 Y110.3409
G01 X112.9983 Y110.3334
G01 X113.0902 Y110.2960
G01 X113.6646 Y109.8611
G02 X113.8205 Y109.7109 I-0.2023 J-0.3660
G01 X113.8328 Y109.6951
G01 X114.2751 Y109.1263
G01 X114.3137 Y109.0350
G01 X114.3214 Y109.0166
G01 X114.6015 Y108.3527
G01 X114.6424 Y108.0571
G01 X114.7165 Y107.5209
G01 X114.7042 Y107.4225
G01 X114.7017 Y107.4027
G01 X114.6123 Y106.6877
G01 X114.5750 Y106.5958
G01 X114.5674 Y106.5773
G01 X114.2960 Y105.9098
G01 X114.2362 Y105.8308
G02 X113.2204 Y104.7980 I-2.4350 J1.3791
G01 X113.2046 Y104.7857
G01 X113.1263 Y104.7249
G01 X112.5953 Y104.5008
G01 X112.3527 Y104.3985
G01 X111.6389 Y104.2998 Z-7.2623 F1000
G01 X111.6191 Y104.2971 Z-7.2695
G01 X111.5209 Y104.2835 Z-7.3056
G01 X110.8059 Y104.3729 Z-7.5679
G01 X110.7861 Y104.3754 Z-7.5752
G01 X110.6877 Y104.3877 Z-7.6112
G01 X110.0202 Y104.6591 Z-7.8735
G01 X110.0017 Y104.6666 Z-7.8808
G01 X109.9098 Y104.7040 Z-7.9169
G01 X109.7277 Y104.8418 Z-8.0000
G01 X109.3354 Y105.1389 F2000
G02 X109.1795 Y105.2891 I0.2023 J0.3660
G01 X109.1672 Y105.3049
G01 X108.7249 Y105.8737
G01 X108.6863 Y105.9650
G01 X108.6786 Y105.9834
G01 X108.3985 Y106.6473
G01 X108.3576 Y106.9429
G01 X108.2835 Y107.4791
G01 X108.2958 Y107.5775
G01 X108.2983 Y107.5973
G01 X108.3877 Y108.3123
G01 X108.4250 Y108.4042
G01 X108.4326 Y108.4227
G01 X108.7040 Y109.0902
G01 X108.7638 Y109.1692
G02 X109.7796 Y110.2020 I2.4350 J-1.3791
G01 X109.7954 Y110.2143
G01 X109.8737 Y110.2751
G01 X110.4047 Y110.4992
G01 X110.6473 Y110.6015
G01 X111.3611 Y110.7002
G01 X111.3809 Y110.7029
G01 X111.4791 Y110.7165
G01 X112.1941 Y110.6271
G01 X112.2139 Y110.6246
G01 X112.3123 Y110.6123
G01 X112.9798 Y110.3409
G01 X112.9983 Y110.3334
G01 X113.0902 Y110.2960
G01 X113.6646 Y109.8611
G02 X113.8205 Y109.7109 I-0.2023 J-0.3660
G01 X113.8328 Y109.6951
G01 X114.2751 Y109.1263
G01 X114.3137 Y109.0350
G01 X114.3214 Y109.0166
G01 X114.6015 Y108.3527
G01 X114.6424 Y108.0571
G01 X114.7165 Y107.5209
G01 X114.7042 Y107.4225
G01 X114.7017 Y107.4027
G01 X114.6123 Y106.6877
G01 X114.5750 Y106.5958
G01 X114.5674 Y106.5773
G01 X114.2960 Y105.9098
G01 X114.2362 Y105.8308
G02 X113.2204 Y104.7980 I-2.4350 J1.3791
G01 X113.2046 Y104.7857
G01 X113.1263 Y104.7249
G01 X112.5953 Y104.5008
G01 X112.3527 Y104.3985
G01 X111.6389 Y104.2998 Z-8.2623 F1000
G01 X111.6191 Y104.2971 Z-8.2695
G01 X111.5209 Y104.2835 Z-8.3056
G01 X110.8059 Y104.3729 Z-8.5679
G01 X110.7861 Y104.3754 Z-8.5752
G01 X110.6877 Y104.3877 Z-8.6112
G01 X110.0202 Y104.6591 Z-8.8735
G01 X110.0017 Y104.6666 Z-8.8808
G01 X109.9098 Y104.7040 Z-8.9169
G01 X109.7277 Y104.8418 Z-9.0000
G01 X109.3354 Y105.1389 F2000
G02 X109.1795 Y105.2891 I0.2023 J0.3660
G01 X109.1672 Y105.3049
G01 X108.7249 Y105.8737
G01 X108.6863 Y105.9650
G01 X108.6786 Y105.9834
G01 X108.3985 Y106.6473
G01 X108.3576 Y106.9429
G01 X108.2835 Y107.4791
G01 X108.2958 Y107.5775
G01 X108.2983 Y107.5973
G01 X108.3877 Y108.3123
G01 X108.4250 Y108.4042
G01 X108.4326 Y108.4227
G01 X108.7040 Y109.0902
G01 X108.7638 Y109.1692
G02 X109.7796 Y110.2020 I2.4350 J-1.3791
G01 X109.7954 Y110.2143
G01 X109.8737 Y110.2751
G01 X110.4047 Y110.4992
G01 X110.6473 Y110.6015
G01 X111.3611 Y110.7002
G01 X111.3809 Y110.7029
G01 X111.4791 Y110.7165
G01 X112.1941 Y110.6271
G01 X112.2139 Y110.6246
G01 X112.3123 Y110.6123
G01 X112.9798 Y110.3409
G01 X112.9983 Y110.3334
G01 X113.0902 Y110.2960
G01 X113.6646 Y109.8611
G02 X113.8205 Y109.7109 I-0.2023 J-0.3660
G01 X113.8328 Y109.6951
G01 X114.2751 Y109.1263
G01 X114.3137 Y109.0350
G01 X114.3214 Y109.0166
G01 X114.6015 Y108.3527
G01 X114.6424 Y108.0571
G01 X114.7165 Y107.5209
G01 X114.7042 Y107.4225
G01 X114.7017 Y107.4027
G01 X114.6123 Y106.6877
G01 X114.5750 Y106.5958
G01 X114.5674 Y106.5773
G01 X114.2960 Y105.9098
G01 X114.2362 Y105.8308
G02 X113.2204 Y104.7980 I-2.4350 J1.3791
G01 X113.2046 Y104.7857
G01 X113.1263 Y104.7249
G01 X112.5953 Y104.5008
G01 X112.3527 Y104.3985
G01 X111.6389 Y104.2998 Z-9.2623 F1000
G01 X111.6191 Y104.2971 Z-9.2695
G01 X111.5209 Y104.2835 Z-9.3056
G01 X110.8059 Y104.3729 Z-9.5679
G01 X110.7861 Y104.3754 Z-9.5752
G01 X110.6877 Y104.3877 Z-9.6112
G01 X110.0202 Y104.6591 Z-9.8735
G01 X110.0017 Y104.6666 Z-9.8808
G01 X109.9098 Y104.7040 Z-9.9169
G01 X109.7277 Y104.8418 Z-10.0000
G01 X109.3354 Y105.1389 F2000
G02 X109.1795 Y105.2891 I0.2023 J0.3660
G01 X109.1672 Y105.3049
G01 X108.7249 Y105.8737
G01 X108.6863 Y105.9650
G01 X108.6786 Y105.9834
G01 X108.3985 Y106.6473
G01 X108.3576 Y106.9429
G01 X108.2835 Y107.4791
G01 X108.2958 Y107.5775
G01 X108.2983 Y107.5973
G01 X108.3877 Y108.3123
G01 X108.4250 Y108.4042
G01 X108.4326 Y108.4227
G01 X108.7040 Y109.0902
G01 X108.7638 Y109.1692
G02 X109.7796 Y110.2020 I2.4350 J-1.3791
G01 X109.7954 Y110.2143
G01 X109.8737 Y110.2751
G01 X110.4047 Y110.4992
G01 X110.6473 Y110.6015
G01 X111.3611 Y110.7002
G01 X111.3809 Y110.7029
G01 X111.4791 Y110.7165
G01 X112.1941 Y110.6271
G01 X112.2139 Y110.6246
G01 X112.3123 Y110.6123
G01 X112.9798 Y110.3409
G01 X112.9983 Y110.3334
G01 X113.0902 Y110.2960
G01 X113.6646 Y109.8611
G02 X113.8205 Y109.7109 I-0.2023 J-0.3660
G01 X113.8328 Y109.6951
G01 X114.2751 Y109.1263
G01 X114.3137 Y109.0350
G01 X114.3214 Y109.0166
G01 X114.6015 Y108.3527
G01 X114.6424 Y108.0571
G01 X114.7165 Y107.5209
G01 X114.7042 Y107.4225
G01 X114.7017 Y107.4027
G01 X114.6123 Y106.6877
G01 X114.5750 Y106.5958
G01 X114.5674 Y106.5773
G01 X114.2960 Y105.9098
G01 X114.2362 Y105.8308
G02 X113.2204 Y104.7980 I-2.4350 J1.3791
G01 X113.2046 Y104.7857
G01 X113.1263 Y104.7249
G01 X112.5953 Y104.5008
G01 X112.3527 Y104.3985
G01 X111.6389 Y104.2998 Z-10.2623 F1000
G01 X111.6191 Y104.2971 Z-10.2695
G01 X111.5209 Y104.2835 Z-10.3056
G01 X110.8059 Y104.3729 Z-10.5679
G01 X110.7861 Y104.3754 Z-10.5752
G01 X110.6877 Y104.3877 Z-10.6112
G01 X110.0202 Y104.6591 Z-10.8735
G01 X110.0017 Y104.6666 Z-10.8808
G01 X109.9098 Y104.7040 Z-10.9169
G01 X109.7277 Y104.8418 Z-11.0000
G01 X109.3354 Y105.1389 F2000
G02 X109.1795 Y105.2891 I0.2023 J0.3660
G01 X109.1672 Y105.3049
G01 X108.7249 Y105.8737
G01 X108.6863 Y105.9650
G01 X108.6786 Y105.9834
G01 X108.3985 Y106.6473
G01 X108.3576 Y106.9429
G01 X108.2835 Y107.4791
G01 X108.2958 Y107.5775
G01 X108.2983 Y107.5973
G01 X108.3877 Y108.3123
G01 X108.4250 Y108.4042
G01 X108.4326 Y108.4227
G01 X108.7040 Y109.0902
G01 X108.7638 Y109.1692
G02 X109.7796 Y110.2020 I2.4350 J-1.3791
G01 X109.7954 Y110.2143
G01 X109.8737 Y110.2751
G01 X110.4047 Y110.4992
G01 X110.6473 Y110.6015
G01 X111.3611 Y110.7002
G01 X111.3809 Y110.7029
G01 X111.4791 Y110.7165
G01 X112.1941 Y110.6271
G01 X112.2139 Y110.6246
G01 X112.3123 Y110.6123
G01 X112.9798 Y110.3409
G01 X112.9983 Y110.3334
G01 X113.0902 Y110.2960
G01 X113.6646 Y109.8611
G02 X113.8205 Y109.7109 I-0.2023 J-0.3660
G01 X113.8328 Y109.6951
G01 X114.2751 Y109.1263
G01 X114.3137 Y109.0350
G01 X114.3214 Y109.0166
G01 X114.6015 Y108.3527
G01 X114.6424 Y108.0571
G01 X114.7165 Y107.5209
G01 X114.7042 Y107.4225
G01 X114.7017 Y107.4027
G01 X114.6123 Y106.6877
G01 X114.5750 Y106.5958
G01 X114.5674 Y106.5773
G01 X114.2960 Y105.9098
G01 X114.2362 Y105.8308
G02 X113.2204 Y104.7980 I-2.4350 J1.3791
G01 X113.2046 Y104.7857
G01 X113.1263 Y104.7249
G01 X112.5953 Y104.5008
G01 X112.3527 Y104.3985
G01 X111.6389 Y104.2998 Z-11.2623 F1000
G01 X111.6191 Y104.2971 Z-11.2695
G01 X111.5209 Y104.2835 Z-11.3056
G01 X110.8059 Y104.3729 Z-11.5679
G01 X110.7861 Y104.3754 Z-11.5752
G01 X110.6877 Y104.3877 Z-11.6112
G01 X110.0202 Y104.6591 Z-11.8735
G01 X110.0017 Y104.6666 Z-11.8808
G01 X109.9098 Y104.7040 Z-11.9169
G01 X109.7277 Y104.8418 Z-12.0000
G01 X109.3354 Y105.1389 F2000
G02 X109.1795 Y105.2891 I0.2023 J0.3660
G01 X109.1672 Y105.3049
G01 X108.7249 Y105.8737
G01 X108.6863 Y105.9650
G01 X108.6786 Y105.9834
G01 X108.3985 Y106.6473
G01 X108.3576 Y106.9429
G01 X108.2835 Y107.4791
G01 X108.2958 Y107.5775
G01 X108.2983 Y107.5973
G01 X108.3877 Y108.3123
G01 X108.4250 Y108.4042
G01 X108.4326 Y108.4227
G01 X108.7040 Y109.0902
G01 X108.7638 Y109.1692
G02 X109.7796 Y110.2020 I2.4350 J-1.3791
G01 X109.7954 Y110.2143
G01 X109.8737 Y110.2751
G01 X110.4047 Y110.4992
G01 X110.6473 Y110.6015
G01 X111.3611 Y110.7002
G01 X111.3809 Y110.7029
G01 X111.4791 Y110.7165
G01 X112.1941 Y110.6271
G01 X112.2139 Y110.6246
G01 X112.3123 Y110.6123
G01 X112.9798 Y110.3409
G01 X112.9983 Y110.3334
G01 X113.0902 Y110.2960
G01 X113.6646 Y109.8611
G02 X113.8205 Y109.7109 I-0.2023 J-0.3660
G01 X113.8328 Y109.6951
G01 X114.2751 Y109.1263
G01 X114.3137 Y109.0350
G01 X114.3214 Y109.0166
G01 X114.6015 Y108.3527
G01 X114.6424 Y108.0571
G01 X114.7165 Y107.5209
G01 X114.7042 Y107.4225
G01 X114.7017 Y107.4027
G01 X114.6123 Y106.6877
G01 X114.5750 Y106.5958
G01 X114.5674 Y106.5773
G01 X114.2960 Y105.9098
G01 X114.2362 Y105.8308
G02 X113.2204 Y104.7980 I-2.4350 J1.3791
G01 X113.2046 Y104.7857
G01 X113.1263 Y104.7249
G01 X112.5953 Y104.5008
G01 X112.3527 Y104.3985
G01 X111.6389 Y104.2998 Z-12.2623 F1000
G01 X111.6191 Y104.2971 Z-12.2695
G01 X111.5209 Y104.2835 Z-12.3056
G01 X110.8059 Y104.3729 Z-12.5679
G01 X110.7861 Y104.3754 Z-12.5752
G01 X110.6877 Y104.3877 Z-12.6112
G01 X110.0202 Y104.6591 Z-12.8735
G01 X110.0017 Y104.6666 Z-12.8808
G01 X109.9098 Y104.7040 Z-12.9169
G01 X109.7277 Y104.8418 Z-13.0000
G01 X109.3354 Y105.1389 F2000
G02 X109.1795 Y105.2891 I0.2023 J0.3660
G01 X109.1672 Y105.3049
G01 X108.7249 Y105.8737
G01 X108.6863 Y105.9650
G01 X108.6786 Y105.9834
G01 X108.3985 Y106.6473
G01 X108.3576 Y106.9429
G01 X108.2835 Y107.4791
G01 X108.2958 Y107.5775
G01 X108.2983 Y107.5973
G01 X108.3877 Y108.3123
G01 X108.4250 Y108.4042
G01 X108.4326 Y108.4227
G01 X108.7040 Y109.0902
G01 X108.7638 Y109.1692
G02 X109.7796 Y110.2020 I2.4350 J-1.3791
G01 X109.7954 Y110.2143
G01 X109.8737 Y110.2751
G01 X110.4047 Y110.4992
G01 X110.6473 Y110.6015
G01 X111.3611 Y110.7002
G01 X111.3809 Y110.7029
G01 X111.4791 Y110.7165
G01 X112.1941 Y110.6271
G01 X112.2139 Y110.6246
G01 X112.3123 Y110.6123
G01 X112.9798 Y110.3409
G01 X112.9983 Y110.3334
G01 X113.0902 Y110.2960
G01 X113.6646 Y109.8611
G02 X113.8205 Y109.7109 I-0.2023 J-0.3660
G01 X113.8328 Y109.6951
G01 X114.2751 Y109.1263
G01 X114.3137 Y109.0350
G01 X114.3214 Y109.0166
G01 X114.6015 Y108.3527
G01 X114.6424 Y108.0571
G01 X114.7165 Y107.5209
G01 X114.7042 Y107.4225
G01 X114.7017 Y107.4027
G01 X114.6123 Y106.6877
G01 X114.5750 Y106.5958
G01 X114.5674 Y106.5773
G01 X114.2960 Y105.9098
G01 X114.2362 Y105.8308
G02 X113.2204 Y104.7980 I-2.4350 J1.3791
G01 X113.2046 Y104.7857
G01 X113.1263 Y104.7249
G01 X112.5953 Y104.5008
G01 X112.3527 Y104.3985
G01 X111.6389 Y104.2998
G01 X111.6191 Y104.2971
G01 X111.5209 Y104.2835
G01 X110.8059 Y104.3729
G01 X110.7861 Y104.3754
G01 X110.6877 Y104.3877
G01 X110.0202 Y104.6591
G01 X110.0017 Y104.6666
G01 X109.9098 Y104.7040
G01 X109.7277 Y104.8418
G00 Z5.0000 F800

(Nr. 7 Ausschnitt bearbeiten: Ausschnitt 1)
G00 X109.7277 Y67.4375 Z5.0000 F2000
G00 Z0.5000 F800
G01 Z0.0000 F1000
G01 X112.4752 Z-1.0000
G01 X175.4375 F2000
G01 Y13.5625
G01 X10.5625
G01 Y67.4333
G01 X10.5633 Y67.4375
G01 X109.7277
G01 X112.4752 Z-2.0000 F1000
G01 X175.4375 F2000
G01 Y13.5625
G01 X10.5625
G01 Y67.4333
G01 X10.5633 Y67.4375
G01 X109.7277
G01 X112.4752 Z-3.0000 F1000
G01 X175.4375 F2000
G01 Y13.5625
G01 X10.5625
G01 Y67.4333
G01 X10.5633 Y67.4375
G01 X109.7277
G01 X112.4752 Z-4.0000 F1000
G01 X175.4375 F2000
G01 Y13.5625
G01 X10.5625
G01 Y67.4333
G01 X10.5633 Y67.4375
G01 X109.7277
G01 X112.4752 Z-5.0000 F1000
G01 X175.4375 F2000
G01 Y13.5625
G01 X10.5625
G01 Y67.4333
G01 X10.5633 Y67.4375
G01 X109.7277
G01 X112.4752 Z-6.0000 F1000
G01 X175.4375 F2000
G01 Y13.5625
G01 X10.5625
G01 Y67.4333
G01 X10.5633 Y67.4375
G01 X109.7277
G01 X112.4752 Z-7.0000 F1000
G01 X175.4375 F2000
G01 Y13.5625
G01 X10.5625
G01 Y67.4333
G01 X10.5633 Y67.4375
G01 X109.7277
G01 X112.4752 Z-8.0000 F1000
G01 X175.4375 F2000
G01 Y13.5625
G01 X10.5625
G01 Y67.4333
G01 X10.5633 Y67.4375
G01 X109.7277
G01 X112.4752 Z-9.0000 F1000
G01 X175.4375 F2000
G01 Y13.5625
G01 X10.5625
G01 Y67.4333
G01 X10.5633 Y67.4375
G01 X109.7277
G01 X112.4752 Z-10.0000 F1000
G01 X175.4375 F2000
G01 Y13.5625
G01 X10.5625
G01 Y67.4333
G01 X10.5633 Y67.4375
G01 X109.7277
G01 X112.4752 Z-11.0000 F1000
G01 X175.4375 F2000
G01 Y13.5625
G01 X10.5625
G01 Y67.4333
G01 X10.5633 Y67.4375
G01 X109.7277
G01 X112.4752 Z-12.0000 F1000
G01 X175.4375 F2000
G01 Y13.5625
G01 X10.5625
G01 Y67.4333
G01 X10.5633 Y67.4375
G01 X109.7277
G01 X112.4752 Z-13.0000 F1000
G01 X175.4375 F2000
G01 Y13.5625
G01 X10.5625
G01 Y67.4333
G01 X10.5633 Y67.4375
G01 X109.7277
G01 X112.4752
G00 Z5.0000 F800

(Nr. 8 Teil bearbeiten: Teil 1)
G00 X187.5625 Y34.6994 Z5.0000 F2000
G00 Z0.5000 F800
G01 Z0.0000 F1000
G01 Y36.0731 Z-0.5000
G01 Y34.6994 Z-1.0000
G01 Y96.7559 F2000
G01 Y102.8809
G01 Y150.0000
G03 X186.0000 Y151.5625 I-1.5625 J0.0000
G01 X173.5164
G01 X167.3914
G01 X105.3349
G01 X99.2099
G01 X37.1533
G01 X31.0283
G01 X0.0000
G03 X-1.5625 Y150.0000 I0.0000 J-1.5625
G01 Y121.4256
G01 Y115.3006
G01 Y53.2441
G01 Y47.1191
G01 Y0.0000
G03 X0.0000 Y-1.5625 I1.5625 J0.0000
G01 X12.4836
G01 X18.6086
G01 X80.6651
G01 X86.7901
G01 X148.8467
G01 X154.9717
G01 X186.0000
G03 X187.5625 Y0.0000 I0.0000 J1.5625
G01 Y28.5744
G01 Y34.6994
G01 Y36.0731 Z-1.5000 F1000
G01 Y34.6994 Z-2.0000
G01 Y96.7559 F2000
G01 Y102.8809
G01 Y150.0000
G03 X186.0000 Y151.5625 I-1.5625 J0.0000
G01 X173.5164
G01 X167.3914
G01 X105.3349
G01 X99.2099
G01 X37.1533
G01 X31.0283
G01 X0.0000
G03 X-1.5625 Y150.0000 I0.0000 J-1.5625
G01 Y121.4256
G01 Y115.3006
G01 Y53.2441
G01 Y47.1191
G01 Y0.0000
G03 X0.0000 Y-1.5625 I1.5625 J0.0000
G01 X12.4836
G01 X18.6086
G01 X80.6651
G01 X86.7901
G01 X148.8467
G01 X154.9717
G01 X186.0000
G03 X187.5625 Y0.0000 I0.0000 J1.5625
G01 Y28.5744
G01 Y34.6994
G01 Y36.0731 Z-2.5000 F1000
G01 Y34.6994 Z-3.0000
G01 Y96.7559 F2000
G01 Y102.8809
G01 Y150.0000
G03 X186.0000 Y151.5625 I-1.5625 J0.0000
G01 X173.5164
G01 X167.3914
G01 X105.3349
G01 X99.2099
G01 X37.1533
G01 X31.0283
G01 X0.0000
G03 X-1.5625 Y150.0000 I0.0000 J-1.5625
G01 Y121.4256
G01 Y115.3006
G01 Y53.2441
G01 Y47.1191
G01 Y0.0000
G03 X0.0000 Y-1.5625 I1.5625 J0.0000
G01 X12.4836
G01 X18.6086
G01 X80.6651
G01 X86.7901
G01 X148.8467
G01 X154.9717
G01 X186.0000
G03 X187.5625 Y0.0000 I0.0000 J1.5625
G01 Y28.5744
G01 Y34.6994
G01 Y36.0731 Z-3.5000 F1000
G01 Y34.6994 Z-4.0000
G01 Y96.7559 F2000
G01 Y102.8809
G01 Y150.0000
G03 X186.0000 Y151.5625 I-1.5625 J0.0000
G01 X173.5164
G01 X167.3914
G01 X105.3349
G01 X99.2099
G01 X37.1533
G01 X31.0283
G01 X0.0000
G03 X-1.5625 Y150.0000 I0.0000 J-1.5625
G01 Y121.4256
G01 Y115.3006
G01 Y53.2441
G01 Y47.1191
G01 Y0.0000
G03 X0.0000 Y-1.5625 I1.5625 J0.0000
G01 X12.4836
G01 X18.6086
G01 X80.6651
G01 X86.7901
G01 X148.8467
G01 X154.9717
G01 X186.0000
G03 X187.5625 Y0.0000 I0.0000 J1.5625
G01 Y28.5744
G01 Y34.6994
G01 Y36.0731 Z-4.5000 F1000
G01 Y34.6994 Z-5.0000
G01 Y96.7559 F2000
G01 Y102.8809
G01 Y150.0000
G03 X186.0000 Y151.5625 I-1.5625 J0.0000
G01 X173.5164
G01 X167.3914
G01 X105.3349
G01 X99.2099
G01 X37.1533
G01 X31.0283
G01 X0.0000
G03 X-1.5625 Y150.0000 I0.0000 J-1.5625
G01 Y121.4256
G01 Y115.3006
G01 Y53.2441
G01 Y47.1191
G01 Y0.0000
G03 X0.0000 Y-1.5625 I1.5625 J0.0000
G01 X12.4836
G01 X18.6086
G01 X80.6651
G01 X86.7901
G01 X148.8467
G01 X154.9717
G01 X186.0000
G03 X187.5625 Y0.0000 I0.0000 J1.5625
G01 Y28.5744
G01 Y34.6994
G01 Y36.0731 Z-5.5000 F1000
G01 Y34.6994 Z-6.0000
G01 Y96.7559 F2000
G01 Y102.8809
G01 Y150.0000
G03 X186.0000 Y151.5625 I-1.5625 J0.0000
G01 X173.5164
G01 X167.3914
G01 X105.3349
G01 X99.2099
G01 X37.1533
G01 X31.0283
G01 X0.0000
G03 X-1.5625 Y150.0000 I0.0000 J-1.5625
G01 Y121.4256
G01 Y115.3006
G01 Y53.2441
G01 Y47.1191
G01 Y0.0000
G03 X0.0000 Y-1.5625 I1.5625 J0.0000
G01 X12.4836
G01 X18.6086
G01 X80.6651
G01 X86.7901
G01 X148.8467
G01 X154.9717
G01 X186.0000
G03 X187.5625 Y0.0000 I0.0000 J1.5625
G01 Y28.5744
G01 Y34.6994
G01 Y36.0731 Z-6.5000 F1000
G01 Y34.6994 Z-7.0000
G01 Y96.7559 F2000
G01 Y102.8809
G01 Y150.0000
G03 X186.0000 Y151.5625 I-1.5625 J0.0000
G01 X173.5164
G01 X167.3914
G01 X105.3349
G01 X99.2099
G01 X37.1533
G01 X31.0283
G01 X0.0000
G03 X-1.5625 Y150.0000 I0.0000 J-1.5625
G01 Y121.4256
G01 Y115.3006
G01 Y53.2441
G01 Y47.1191
G01 Y0.0000
G03 X0.0000 Y-1.5625 I1.5625 J0.0000
G01 X12.4836
G01 X18.6086
G01 X80.6651
G01 X86.7901
G01 X148.8467
G01 X154.9717
G01 X186.0000
G03 X187.5625 Y0.0000 I0.0000 J1.5625
G01 Y28.5744
G01 Y34.6994
G01 Y36.0731 Z-7.5000 F1000
G01 Y34.6994 Z-8.0000
G01 Y96.7559 F2000
G01 Y102.8809
G01 Y150.0000
G03 X186.0000 Y151.5625 I-1.5625 J0.0000
G01 X173.5164
G01 X167.3914
G01 X105.3349
G01 X99.2099
G01 X37.1533
G01 X31.0283
G01 X0.0000
G03 X-1.5625 Y150.0000 I0.0000 J-1.5625
G01 Y121.4256
G01 Y115.3006
G01 Y53.2441
G01 Y47.1191
G01 Y0.0000
G03 X0.0000 Y-1.5625 I1.5625 J0.0000
G01 X12.4836
G01 X18.6086
G01 X80.6651
G01 X86.7901
G01 X148.8467
G01 X154.9717
G01 X186.0000
G03 X187.5625 Y0.0000 I0.0000 J1.5625
G01 Y28.5744
G01 Y34.6994
G01 Y36.0731 Z-8.5000 F1000
G01 Y34.6994 Z-9.0000
G01 Y96.7559 F2000
G01 Y102.8809
G01 Y150.0000
G03 X186.0000 Y151.5625 I-1.5625 J0.0000
G01 X173.5164
G01 X167.3914
G01 X105.3349
G01 X99.2099
G01 X37.1533
G01 X31.0283
G01 X0.0000
G03 X-1.5625 Y150.0000 I0.0000 J-1.5625
G01 Y121.4256
G01 Y115.3006
G01 Y53.2441
G01 Y47.1191
G01 Y0.0000
G03 X0.0000 Y-1.5625 I1.5625 J0.0000
G01 X12.4836
G01 X18.6086
G01 X80.6651
G01 X86.7901
G01 X148.8467
G01 X154.9717
G01 X186.0000
G03 X187.5625 Y0.0000 I0.0000 J1.5625
G01 Y28.5744
G01 Y34.6994
G01 Y36.0731 Z-9.5000 F1000
G01 Y34.6994 Z-10.0000
G01 Y96.7559 F2000
G01 Y102.8809
G01 Y150.0000
G03 X186.0000 Y151.5625 I-1.5625 J0.0000
G01 X173.5164
G01 X167.3914
G01 X105.3349
G01 X99.2099
G01 X37.1533
G01 X31.0283
G01 X0.0000
G03 X-1.5625 Y150.0000 I0.0000 J-1.5625
G01 Y121.4256
G01 Y115.3006
G01 Y53.2441
G01 Y47.1191
G01 Y0.0000
G03 X0.0000 Y-1.5625 I1.5625 J0.0000
G01 X12.4836
G01 X18.6086
G01 X80.6651
G01 X86.7901
G01 X148.8467
G01 X154.9717
G01 X186.0000
G03 X187.5625 Y0.0000 I0.0000 J1.5625
G01 Y28.5744
G01 Y34.6994
G01 Y36.0731 Z-10.5000 F1000
G01 Y34.6994 Z-11.0000
G01 Y96.7559 F2000
G00 Z-10.0000 F800
G01 Y102.8809 F2000
G01 Y104.2547 Z-10.5000 F1000
G01 Y102.8809 Z-11.0000
G01 Y150.0000 F2000
G03 X186.0000 Y151.5625 I-1.5625 J0.0000
G01 X173.5164
G00 Z-10.0000 F800
G01 X167.3914 F2000
G01 X166.0177 Z-10.5000 F1000
G01 X167.3914 Z-11.0000
G01 X105.3349 F2000
G00 Z-10.0000 F800
G01 X99.2099 F2000
G01 X97.8361 Z-10.5000 F1000
G01 X99.2099 Z-11.0000
G01 X37.1533 F2000
G00 Z-10.0000 F800
G01 X31.0283 F2000
G01 X29.6545 Z-10.5000 F1000
G01 X31.0283 Z-11.0000
G01 X0.0000 F2000
G03 X-1.5625 Y150.0000 I0.0000 J-1.5625
G01 Y121.4256
G00 Z-10.0000 F800
G01 Y115.3006 F2000
G01 Y113.9269 Z-10.5000 F1000
G01 Y115.3006 Z-11.0000
G01 Y53.2441 F2000
G00 Z-10.0000 F800
G01 Y47.1191 F2000
G01 Y45.7453 Z-10.5000 F1000
G01 Y47.1191 Z-11.0000
G01 Y0.0000 F2000
G03 X0.0000 Y-1.5625 I1.5625 J0.0000
G01 X12.4836
G00 Z-10.0000 F800
G01 X18.6086 F2000
G01 X19.9823 Z-10.5000 F1000
G01 X18.6086 Z-11.0000
G01 X80.6651 F2000
G00 Z-10.0000 F800
G01 X86.7901 F2000
G01 X88.1639 Z-10.5000 F1000
G01 X86.7901 Z-11.0000
G01 X148.8467 F2000
G00 Z-10.0000 F800
G01 X154.9717 F2000
G01 X156.3455 Z-10.5000 F1000
G01 X154.9717 Z-11.0000
G01 X186.0000 F2000
G03 X187.5625 Y0.0000 I0.0000 J1.5625
G01 Y28.5744
G00 Z-10.0000 F800
G01 Y34.6994 F2000
G00 Z-10.5000 F800
G01 Z-11.0000 F1000
G01 Y36.0731 Z-11.5000
G01 Y34.6994 Z-12.0000
G01 Y96.7559 F2000
G00 Z-10.0000 F800
G01 Y102.8809 F2000
G00 Z-10.5000 F800
G01 Z-11.0000 F1000
G01 Y104.2547 Z-11.5000
G01 Y102.8809 Z-12.0000
G01 Y150.0000 F2000
G03 X186.0000 Y151.5625 I-1.5625 J0.0000
G01 X173.5164
G00 Z-10.0000 F800
G01 X167.3914 F2000
G00 Z-10.5000 F800
G01 Z-11.0000 F1000
G01 X166.0177 Z-11.5000
G01 X167.3914 Z-12.0000
G01 X105.3349 F2000
G00 Z-10.0000 F800
G01 X99.2099 F2000
G00 Z-10.5000 F800
G01 Z-11.0000 F1000
G01 X97.8361 Z-11.5000
G01 X99.2099 Z-12.0000
G01 X37.1533 F2000
G00 Z-10.0000 F800
G01 X31.0283 F2000
G00 Z-10.5000 F800
G01 Z-11.0000 F1000
G01 X29.6545 Z-11.5000
G01 X31.0283 Z-12.0000
G01 X0.0000 F2000
G03 X-1.5625 Y150.0000 I0.0000 J-1.5625
G01 Y121.4256
G00 Z-10.0000 F800
G01 Y115.3006 F2000
G00 Z-10.5000 F800
G01 Z-11.0000 F1000
G01 Y113.9269 Z-11.5000
G01 Y115.3006 Z-12.0000
G01 Y53.2441 F2000
G00 Z-10.0000 F800
G01 Y47.1191 F2000
G00 Z-10.5000 F800
G01 Z-11.0000 F1000
G01 Y45.7453 Z-11.5000
G01 Y47.1191 Z-12.0000
G01 Y0.0000 F2000
G03 X0.0000 Y-1.5625 I1.5625 J0.0000
G01 X12.4836
G00 Z-10.0000 F800
G01 X18.6086 F2000
G00 Z-10.5000 F800
G01 Z-11.0000 F1000
G01 X19.9823 Z-11.5000
G01 X18.6086 Z-12.0000
G01 X80.6651 F2000
G00 Z-10.0000 F800
G01 X86.7901 F2000
G00 Z-10.5000 F800
G01 Z-11.0000 F1000
G01 X88.1639 Z-11.5000
G01 X86.7901 Z-12.0000
G01 X148.8467 F2000
G00 Z-10.0000 F800
G01 X154.9717 F2000
G00 Z-10.5000 F800
G01 Z-11.0000 F1000
G01 X156.3455 Z-11.5000
G01 X154.9717 Z-12.0000
G01 X186.0000 F2000
G03 X187.5625 Y0.0000 I0.0000 J1.5625
G01 Y28.5744
G00 Z-10.0000 F800
G01 Y34.6994 F2000
G00 Z-11.5000 F800
G01 Z-12.0000 F1000
G01 Y36.0731 Z-12.5000
G01 Y34.6994 Z-13.0000
G01 Y96.7559 F2000
G00 Z-10.0000 F800
G01 Y102.8809 F2000
G00 Z-11.5000 F800
G01 Z-12.0000 F1000
G01 Y104.2547 Z-12.5000
G01 Y102.8809 Z-13.0000
G01 Y150.0000 F2000
G03 X186.0000 Y151.5625 I-1.5625 J0.0000
G01 X173.5164
G00 Z-10.0000 F800
G01 X167.3914 F2000
G00 Z-11.5000 F800
G01 Z-12.0000 F1000
G01 X166.0177 Z-12.5000
G01 X167.3914 Z-13.0000
G01 X105.3349 F2000
G00 Z-10.0000 F800
G01 X99.2099 F2000
G00 Z-11.5000 F800
G01 Z-12.0000 F1000
G01 X97.8361 Z-12.5000
G01 X99.2099 Z-13.0000
G01 X37.1533 F2000
G00 Z-10.0000 F800
G01 X31.0283 F2000
G00 Z-11.5000 F800
G01 Z-12.0000 F1000
G01 X29.6545 Z-12.5000
G01 X31.0283 Z-13.0000
G01 X0.0000 F2000
G03 X-1.5625 Y150.0000 I0.0000 J-1.5625
G01 Y121.4256
G00 Z-10.0000 F800
G01 Y115.3006 F2000
G00 Z-11.5000 F800
G01 Z-12.0000 F1000
G01 Y113.9269 Z-12.5000
G01 Y115.3006 Z-13.0000
G01 Y53.2441 F2000
G00 Z-10.0000 F800
G01 Y47.1191 F2000
G00 Z-11.5000 F800
G01 Z-12.0000 F1000
G01 Y45.7453 Z-12.5000
G01 Y47.1191 Z-13.0000
G01 Y0.0000 F2000
G03 X0.0000 Y-1.5625 I1.5625 J0.0000
G01 X12.4836
G00 Z-10.0000 F800
G01 X18.6086 F2000
G00 Z-11.5000 F800
G01 Z-12.0000 F1000
G01 X19.9823 Z-12.5000
G01 X18.6086 Z-13.0000
G01 X80.6651 F2000
G00 Z-10.0000 F800
G01 X86.7901 F2000
G00 Z-11.5000 F800
G01 Z-12.0000 F1000
G01 X88.1639 Z-12.5000
G01 X86.7901 Z-13.0000
G01 X148.8467 F2000
G00 Z-10.0000 F800
G01 X154.9717 F2000
G00 Z-11.5000 F800
G01 Z-12.0000 F1000
G01 X156.3455 Z-12.5000
G01 X154.9717 Z-13.0000
G01 X186.0000 F2000
G03 X187.5625 Y0.0000 I0.0000 J1.5625
G01 Y28.5744
G00 Z-10.0000 F800
G01 Y34.6994 F2000
G00 Z5.0000 F800
G00 X0.0000 Y0.0000 F2000


M05
M30
