(Projekt left)
(Erstellt mit Estlcam 13.002)
(Laufzeit ca. 00:08:19 Stunden)

(Benoetigte Werkzeuge:)
(Beispielwerkzeug)

G21
G90
G94
M03 S24000
G00 Z5.0000 F800

(Nr. 1 Raeumen parallel: Tasche 1)
G00 X2.3063 Y85.3031 F2000
G00 Z0.5000 F800
G01 X3.0875 F1000 S24000
G02 X1.9156 Y84.6265 Z0.1667 I-0.7813 J0.0000
G02 Y85.9797 Z-0.1667 I0.3906 J0.6766
G02 X3.0875 Y85.3031 Z-0.5000 I0.3906 J-0.6766
G02 X2.3063 Y84.5219 Z-0.7500 I-0.7813 J0.0000
G02 X1.5250 Y85.3031 Z-1.0000 I0.0000 J0.7813
G02 X2.6969 Y85.9797 I0.7813 J0.0000
G02 Y84.6265 I-0.3906 J-0.6766
G02 X1.5250 Y85.3031 I-0.3906 J0.6766
G01 X2.3063 F2000
G01 Y86.6813
G01 X183.7125
G01 Y2.3063
G01 X182.3063
G01 Y83.1375
G03 X180.1125 Y85.3031 I-2.3491 J-0.1857
G01 X2.3063
G01 X2.3062 Y84.5625
G01 X1.5625
G01 Y87.4375
G01 X184.4375
G01 Y1.5625
G01 X181.5700
G01 X181.5625
G01 Y83.0000
G03 X180.0000 Y84.5625 I-1.5625 J0.0000
G01 X2.3062
G00 Z5.0000 F800
G00 X2.3063 Y85.3031 F2000
G00 Z-0.5000 F800
G01 X3.0875 F1000
G02 X1.9156 Y84.6265 Z-0.8333 I-0.7813 J0.0000
G02 Y85.9797 Z-1.1667 I0.3906 J0.6766
G02 X3.0875 Y85.3031 Z-1.5000 I0.3906 J-0.6766
G02 X2.3063 Y84.5219 Z-1.7500 I-0.7813 J0.0000
G02 X1.5250 Y85.3031 Z-2.0000 I0.0000 J0.7813
G02 X2.6969 Y85.9797 I0.7813 J0.0000
G02 Y84.6265 I-0.3906 J-0.6766
G02 X1.5250 Y85.3031 I-0.3906 J0.6766
G01 X2.3063 F2000
G01 Y86.6813
G01 X183.7125
G01 Y2.3063
G01 X182.3063
G01 Y83.1375
G03 X180.1125 Y85.3031 I-2.3491 J-0.1857
G01 X2.3063
G01 X2.3062 Y84.5625
G01 X1.5625
G01 Y87.4375
G01 X184.4375
G01 Y1.5625
G01 X181.5700
G01 X181.5625
G01 Y83.0000
G03 X180.0000 Y84.5625 I-1.5625 J0.0000
G01 X2.3062
G00 Z5.0000 F800
G00 X2.3063 Y85.3031 F2000
G00 Z-1.5000 F800
G01 X3.0875 F1000
G02 X1.9156 Y84.6265 Z-1.8333 I-0.7813 J0.0000
G02 Y85.9797 Z-2.1667 I0.3906 J0.6766
G02 X3.0875 Y85.3031 Z-2.5000 I0.3906 J-0.6766
G02 X2.3063 Y84.5219 Z-2.7500 I-0.7813 J0.0000
G02 X1.5250 Y85.3031 Z-3.0000 I0.0000 J0.7813
G02 X2.6969 Y85.9797 I0.7813 J0.0000
G02 Y84.6265 I-0.3906 J-0.6766
G02 X1.5250 Y85.3031 I-0.3906 J0.6766
G01 X2.3063 F2000
G01 Y86.6813
G01 X183.7125
G01 Y2.3063
G01 X182.3063
G01 Y83.1375
G03 X180.1125 Y85.3031 I-2.3491 J-0.1857
G01 X2.3063
G01 X2.3062 Y84.5625
G01 X1.5625
G01 Y87.4375
G01 X184.4375
G01 Y1.5625
G01 X181.5700
G01 X181.5625
G01 Y83.0000
G03 X180.0000 Y84.5625 I-1.5625 J0.0000
G01 X2.3062
G00 Z5.0000 F800
G00 X2.3063 Y85.3031 F2000
G00 Z-2.5000 F800
G01 X3.0875 F1000
G02 X1.9156 Y84.6265 Z-2.8333 I-0.7813 J0.0000
G02 Y85.9797 Z-3.1667 I0.3906 J0.6766
G02 X3.0875 Y85.3031 Z-3.5000 I0.3906 J-0.6766
G02 X2.3063 Y84.5219 Z-3.7500 I-0.7813 J0.0000
G02 X1.5250 Y85.3031 Z-4.0000 I0.0000 J0.7813
G02 X2.6969 Y85.9797 I0.7813 J0.0000
G02 Y84.6265 I-0.3906 J-0.6766
G02 X1.5250 Y85.3031 I-0.3906 J0.6766
G01 X2.3063 F2000
G01 Y86.6813
G01 X183.7125
G01 Y2.3063
G01 X182.3063
G01 Y83.1375
G03 X180.1125 Y85.3031 I-2.3491 J-0.1857
G01 X2.3063
G01 X2.3062 Y84.5625
G01 X1.5625
G01 Y87.4375
G01 X184.4375
G01 Y1.5625
G01 X181.5700
G01 X181.5625
G01 Y83.0000
G03 X180.0000 Y84.5625 I-1.5625 J0.0000
G01 X2.3062
G00 Z5.0000 F800
G00 X2.3063 Y85.3031 F2000
G00 Z-3.5000 F800
G01 X3.0875 F1000
G02 X1.9156 Y84.6265 Z-3.8333 I-0.7813 J0.0000
G02 Y85.9797 Z-4.1667 I0.3906 J0.6766
G02 X3.0875 Y85.3031 Z-4.5000 I0.3906 J-0.6766
G02 X2.3063 Y84.5219 Z-4.7500 I-0.7813 J0.0000
G02 X1.5250 Y85.3031 Z-5.0000 I0.0000 J0.7813
G02 X2.6969 Y85.9797 I0.7813 J0.0000
G02 Y84.6265 I-0.3906 J-0.6766
G02 X1.5250 Y85.3031 I-0.3906 J0.6766
G01 X2.3063 F2000
G01 Y86.6813
G01 X183.7125
G01 Y2.3063
G01 X182.3063
G01 Y83.1375
G03 X180.1125 Y85.3031 I-2.3491 J-0.1857
G01 X2.3063
G01 X2.3062 Y84.5625
G01 X1.5625
G01 Y87.4375
G01 X184.4375
G01 Y1.5625
G01 X181.5700
G01 X181.5625
G01 Y83.0000
G03 X180.0000 Y84.5625 I-1.5625 J0.0000
G01 X2.3062
G00 Z5.0000 F800
G00 X2.3063 Y85.3031 F2000
G00 Z-4.5000 F800
G01 X3.0875 F1000
G02 X1.9156 Y84.6265 Z-4.8333 I-0.7813 J0.0000
G02 Y85.9797 Z-5.1667 I0.3906 J0.6766
G02 X3.0875 Y85.3031 Z-5.5000 I0.3906 J-0.6766
G02 X2.3063 Y84.5219 Z-5.7500 I-0.7813 J0.0000
G02 X1.5250 Y85.3031 Z-6.0000 I0.0000 J0.7813
G02 X2.6969 Y85.9797 I0.7813 J0.0000
G02 Y84.6265 I-0.3906 J-0.6766
G02 X1.5250 Y85.3031 I-0.3906 J0.6766
G01 X2.3063 F2000
G01 Y86.6813
G01 X183.7125
G01 Y2.3063
G01 X182.3063
G01 Y83.1375
G03 X180.1125 Y85.3031 I-2.3491 J-0.1857
G01 X2.3063
G01 X2.3062 Y84.5625
G01 X1.5625
G01 Y87.4375
G01 X184.4375
G01 Y1.5625
G01 X181.5700
G01 X181.5625
G01 Y83.0000
G03 X180.0000 Y84.5625 I-1.5625 J0.0000
G01 X2.3062
G00 Z5.0000 F800

(Nr. 2 Teil bearbeiten: Teil 1)
G00 X187.5625 Y28.5994 Z5.0000 F2000
G00 Z0.5000 F800
G01 Z0.0000 F1000
G01 Y29.9731 Z-0.5000
G01 Y28.5994 Z-1.0000
G01 Y78.4559 F2000
G01 Y84.5809
G01 Y89.0000
G03 X186.0000 Y90.5625 I-1.5625 J0.0000
G01 X143.0164
G01 X136.8914
G01 X87.0349
G01 X80.9099
G01 X31.0533
G01 X24.9283
G01 X0.0000
G03 X-1.5625 Y89.0000 I0.0000 J-1.5625
G01 Y66.5256
G01 Y60.4006
G01 Y10.5441
G01 Y4.4191
G01 Y0.0000
G03 X0.0000 Y-1.5625 I1.5625 J0.0000
G01 X42.9836
G01 X49.1086
G01 X98.9651
G01 X105.0901
G01 X154.9467
G01 X161.0717
G01 X186.0000
G03 X187.5625 Y0.0000 I0.0000 J1.5625
G01 Y22.4744
G01 Y28.5994
G01 Y29.9731 Z-1.5000 F1000
G01 Y28.5994 Z-2.0000
G01 Y78.4559 F2000
G01 Y84.5809
G01 Y89.0000
G03 X186.0000 Y90.5625 I-1.5625 J0.0000
G01 X143.0164
G01 X136.8914
G01 X87.0349
G01 X80.9099
G01 X31.0533
G01 X24.9283
G01 X0.0000
G03 X-1.5625 Y89.0000 I0.0000 J-1.5625
G01 Y66.5256
G01 Y60.4006
G01 Y10.5441
G01 Y4.4191
G01 Y0.0000
G03 X0.0000 Y-1.5625 I1.5625 J0.0000
G01 X42.9836
G01 X49.1086
G01 X98.9651
G01 X105.0901
G01 X154.9467
G01 X161.0717
G01 X186.0000
G03 X187.5625 Y0.0000 I0.0000 J1.5625
G01 Y22.4744
G01 Y28.5994
G01 Y29.9731 Z-2.5000 F1000
G01 Y28.5994 Z-3.0000
G01 Y78.4559 F2000
G01 Y84.5809
G01 Y89.0000
G03 X186.0000 Y90.5625 I-1.5625 J0.0000
G01 X143.0164
G01 X136.8914
G01 X87.0349
G01 X80.9099
G01 X31.0533
G01 X24.9283
G01 X0.0000
G03 X-1.5625 Y89.0000 I0.0000 J-1.5625
G01 Y66.5256
G01 Y60.4006
G01 Y10.5441
G01 Y4.4191
G01 Y0.0000
G03 X0.0000 Y-1.5625 I1.5625 J0.0000
G01 X42.9836
G01 X49.1086
G01 X98.9651
G01 X105.0901
G01 X154.9467
G01 X161.0717
G01 X186.0000
G03 X187.5625 Y0.0000 I0.0000 J1.5625
G01 Y22.4744
G01 Y28.5994
G01 Y29.9731 Z-3.5000 F1000
G01 Y28.5994 Z-4.0000
G01 Y78.4559 F2000
G01 Y84.5809
G01 Y89.0000
G03 X186.0000 Y90.5625 I-1.5625 J0.0000
G01 X143.0164
G01 X136.8914
G01 X87.0349
G01 X80.9099
G01 X31.0533
G01 X24.9283
G01 X0.0000
G03 X-1.5625 Y89.0000 I0.0000 J-1.5625
G01 Y66.5256
G01 Y60.4006
G01 Y10.5441
G01 Y4.4191
G01 Y0.0000
G03 X0.0000 Y-1.5625 I1.5625 J0.0000
G01 X42.9836
G01 X49.1086
G01 X98.9651
G01 X105.0901
G01 X154.9467
G01 X161.0717
G01 X186.0000
G03 X187.5625 Y0.0000 I0.0000 J1.5625
G01 Y22.4744
G01 Y28.5994
G01 Y29.9731 Z-4.5000 F1000
G01 Y28.5994 Z-5.0000
G01 Y78.4559 F2000
G01 Y84.5809
G01 Y89.0000
G03 X186.0000 Y90.5625 I-1.5625 J0.0000
G01 X143.0164
G01 X136.8914
G01 X87.0349
G01 X80.9099
G01 X31.0533
G01 X24.9283
G01 X0.0000
G03 X-1.5625 Y89.0000 I0.0000 J-1.5625
G01 Y66.5256
G01 Y60.4006
G01 Y10.5441
G01 Y4.4191
G01 Y0.0000
G03 X0.0000 Y-1.5625 I1.5625 J0.0000
G01 X42.9836
G01 X49.1086
G01 X98.9651
G01 X105.0901
G01 X154.9467
G01 X161.0717
G01 X186.0000
G03 X187.5625 Y0.0000 I0.0000 J1.5625
G01 Y22.4744
G01 Y28.5994
G01 Y29.9731 Z-5.5000 F1000
G01 Y28.5994 Z-6.0000
G01 Y78.4559 F2000
G01 Y84.5809
G01 Y89.0000
G03 X186.0000 Y90.5625 I-1.5625 J0.0000
G01 X143.0164
G01 X136.8914
G01 X87.0349
G01 X80.9099
G01 X31.0533
G01 X24.9283
G01 X0.0000
G03 X-1.5625 Y89.0000 I0.0000 J-1.5625
G01 Y66.5256
G01 Y60.4006
G01 Y10.5441
G01 Y4.4191
G01 Y0.0000
G03 X0.0000 Y-1.5625 I1.5625 J0.0000
G01 X42.9836
G01 X49.1086
G01 X98.9651
G01 X105.0901
G01 X154.9467
G01 X161.0717
G01 X186.0000
G03 X187.5625 Y0.0000 I0.0000 J1.5625
G01 Y22.4744
G01 Y28.5994
G01 Y29.9731 Z-6.5000 F1000
G01 Y28.5994 Z-7.0000
G01 Y78.4559 F2000
G01 Y84.5809
G01 Y89.0000
G03 X186.0000 Y90.5625 I-1.5625 J0.0000
G01 X143.0164
G01 X136.8914
G01 X87.0349
G01 X80.9099
G01 X31.0533
G01 X24.9283
G01 X0.0000
G03 X-1.5625 Y89.0000 I0.0000 J-1.5625
G01 Y66.5256
G01 Y60.4006
G01 Y10.5441
G01 Y4.4191
G01 Y0.0000
G03 X0.0000 Y-1.5625 I1.5625 J0.0000
G01 X42.9836
G01 X49.1086
G01 X98.9651
G01 X105.0901
G01 X154.9467
G01 X161.0717
G01 X186.0000
G03 X187.5625 Y0.0000 I0.0000 J1.5625
G01 Y22.4744
G01 Y28.5994
G01 Y29.9731 Z-7.5000 F1000
G01 Y28.5994 Z-8.0000
G01 Y78.4559 F2000
G01 Y84.5809
G01 Y89.0000
G03 X186.0000 Y90.5625 I-1.5625 J0.0000
G01 X143.0164
G01 X136.8914
G01 X87.0349
G01 X80.9099
G01 X31.0533
G01 X24.9283
G01 X0.0000
G03 X-1.5625 Y89.0000 I0.0000 J-1.5625
G01 Y66.5256
G01 Y60.4006
G01 Y10.5441
G01 Y4.4191
G01 Y0.0000
G03 X0.0000 Y-1.5625 I1.5625 J0.0000
G01 X42.9836
G01 X49.1086
G01 X98.9651
G01 X105.0901
G01 X154.9467
G01 X161.0717
G01 X186.0000
G03 X187.5625 Y0.0000 I0.0000 J1.5625
G01 Y22.4744
G01 Y28.5994
G01 Y29.9731 Z-8.5000 F1000
G01 Y28.5994 Z-9.0000
G01 Y78.4559 F2000
G01 Y84.5809
G01 Y89.0000
G03 X186.0000 Y90.5625 I-1.5625 J0.0000
G01 X143.0164
G01 X136.8914
G01 X87.0349
G01 X80.9099
G01 X31.0533
G01 X24.9283
G01 X0.0000
G03 X-1.5625 Y89.0000 I0.0000 J-1.5625
G01 Y66.5256
G01 Y60.4006
G01 Y10.5441
G01 Y4.4191
G01 Y0.0000
G03 X0.0000 Y-1.5625 I1.5625 J0.0000
G01 X42.9836
G01 X49.1086
G01 X98.9651
G01 X105.0901
G01 X154.9467
G01 X161.0717
G01 X186.0000
G03 X187.5625 Y0.0000 I0.0000 J1.5625
G01 Y22.4744
G01 Y28.5994
G01 Y29.9731 Z-9.5000 F1000
G01 Y28.5994 Z-10.0000
G01 Y78.4559 F2000
G00 Z-9.0000 F800
G01 Y84.5809 F2000
G01 Y85.9547 Z-9.5000 F1000
G01 Y84.5809 Z-10.0000
G01 Y89.0000 F2000
G03 X186.0000 Y90.5625 I-1.5625 J0.0000
G01 X143.0164
G00 Z-9.0000 F800
G01 X136.8914 F2000
G01 X135.5177 Z-9.5000 F1000
G01 X136.8914 Z-10.0000
G01 X87.0349 F2000
G00 Z-9.0000 F800
G01 X80.9099 F2000
G01 X79.5361 Z-9.5000 F1000
G01 X80.9099 Z-10.0000
G01 X31.0533 F2000
G00 Z-9.0000 F800
G01 X24.9283 F2000
G01 X23.5545 Z-9.5000 F1000
G01 X24.9283 Z-10.0000
G01 X0.0000 F2000
G03 X-1.5625 Y89.0000 I0.0000 J-1.5625
G01 Y66.5256
G00 Z-9.0000 F800
G01 Y60.4006 F2000
G01 Y59.0269 Z-9.5000 F1000
G01 Y60.4006 Z-10.0000
G01 Y10.5441 F2000
G00 Z-9.0000 F800
G01 Y4.4191 F2000
G01 Y3.0453 Z-9.5000 F1000
G01 Y4.4191 Z-10.0000
G01 Y0.0000 F2000
G03 X0.0000 Y-1.5625 I1.5625 J0.0000
G01 X42.9836
G00 Z-9.0000 F800
G01 X49.1086 F2000
G01 X50.4823 Z-9.5000 F1000
G01 X49.1086 Z-10.0000
G01 X98.9651 F2000
G00 Z-9.0000 F800
G01 X105.0901 F2000
G01 X106.4639 Z-9.5000 F1000
G01 X105.0901 Z-10.0000
G01 X154.9467 F2000
G00 Z-9.0000 F800
G01 X161.0717 F2000
G01 X162.4455 Z-9.5000 F1000
G01 X161.0717 Z-10.0000
G01 X186.0000 F2000
G03 X187.5625 Y0.0000 I0.0000 J1.5625
G01 Y22.4744
G00 Z-9.0000 F800
G01 Y28.5994 F2000
G00 Z-9.5000 F800
G01 Z-10.0000 F1000
G01 Y29.9731 Z-10.5000
G01 Y28.5994 Z-11.0000
G01 Y78.4559 F2000
G00 Z-9.0000 F800
G01 Y84.5809 F2000
G00 Z-9.5000 F800
G01 Z-10.0000 F1000
G01 Y85.9547 Z-10.5000
G01 Y84.5809 Z-11.0000
G01 Y89.0000 F2000
G03 X186.0000 Y90.5625 I-1.5625 J0.0000
G01 X143.0164
G00 Z-9.0000 F800
G01 X136.8914 F2000
G00 Z-9.5000 F800
G01 Z-10.0000 F1000
G01 X135.5177 Z-10.5000
G01 X136.8914 Z-11.0000
G01 X87.0349 F2000
G00 Z-9.0000 F800
G01 X80.9099 F2000
G00 Z-9.5000 F800
G01 Z-10.0000 F1000
G01 X79.5361 Z-10.5000
G01 X80.9099 Z-11.0000
G01 X31.0533 F2000
G00 Z-9.0000 F800
G01 X24.9283 F2000
G00 Z-9.5000 F800
G01 Z-10.0000 F1000
G01 X23.5545 Z-10.5000
G01 X24.9283 Z-11.0000
G01 X0.0000 F2000
G03 X-1.5625 Y89.0000 I0.0000 J-1.5625
G01 Y66.5256
G00 Z-9.0000 F800
G01 Y60.4006 F2000
G00 Z-9.5000 F800
G01 Z-10.0000 F1000
G01 Y59.0269 Z-10.5000
G01 Y60.4006 Z-11.0000
G01 Y10.5441 F2000
G00 Z-9.0000 F800
G01 Y4.4191 F2000
G00 Z-9.5000 F800
G01 Z-10.0000 F1000
G01 Y3.0453 Z-10.5000
G01 Y4.4191 Z-11.0000
G01 Y0.0000 F2000
G03 X0.0000 Y-1.5625 I1.5625 J0.0000
G01 X42.9836
G00 Z-9.0000 F800
G01 X49.1086 F2000
G00 Z-9.5000 F800
G01 Z-10.0000 F1000
G01 X50.4823 Z-10.5000
G01 X49.1086 Z-11.0000
G01 X98.9651 F2000
G00 Z-9.0000 F800
G01 X105.0901 F2000
G00 Z-9.5000 F800
G01 Z-10.0000 F1000
G01 X106.4639 Z-10.5000
G01 X105.0901 Z-11.0000
G01 X154.9467 F2000
G00 Z-9.0000 F800
G01 X161.0717 F2000
G00 Z-9.5000 F800
G01 Z-10.0000 F1000
G01 X162.4455 Z-10.5000
G01 X161.0717 Z-11.0000
G01 X186.0000 F2000
G03 X187.5625 Y0.0000 I0.0000 J1.5625
G01 Y22.4744
G00 Z-9.0000 F800
G01 Y28.5994 F2000
G00 Z-10.5000 F800
G01 Z-11.0000 F1000
G01 Y29.9731 Z-11.5000
G01 Y28.5994 Z-12.0000
G01 Y78.4559 F2000
G00 Z-9.0000 F800
G01 Y84.5809 F2000
G00 Z-10.5000 F800
G01 Z-11.0000 F1000
G01 Y85.9547 Z-11.5000
G01 Y84.5809 Z-12.0000
G01 Y89.0000 F2000
G03 X186.0000 Y90.5625 I-1.5625 J0.0000
G01 X143.0164
G00 Z-9.0000 F800
G01 X136.8914 F2000
G00 Z-10.5000 F800
G01 Z-11.0000 F1000
G01 X135.5177 Z-11.5000
G01 X136.8914 Z-12.0000
G01 X87.0349 F2000
G00 Z-9.0000 F800
G01 X80.9099 F2000
G00 Z-10.5000 F800
G01 Z-11.0000 F1000
G01 X79.5361 Z-11.5000
G01 X80.9099 Z-12.0000
G01 X31.0533 F2000
G00 Z-9.0000 F800
G01 X24.9283 F2000
G00 Z-10.5000 F800
G01 Z-11.0000 F1000
G01 X23.5545 Z-11.5000
G01 X24.9283 Z-12.0000
G01 X0.0000 F2000
G03 X-1.5625 Y89.0000 I0.0000 J-1.5625
G01 Y66.5256
G00 Z-9.0000 F800
G01 Y60.4006 F2000
G00 Z-10.5000 F800
G01 Z-11.0000 F1000
G01 Y59.0269 Z-11.5000
G01 Y60.4006 Z-12.0000
G01 Y10.5441 F2000
G00 Z-9.0000 F800
G01 Y4.4191 F2000
G00 Z-10.5000 F800
G01 Z-11.0000 F1000
G01 Y3.0453 Z-11.5000
G01 Y4.4191 Z-12.0000
G01 Y0.0000 F2000
G03 X0.0000 Y-1.5625 I1.5625 J0.0000
G01 X42.9836
G00 Z-9.0000 F800
G01 X49.1086 F2000
G00 Z-10.5000 F800
G01 Z-11.0000 F1000
G01 X50.4823 Z-11.5000
G01 X49.1086 Z-12.0000
G01 X98.9651 F2000
G00 Z-9.0000 F800
G01 X105.0901 F2000
G00 Z-10.5000 F800
G01 Z-11.0000 F1000
G01 X106.4639 Z-11.5000
G01 X105.0901 Z-12.0000
G01 X154.9467 F2000
G00 Z-9.0000 F800
G01 X161.0717 F2000
G00 Z-10.5000 F800
G01 Z-11.0000 F1000
G01 X162.4455 Z-11.5000
G01 X161.0717 Z-12.0000
G01 X186.0000 F2000
G03 X187.5625 Y0.0000 I0.0000 J1.5625
G01 Y22.4744
G00 Z-9.0000 F800
G01 Y28.5994 F2000
G00 Z-11.5000 F800
G01 Z-12.0000 F1000
G01 Y29.9731 Z-12.5000
G01 Y28.5994 Z-13.0000
G01 Y78.4559 F2000
G00 Z-9.0000 F800
G01 Y84.5809 F2000
G00 Z-11.5000 F800
G01 Z-12.0000 F1000
G01 Y85.9547 Z-12.5000
G01 Y84.5809 Z-13.0000
G01 Y89.0000 F2000
G03 X186.0000 Y90.5625 I-1.5625 J0.0000
G01 X143.0164
G00 Z-9.0000 F800
G01 X136.8914 F2000
G00 Z-11.5000 F800
G01 Z-12.0000 F1000
G01 X135.5177 Z-12.5000
G01 X136.8914 Z-13.0000
G01 X87.0349 F2000
G00 Z-9.0000 F800
G01 X80.9099 F2000
G00 Z-11.5000 F800
G01 Z-12.0000 F1000
G01 X79.5361 Z-12.5000
G01 X80.9099 Z-13.0000
G01 X31.0533 F2000
G00 Z-9.0000 F800
G01 X24.9283 F2000
G00 Z-11.5000 F800
G01 Z-12.0000 F1000
G01 X23.5545 Z-12.5000
G01 X24.9283 Z-13.0000
G01 X0.0000 F2000
G03 X-1.5625 Y89.0000 I0.0000 J-1.5625
G01 Y66.5256
G00 Z-9.0000 F800
G01 Y60.4006 F2000
G00 Z-11.5000 F800
G01 Z-12.0000 F1000
G01 Y59.0269 Z-12.5000
G01 Y60.4006 Z-13.0000
G01 Y10.5441 F2000
G00 Z-9.0000 F800
G01 Y4.4191 F2000
G00 Z-11.5000 F800
G01 Z-12.0000 F1000
G01 Y3.0453 Z-12.5000
G01 Y4.4191 Z-13.0000
G01 Y0.0000 F2000
G03 X0.0000 Y-1.5625 I1.5625 J0.0000
G01 X42.9836
G00 Z-9.0000 F800
G01 X49.1086 F2000
G00 Z-11.5000 F800
G01 Z-12.0000 F1000
G01 X50.4823 Z-12.5000
G01 X49.1086 Z-13.0000
G01 X98.9651 F2000
G00 Z-9.0000 F800
G01 X105.0901 F2000
G00 Z-11.5000 F800
G01 Z-12.0000 F1000
G01 X106.4639 Z-12.5000
G01 X105.0901 Z-13.0000
G01 X154.9467 F2000
G00 Z-9.0000 F800
G01 X161.0717 F2000
G00 Z-11.5000 F800
G01 Z-12.0000 F1000
G01 X162.4455 Z-12.5000
G01 X161.0717 Z-13.0000
G01 X186.0000 F2000
G03 X187.5625 Y0.0000 I0.0000 J1.5625
G01 Y22.4744
G00 Z-9.0000 F800
G01 Y28.5994 F2000
G00 Z5.0000 F800
G00 X0.0000 Y0.0000 F2000


M05
M30
