(Projekt right)
(Erstellt mit Estlcam 13.002)
(Laufzeit ca. 00:09:43 Stunden)

(Benoetigte Werkzeuge:)
(Beispielwerkzeug)

G21
G90
G94
M03 S24000
G00 Z5.0000 F800

(Nr. 1 Raeumen parallel: Tasche 1)
G00 X2.3063 Y2.3063 F2000
G00 Z0.5000 F800
G01 X3.0875 F1000 S24000
G02 X1.9156 Y1.6297 Z0.1667 I-0.7813 J0.0000
G02 Y2.9828 Z-0.1667 I0.3906 J0.6766
G02 X3.0875 Y2.3063 Z-0.5000 I0.3906 J-0.6766
G02 X2.3063 Y1.5250 Z-0.7500 I-0.7813 J0.0000
G02 X1.5250 Y2.3063 Z-1.0000 I0.0000 J0.7813
G02 X2.6969 Y2.9828 I0.7813 J0.0000
G02 Y1.6297 I-0.3906 J-0.6766
G02 X1.5250 Y2.3063 I-0.3906 J0.6766
G01 X2.3063 F2000
G01 Y86.6813
G01 X223.7063
G01 Y85.3031
G01 X5.8781
G03 X3.7125 Y83.3344 I0.1586 J-2.3500
G01 Y2.3063
G01 X2.3063
G01 X2.3062 Y1.5625
G01 X1.5625
G01 X1.1049 Y1.1049
G01 X1.5625 Y1.5625
G01 Y87.4375
G01 X1.1049 Y87.8951
G01 X1.5625 Y87.4375
G01 X224.4375
G01 X224.8951 Y87.8951
G01 X224.4375 Y87.4375
G01 Y84.5625
G01 X6.0000
G03 X4.4375 Y83.0000 I0.0000 J-1.5625
G01 Y1.5625
G01 X2.3062
G00 Z5.0000 F800
G00 X2.3063 Y2.3063 F2000
G00 Z-0.5000 F800
G01 X3.0875 F1000
G02 X1.9156 Y1.6297 Z-0.8333 I-0.7813 J0.0000
G02 Y2.9828 Z-1.1667 I0.3906 J0.6766
G02 X3.0875 Y2.3063 Z-1.5000 I0.3906 J-0.6766
G02 X2.3063 Y1.5250 Z-1.7500 I-0.7813 J0.0000
G02 X1.5250 Y2.3063 Z-2.0000 I0.0000 J0.7813
G02 X2.6969 Y2.9828 I0.7813 J0.0000
G02 Y1.6297 I-0.3906 J-0.6766
G02 X1.5250 Y2.3063 I-0.3906 J0.6766
G01 X2.3063 F2000
G01 Y86.6813
G01 X223.7063
G01 Y85.3031
G01 X5.8781
G03 X3.7125 Y83.3344 I0.1586 J-2.3500
G01 Y2.3063
G01 X2.3063
G01 X2.3062 Y1.5625
G01 X1.5625
G01 X1.1049 Y1.1049
G01 X1.5625 Y1.5625
G01 Y87.4375
G01 X1.1049 Y87.8951
G01 X1.5625 Y87.4375
G01 X224.4375
G01 X224.8951 Y87.8951
G01 X224.4375 Y87.4375
G01 Y84.5625
G01 X6.0000
G03 X4.4375 Y83.0000 I0.0000 J-1.5625
G01 Y1.5625
G01 X2.3062
G00 Z5.0000 F800
G00 X2.3063 Y2.3063 F2000
G00 Z-1.5000 F800
G01 X3.0875 F1000
G02 X1.9156 Y1.6297 Z-1.8333 I-0.7813 J0.0000
G02 Y2.9828 Z-2.1667 I0.3906 J0.6766
G02 X3.0875 Y2.3063 Z-2.5000 I0.3906 J-0.6766
G02 X2.3063 Y1.5250 Z-2.7500 I-0.7813 J0.0000
G02 X1.5250 Y2.3063 Z-3.0000 I0.0000 J0.7813
G02 X2.6969 Y2.9828 I0.7813 J0.0000
G02 Y1.6297 I-0.3906 J-0.6766
G02 X1.5250 Y2.3063 I-0.3906 J0.6766
G01 X2.3063 F2000
G01 Y86.6813
G01 X223.7063
G01 Y85.3031
G01 X5.8781
G03 X3.7125 Y83.3344 I0.1586 J-2.3500
G01 Y2.3063
G01 X2.3063
G01 X2.3062 Y1.5625
G01 X1.5625
G01 X1.1049 Y1.1049
G01 X1.5625 Y1.5625
G01 Y87.4375
G01 X1.1049 Y87.8951
G01 X1.5625 Y87.4375
G01 X224.4375
G01 X224.8951 Y87.8951
G01 X224.4375 Y87.4375
G01 Y84.5625
G01 X6.0000
G03 X4.4375 Y83.0000 I0.0000 J-1.5625
G01 Y1.5625
G01 X2.3062
G00 Z5.0000 F800
G00 X2.3063 Y2.3063 F2000
G00 Z-2.5000 F800
G01 X3.0875 F1000
G02 X1.9156 Y1.6297 Z-2.8333 I-0.7813 J0.0000
G02 Y2.9828 Z-3.1667 I0.3906 J0.6766
G02 X3.0875 Y2.3063 Z-3.5000 I0.3906 J-0.6766
G02 X2.3063 Y1.5250 Z-3.7500 I-0.7813 J0.0000
G02 X1.5250 Y2.3063 Z-4.0000 I0.0000 J0.7813
G02 X2.6969 Y2.9828 I0.7813 J0.0000
G02 Y1.6297 I-0.3906 J-0.6766
G02 X1.5250 Y2.3063 I-0.3906 J0.6766
G01 X2.3063 F2000
G01 Y86.6813
G01 X223.7063
G01 Y85.3031
G01 X5.8781
G03 X3.7125 Y83.3344 I0.1586 J-2.3500
G01 Y2.3063
G01 X2.3063
G01 X2.3062 Y1.5625
G01 X1.5625
G01 X1.1049 Y1.1049
G01 X1.5625 Y1.5625
G01 Y87.4375
G01 X1.1049 Y87.8951
G01 X1.5625 Y87.4375
G01 X224.4375
G01 X224.8951 Y87.8951
G01 X224.4375 Y87.4375
G01 Y84.5625
G01 X6.0000
G03 X4.4375 Y83.0000 I0.0000 J-1.5625
G01 Y1.5625
G01 X2.3062
G00 Z5.0000 F800
G00 X2.3063 Y2.3063 F2000
G00 Z-3.5000 F800
G01 X3.0875 F1000
G02 X1.9156 Y1.6297 Z-3.8333 I-0.7813 J0.0000
G02 Y2.9828 Z-4.1667 I0.3906 J0.6766
G02 X3.0875 Y2.3063 Z-4.5000 I0.3906 J-0.6766
G02 X2.3063 Y1.5250 Z-4.7500 I-0.7813 J0.0000
G02 X1.5250 Y2.3063 Z-5.0000 I0.0000 J0.7813
G02 X2.6969 Y2.9828 I0.7813 J0.0000
G02 Y1.6297 I-0.3906 J-0.6766
G02 X1.5250 Y2.3063 I-0.3906 J0.6766
G01 X2.3063 F2000
G01 Y86.6813
G01 X223.7063
G01 Y85.3031
G01 X5.8781
G03 X3.7125 Y83.3344 I0.1586 J-2.3500
G01 Y2.3063
G01 X2.3063
G01 X2.3062 Y1.5625
G01 X1.5625
G01 X1.1049 Y1.1049
G01 X1.5625 Y1.5625
G01 Y87.4375
G01 X1.1049 Y87.8951
G01 X1.5625 Y87.4375
G01 X224.4375
G01 X224.8951 Y87.8951
G01 X224.4375 Y87.4375
G01 Y84.5625
G01 X6.0000
G03 X4.4375 Y83.0000 I0.0000 J-1.5625
G01 Y1.5625
G01 X2.3062
G00 Z5.0000 F800
G00 X2.3063 Y2.3063 F2000
G00 Z-4.5000 F800
G01 X3.0875 F1000
G02 X1.9156 Y1.6297 Z-4.8333 I-0.7813 J0.0000
G02 Y2.9828 Z-5.1667 I0.3906 J0.6766
G02 X3.0875 Y2.3063 Z-5.5000 I0.3906 J-0.6766
G02 X2.3063 Y1.5250 Z-5.7500 I-0.7813 J0.0000
G02 X1.5250 Y2.3063 Z-6.0000 I0.0000 J0.7813
G02 X2.6969 Y2.9828 I0.7813 J0.0000
G02 Y1.6297 I-0.3906 J-0.6766
G02 X1.5250 Y2.3063 I-0.3906 J0.6766
G01 X2.3063 F2000
G01 Y86.6813
G01 X223.7063
G01 Y85.3031
G01 X5.8781
G03 X3.7125 Y83.3344 I0.1586 J-2.3500
G01 Y2.3063
G01 X2.3063
G01 X2.3062 Y1.5625
G01 X1.5625
G01 X1.1049 Y1.1049
G01 X1.5625 Y1.5625
G01 Y87.4375
G01 X1.1049 Y87.8951
G01 X1.5625 Y87.4375
G01 X224.4375
G01 X224.8951 Y87.8951
G01 X224.4375 Y87.4375
G01 Y84.5625
G01 X6.0000
G03 X4.4375 Y83.0000 I0.0000 J-1.5625
G01 Y1.5625
G01 X2.3062
G00 Z5.0000 F800

(Nr. 2 Teil bearbeiten: Teil 1)
G00 X227.5625 Y32.5994 Z5.0000 F2000
G00 Z0.5000 F800
G01 Z0.0000 F1000
G01 Y33.9731 Z-0.5000
G01 Y32.5994 Z-1.0000
G01 Y89.0000 F2000
G03 X226.9313 Y90.2539 I-1.5593 J0.0009
G03 X226.0000 Y90.5625 I-0.9306 J-1.2488
G01 X220.8730
G01 X163.0164
G01 X156.8914
G01 X99.0349
G01 X92.9099
G01 X35.0533
G01 X28.9283
G01 X0.0000
G03 X-1.5625 Y89.0000 I0.0000 J-1.5625
G01 Y62.5256
G01 Y56.4006
G01 Y0.0000
G03 X-0.9313 Y-1.2539 I1.5593 J-0.0009
G03 X0.0000 Y-1.5625 I0.9306 J1.2488
G01 X5.1270
G01 X62.9836
G01 X69.1086
G01 X126.9651
G01 X133.0901
G01 X190.9467
G01 X197.0717
G01 X226.0000
G03 X227.5625 Y0.0000 I0.0000 J1.5625
G01 Y26.4744
G01 Y32.5994
G01 Y33.9731 Z-1.5000 F1000
G01 Y32.5994 Z-2.0000
G01 Y89.0000 F2000
G03 X226.9313 Y90.2539 I-1.5593 J0.0009
G03 X226.0000 Y90.5625 I-0.9306 J-1.2488
G01 X220.8730
G01 X163.0164
G01 X156.8914
G01 X99.0349
G01 X92.9099
G01 X35.0533
G01 X28.9283
G01 X0.0000
G03 X-1.5625 Y89.0000 I0.0000 J-1.5625
G01 Y62.5256
G01 Y56.4006
G01 Y0.0000
G03 X-0.9313 Y-1.2539 I1.5593 J-0.0009
G03 X0.0000 Y-1.5625 I0.9306 J1.2488
G01 X5.1270
G01 X62.9836
G01 X69.1086
G01 X126.9651
G01 X133.0901
G01 X190.9467
G01 X197.0717
G01 X226.0000
G03 X227.5625 Y0.0000 I0.0000 J1.5625
G01 Y26.4744
G01 Y32.5994
G01 Y33.9731 Z-2.5000 F1000
G01 Y32.5994 Z-3.0000
G01 Y89.0000 F2000
G03 X226.9313 Y90.2539 I-1.5593 J0.0009
G03 X226.0000 Y90.5625 I-0.9306 J-1.2488
G01 X220.8730
G01 X163.0164
G01 X156.8914
G01 X99.0349
G01 X92.9099
G01 X35.0533
G01 X28.9283
G01 X0.0000
G03 X-1.5625 Y89.0000 I0.0000 J-1.5625
G01 Y62.5256
G01 Y56.4006
G01 Y0.0000
G03 X-0.9313 Y-1.2539 I1.5593 J-0.0009
G03 X0.0000 Y-1.5625 I0.9306 J1.2488
G01 X5.1270
G01 X62.9836
G01 X69.1086
G01 X126.9651
G01 X133.0901
G01 X190.9467
G01 X197.0717
G01 X226.0000
G03 X227.5625 Y0.0000 I0.0000 J1.5625
G01 Y26.4744
G01 Y32.5994
G01 Y33.9731 Z-3.5000 F1000
G01 Y32.5994 Z-4.0000
G01 Y89.0000 F2000
G03 X226.9313 Y90.2539 I-1.5593 J0.0009
G03 X226.0000 Y90.5625 I-0.9306 J-1.2488
G01 X220.8730
G01 X163.0164
G01 X156.8914
G01 X99.0349
G01 X92.9099
G01 X35.0533
G01 X28.9283
G01 X0.0000
G03 X-1.5625 Y89.0000 I0.0000 J-1.5625
G01 Y62.5256
G01 Y56.4006
G01 Y0.0000
G03 X-0.9313 Y-1.2539 I1.5593 J-0.0009
G03 X0.0000 Y-1.5625 I0.9306 J1.2488
G01 X5.1270
G01 X62.9836
G01 X69.1086
G01 X126.9651
G01 X133.0901
G01 X190.9467
G01 X197.0717
G01 X226.0000
G03 X227.5625 Y0.0000 I0.0000 J1.5625
G01 Y26.4744
G01 Y32.5994
G01 Y33.9731 Z-4.5000 F1000
G01 Y32.5994 Z-5.0000
G01 Y89.0000 F2000
G03 X226.9313 Y90.2539 I-1.5593 J0.0009
G03 X226.0000 Y90.5625 I-0.9306 J-1.2488
G01 X220.8730
G01 X163.0164
G01 X156.8914
G01 X99.0349
G01 X92.9099
G01 X35.0533
G01 X28.9283
G01 X0.0000
G03 X-1.5625 Y89.0000 I0.0000 J-1.5625
G01 Y62.5256
G01 Y56.4006
G01 Y0.0000
G03 X-0.9313 Y-1.2539 I1.5593 J-0.0009
G03 X0.0000 Y-1.5625 I0.9306 J1.2488
G01 X5.1270
G01 X62.9836
G01 X69.1086
G01 X126.9651
G01 X133.0901
G01 X190.9467
G01 X197.0717
G01 X226.0000
G03 X227.5625 Y0.0000 I0.0000 J1.5625
G01 Y26.4744
G01 Y32.5994
G01 Y33.9731 Z-5.5000 F1000
G01 Y32.5994 Z-6.0000
G01 Y89.0000 F2000
G03 X226.9313 Y90.2539 I-1.5593 J0.0009
G03 X226.0000 Y90.5625 I-0.9306 J-1.2488
G01 X220.8730
G01 X163.0164
G01 X156.8914
G01 X99.0349
G01 X92.9099
G01 X35.0533
G01 X28.9283
G01 X0.0000
G03 X-1.5625 Y89.0000 I0.0000 J-1.5625
G01 Y62.5256
G01 Y56.4006
G01 Y0.0000
G03 X-0.9313 Y-1.2539 I1.5593 J-0.0009
G03 X0.0000 Y-1.5625 I0.9306 J1.2488
G01 X5.1270
G01 X62.9836
G01 X69.1086
G01 X126.9651
G01 X133.0901
G01 X190.9467
G01 X197.0717
G01 X226.0000
G03 X227.5625 Y0.0000 I0.0000 J1.5625
G01 Y26.4744
G01 Y32.5994
G01 Y33.9731 Z-6.5000 F1000
G01 Y32.5994 Z-7.0000
G01 Y89.0000 F2000
G03 X226.9313 Y90.2539 I-1.5593 J0.0009
G03 X226.0000 Y90.5625 I-0.9306 J-1.2488
G01 X220.8730
G01 X163.0164
G01 X156.8914
G01 X99.0349
G01 X92.9099
G01 X35.0533
G01 X28.9283
G01 X0.0000
G03 X-1.5625 Y89.0000 I0.0000 J-1.5625
G01 Y62.5256
G01 Y56.4006
G01 Y0.0000
G03 X-0.9313 Y-1.2539 I1.5593 J-0.0009
G03 X0.0000 Y-1.5625 I0.9306 J1.2488
G01 X5.1270
G01 X62.9836
G01 X69.1086
G01 X126.9651
G01 X133.0901
G01 X190.9467
G01 X197.0717
G01 X226.0000
G03 X227.5625 Y0.0000 I0.0000 J1.5625
G01 Y26.4744
G01 Y32.5994
G01 Y33.9731 Z-7.5000 F1000
G01 Y32.5994 Z-8.0000
G01 Y89.0000 F2000
G03 X226.9313 Y90.2539 I-1.5593 J0.0009
G03 X226.0000 Y90.5625 I-0.9306 J-1.2488
G01 X220.8730
G01 X163.0164
G01 X156.8914
G01 X99.0349
G01 X92.9099
G01 X35.0533
G01 X28.9283
G01 X0.0000
G03 X-1.5625 Y89.0000 I0.0000 J-1.5625
G01 Y62.5256
G01 Y56.4006
G01 Y0.0000
G03 X-0.9313 Y-1.2539 I1.5593 J-0.0009
G03 X0.0000 Y-1.5625 I0.9306 J1.2488
G01 X5.1270
G01 X62.9836
G01 X69.1086
G01 X126.9651
G01 X133.0901
G01 X190.9467
G01 X197.0717
G01 X226.0000
G03 X227.5625 Y0.0000 I0.0000 J1.5625
G01 Y26.4744
G01 Y32.5994
G01 Y33.9731 Z-8.5000 F1000
G01 Y32.5994 Z-9.0000
G01 Y89.0000 F2000
G03 X226.9313 Y90.2539 I-1.5593 J0.0009
G03 X226.0000 Y90.5625 I-0.9306 J-1.2488
G01 X220.8730
G01 X163.0164
G01 X156.8914
G01 X99.0349
G01 X92.9099
G01 X35.0533
G01 X28.9283
G01 X0.0000
G03 X-1.5625 Y89.0000 I0.0000 J-1.5625
G01 Y62.5256
G01 Y56.4006
G01 Y0.0000
G03 X-0.9313 Y-1.2539 I1.5593 J-0.0009
G03 X0.0000 Y-1.5625 I0.9306 J1.2488
G01 X5.1270
G01 X62.9836
G01 X69.1086
G01 X126.9651
G01 X133.0901
G01 X190.9467
G01 X197.0717
G01 X226.0000
G03 X227.5625 Y0.0000 I0.0000 J1.5625
G01 Y26.4744
G01 Y32.5994
G01 Y33.9731 Z-9.5000 F1000
G01 Y32.5994 Z-10.0000
G01 Y89.0000 F2000
G03 X226.9313 Y90.2539 I-1.5593 J0.0009
G00 Z-9.0000 F800
G03 X226.0000 Y90.5625 I-0.9306 J-1.2488 F2000
G01 X220.8730
G01 X219.4993 Z-9.5000 F1000
G01 X220.8730 Z-10.0000
G01 X163.0164 F2000
G00 Z-9.0000 F800
G01 X156.8914 F2000
G01 X155.5177 Z-9.5000 F1000
G01 X156.8914 Z-10.0000
G01 X99.0349 F2000
G00 Z-9.0000 F800
G01 X92.9099 F2000
G01 X91.5361 Z-9.5000 F1000
G01 X92.9099 Z-10.0000
G01 X35.0533 F2000
G00 Z-9.0000 F800
G01 X28.9283 F2000
G01 X27.5545 Z-9.5000 F1000
G01 X28.9283 Z-10.0000
G01 X0.0000 F2000
G03 X-1.5625 Y89.0000 I0.0000 J-1.5625
G01 Y62.5256
G00 Z-9.0000 F800
G01 Y56.4006 F2000
G01 Y55.0269 Z-9.5000 F1000
G01 Y56.4006 Z-10.0000
G01 Y0.0000 F2000
G03 X-0.9313 Y-1.2539 I1.5593 J-0.0009
G00 Z-9.0000 F800
G03 X0.0000 Y-1.5625 I0.9306 J1.2488 F2000
G01 X5.1270
G01 X6.5007 Z-9.5000 F1000
G01 X5.1270 Z-10.0000
G01 X62.9836 F2000
G00 Z-9.0000 F800
G01 X69.1086 F2000
G01 X70.4823 Z-9.5000 F1000
G01 X69.1086 Z-10.0000
G01 X126.9651 F2000
G00 Z-9.0000 F800
G01 X133.0901 F2000
G01 X134.4639 Z-9.5000 F1000
G01 X133.0901 Z-10.0000
G01 X190.9467 F2000
G00 Z-9.0000 F800
G01 X197.0717 F2000
G01 X198.4455 Z-9.5000 F1000
G01 X197.0717 Z-10.0000
G01 X226.0000 F2000
G03 X227.5625 Y0.0000 I0.0000 J1.5625
G01 Y26.4744
G00 Z-9.0000 F800
G01 Y32.5994 F2000
G00 Z-9.5000 F800
G01 Z-10.0000 F1000
G01 Y33.9731 Z-10.5000
G01 Y32.5994 Z-11.0000
G01 Y89.0000 F2000
G03 X226.9313 Y90.2539 I-1.5593 J0.0009
G00 Z-9.0000 F800
G03 X226.0000 Y90.5625 I-0.9306 J-1.2488 F2000
G01 X220.8730
G00 Z-9.5000 F800
G01 Z-10.0000 F1000
G01 X219.4993 Z-10.5000
G01 X220.8730 Z-11.0000
G01 X163.0164 F2000
G00 Z-9.0000 F800
G01 X156.8914 F2000
G00 Z-9.5000 F800
G01 Z-10.0000 F1000
G01 X155.5177 Z-10.5000
G01 X156.8914 Z-11.0000
G01 X99.0349 F2000
G00 Z-9.0000 F800
G01 X92.9099 F2000
G00 Z-9.5000 F800
G01 Z-10.0000 F1000
G01 X91.5361 Z-10.5000
G01 X92.9099 Z-11.0000
G01 X35.0533 F2000
G00 Z-9.0000 F800
G01 X28.9283 F2000
G00 Z-9.5000 F800
G01 Z-10.0000 F1000
G01 X27.5545 Z-10.5000
G01 X28.9283 Z-11.0000
G01 X0.0000 F2000
G03 X-1.5625 Y89.0000 I0.0000 J-1.5625
G01 Y62.5256
G00 Z-9.0000 F800
G01 Y56.4006 F2000
G00 Z-9.5000 F800
G01 Z-10.0000 F1000
G01 Y55.0269 Z-10.5000
G01 Y56.4006 Z-11.0000
G01 Y0.0000 F2000
G03 X-0.9313 Y-1.2539 I1.5593 J-0.0009
G00 Z-9.0000 F800
G03 X0.0000 Y-1.5625 I0.9306 J1.2488 F2000
G01 X5.1270
G00 Z-9.5000 F800
G01 Z-10.0000 F1000
G01 X6.5007 Z-10.5000
G01 X5.1270 Z-11.0000
G01 X62.9836 F2000
G00 Z-9.0000 F800
G01 X69.1086 F2000
G00 Z-9.5000 F800
G01 Z-10.0000 F1000
G01 X70.4823 Z-10.5000
G01 X69.1086 Z-11.0000
G01 X126.9651 F2000
G00 Z-9.0000 F800
G01 X133.0901 F2000
G00 Z-9.5000 F800
G01 Z-10.0000 F1000
G01 X134.4639 Z-10.5000
G01 X133.0901 Z-11.0000
G01 X190.9467 F2000
G00 Z-9.0000 F800
G01 X197.0717 F2000
G00 Z-9.5000 F800
G01 Z-10.0000 F1000
G01 X198.4455 Z-10.5000
G01 X197.0717 Z-11.0000
G01 X226.0000 F2000
G03 X227.5625 Y0.0000 I0.0000 J1.5625
G01 Y26.4744
G00 Z-9.0000 F800
G01 Y32.5994 F2000
G00 Z-10.5000 F800
G01 Z-11.0000 F1000
G01 Y33.9731 Z-11.5000
G01 Y32.5994 Z-12.0000
G01 Y89.0000 F2000
G03 X226.9313 Y90.2539 I-1.5593 J0.0009
G00 Z-9.0000 F800
G03 X226.0000 Y90.5625 I-0.9306 J-1.2488 F2000
G01 X220.8730
G00 Z-10.5000 F800
G01 Z-11.0000 F1000
G01 X219.4993 Z-11.5000
G01 X220.8730 Z-12.0000
G01 X163.0164 F2000
G00 Z-9.0000 F800
G01 X156.8914 F2000
G00 Z-10.5000 F800
G01 Z-11.0000 F1000
G01 X155.5177 Z-11.5000
G01 X156.8914 Z-12.0000
G01 X99.0349 F2000
G00 Z-9.0000 F800
G01 X92.9099 F2000
G00 Z-10.5000 F800
G01 Z-11.0000 F1000
G01 X91.5361 Z-11.5000
G01 X92.9099 Z-12.0000
G01 X35.0533 F2000
G00 Z-9.0000 F800
G01 X28.9283 F2000
G00 Z-10.5000 F800
G01 Z-11.0000 F1000
G01 X27.5545 Z-11.5000
G01 X28.9283 Z-12.0000
G01 X0.0000 F2000
G03 X-1.5625 Y89.0000 I0.0000 J-1.5625
G01 Y62.5256
G00 Z-9.0000 F800
G01 Y56.4006 F2000
G00 Z-10.5000 F800
G01 Z-11.0000 F1000
G01 Y55.0269 Z-11.5000
G01 Y56.4006 Z-12.0000
G01 Y0.0000 F2000
G03 X-0.9313 Y-1.2539 I1.5593 J-0.0009
G00 Z-9.0000 F800
G03 X0.0000 Y-1.5625 I0.9306 J1.2488 F2000
G01 X5.1270
G00 Z-10.5000 F800
G01 Z-11.0000 F1000
G01 X6.5007 Z-11.5000
G01 X5.1270 Z-12.0000
G01 X62.9836 F2000
G00 Z-9.0000 F800
G01 X69.1086 F2000
G00 Z-10.5000 F800
G01 Z-11.0000 F1000
G01 X70.4823 Z-11.5000
G01 X69.1086 Z-12.0000
G01 X126.9651 F2000
G00 Z-9.0000 F800
G01 X133.0901 F2000
G00 Z-10.5000 F800
G01 Z-11.0000 F1000
G01 X134.4639 Z-11.5000
G01 X133.0901 Z-12.0000
G01 X190.9467 F2000
G00 Z-9.0000 F800
G01 X197.0717 F2000
G00 Z-10.5000 F800
G01 Z-11.0000 F1000
G01 X198.4455 Z-11.5000
G01 X197.0717 Z-12.0000
G01 X226.0000 F2000
G03 X227.5625 Y0.0000 I0.0000 J1.5625
G01 Y26.4744
G00 Z-9.0000 F800
G01 Y32.5994 F2000
G00 Z-11.5000 F800
G01 Z-12.0000 F1000
G01 Y33.9731 Z-12.5000
G01 Y32.5994 Z-13.0000
G01 Y89.0000 F2000
G03 X226.9313 Y90.2539 I-1.5593 J0.0009
G00 Z-9.0000 F800
G03 X226.0000 Y90.5625 I-0.9306 J-1.2488 F2000
G01 X220.8730
G00 Z-11.5000 F800
G01 Z-12.0000 F1000
G01 X219.4993 Z-12.5000
G01 X220.8730 Z-13.0000
G01 X163.0164 F2000
G00 Z-9.0000 F800
G01 X156.8914 F2000
G00 Z-11.5000 F800
G01 Z-12.0000 F1000
G01 X155.5177 Z-12.5000
G01 X156.8914 Z-13.0000
G01 X99.0349 F2000
G00 Z-9.0000 F800
G01 X92.9099 F2000
G00 Z-11.5000 F800
G01 Z-12.0000 F1000
G01 X91.5361 Z-12.5000
G01 X92.9099 Z-13.0000
G01 X35.0533 F2000
G00 Z-9.0000 F800
G01 X28.9283 F2000
G00 Z-11.5000 F800
G01 Z-12.0000 F1000
G01 X27.5545 Z-12.5000
G01 X28.9283 Z-13.0000
G01 X0.0000 F2000
G03 X-1.5625 Y89.0000 I0.0000 J-1.5625
G01 Y62.5256
G00 Z-9.0000 F800
G01 Y56.4006 F2000
G00 Z-11.5000 F800
G01 Z-12.0000 F1000
G01 Y55.0269 Z-12.5000
G01 Y56.4006 Z-13.0000
G01 Y0.0000 F2000
G03 X-0.9313 Y-1.2539 I1.5593 J-0.0009
G00 Z-9.0000 F800
G03 X0.0000 Y-1.5625 I0.9306 J1.2488 F2000
G01 X5.1270
G00 Z-11.5000 F800
G01 Z-12.0000 F1000
G01 X6.5007 Z-12.5000
G01 X5.1270 Z-13.0000
G01 X62.9836 F2000
G00 Z-9.0000 F800
G01 X69.1086 F2000
G00 Z-11.5000 F800
G01 Z-12.0000 F1000
G01 X70.4823 Z-12.5000
G01 X69.1086 Z-13.0000
G01 X126.9651 F2000
G00 Z-9.0000 F800
G01 X133.0901 F2000
G00 Z-11.5000 F800
G01 Z-12.0000 F1000
G01 X134.4639 Z-12.5000
G01 X133.0901 Z-13.0000
G01 X190.9467 F2000
G00 Z-9.0000 F800
G01 X197.0717 F2000
G00 Z-11.5000 F800
G01 Z-12.0000 F1000
G01 X198.4455 Z-12.5000
G01 X197.0717 Z-13.0000
G01 X226.0000 F2000
G03 X227.5625 Y0.0000 I0.0000 J1.5625
G01 Y26.4744
G00 Z-9.0000 F800
G01 Y32.5994 F2000
G00 Z5.0000 F800
G00 X0.0000 Y0.0000 F2000


M05
M30
