(Projekt roof)
(Erstellt mit Estlcam 13.002)
(Laufzeit ca. 00:09:09 Stunden)

(Benoetigte Werkzeuge:)
(Beispielwerkzeug)

G21
G90
G94
M03 S24000
G00 Z5.0000 F800

(Nr. 1 Teil bearbeiten: Teil 1)
G00 X301.5625 Y52.4994 Z5.0000 F2000
G00 Z0.5000 F800
G01 Z0.0000 F1000 S24000
G01 Y53.8731 Z-0.5000
G01 Y52.4994 Z-1.0000
G01 Y150.1559 F2000
G01 Y156.2809
G01 Y214.0000
G03 X300.0000 Y215.5625 I-1.5625 J0.0000
G01 X262.5164
G01 X256.3914
G01 X158.7349
G01 X152.6099
G01 X54.9533
G01 X48.8283
G01 X0.0000
G03 X-1.5625 Y214.0000 I0.0000 J-1.5625
G01 Y167.6256
G01 Y161.5006
G01 Y63.8441
G01 Y57.7191
G01 Y0.0000
G03 X0.0000 Y-1.5625 I1.5625 J0.0000
G01 X37.4836
G01 X43.6086
G01 X141.2651
G01 X147.3901
G01 X245.0467
G01 X251.1717
G01 X300.0000
G03 X301.5625 Y0.0000 I0.0000 J1.5625
G01 Y46.3744
G01 Y52.4994
G01 Y53.8731 Z-1.5000 F1000
G01 Y52.4994 Z-2.0000
G01 Y150.1559 F2000
G01 Y156.2809
G01 Y214.0000
G03 X300.0000 Y215.5625 I-1.5625 J0.0000
G01 X262.5164
G01 X256.3914
G01 X158.7349
G01 X152.6099
G01 X54.9533
G01 X48.8283
G01 X0.0000
G03 X-1.5625 Y214.0000 I0.0000 J-1.5625
G01 Y167.6256
G01 Y161.5006
G01 Y63.8441
G01 Y57.7191
G01 Y0.0000
G03 X0.0000 Y-1.5625 I1.5625 J0.0000
G01 X37.4836
G01 X43.6086
G01 X141.2651
G01 X147.3901
G01 X245.0467
G01 X251.1717
G01 X300.0000
G03 X301.5625 Y0.0000 I0.0000 J1.5625
G01 Y46.3744
G01 Y52.4994
G01 Y53.8731 Z-2.5000 F1000
G01 Y52.4994 Z-3.0000
G01 Y150.1559 F2000
G01 Y156.2809
G01 Y214.0000
G03 X300.0000 Y215.5625 I-1.5625 J0.0000
G01 X262.5164
G01 X256.3914
G01 X158.7349
G01 X152.6099
G01 X54.9533
G01 X48.8283
G01 X0.0000
G03 X-1.5625 Y214.0000 I0.0000 J-1.5625
G01 Y167.6256
G01 Y161.5006
G01 Y63.8441
G01 Y57.7191
G01 Y0.0000
G03 X0.0000 Y-1.5625 I1.5625 J0.0000
G01 X37.4836
G01 X43.6086
G01 X141.2651
G01 X147.3901
G01 X245.0467
G01 X251.1717
G01 X300.0000
G03 X301.5625 Y0.0000 I0.0000 J1.5625
G01 Y46.3744
G01 Y52.4994
G01 Y53.8731 Z-3.5000 F1000
G01 Y52.4994 Z-4.0000
G01 Y150.1559 F2000
G01 Y156.2809
G01 Y214.0000
G03 X300.0000 Y215.5625 I-1.5625 J0.0000
G01 X262.5164
G01 X256.3914
G01 X158.7349
G01 X152.6099
G01 X54.9533
G01 X48.8283
G01 X0.0000
G03 X-1.5625 Y214.0000 I0.0000 J-1.5625
G01 Y167.6256
G01 Y161.5006
G01 Y63.8441
G01 Y57.7191
G01 Y0.0000
G03 X0.0000 Y-1.5625 I1.5625 J0.0000
G01 X37.4836
G01 X43.6086
G01 X141.2651
G01 X147.3901
G01 X245.0467
G01 X251.1717
G01 X300.0000
G03 X301.5625 Y0.0000 I0.0000 J1.5625
G01 Y46.3744
G01 Y52.4994
G01 Y53.8731 Z-4.5000 F1000
G01 Y52.4994 Z-5.0000
G01 Y150.1559 F2000
G01 Y156.2809
G01 Y214.0000
G03 X300.0000 Y215.5625 I-1.5625 J0.0000
G01 X262.5164
G01 X256.3914
G01 X158.7349
G01 X152.6099
G01 X54.9533
G01 X48.8283
G01 X0.0000
G03 X-1.5625 Y214.0000 I0.0000 J-1.5625
G01 Y167.6256
G01 Y161.5006
G01 Y63.8441
G01 Y57.7191
G01 Y0.0000
G03 X0.0000 Y-1.5625 I1.5625 J0.0000
G01 X37.4836
G01 X43.6086
G01 X141.2651
G01 X147.3901
G01 X245.0467
G01 X251.1717
G01 X300.0000
G03 X301.5625 Y0.0000 I0.0000 J1.5625
G01 Y46.3744
G01 Y52.4994
G01 Y53.8731 Z-5.5000 F1000
G01 Y52.4994 Z-6.0000
G01 Y150.1559 F2000
G01 Y156.2809
G01 Y214.0000
G03 X300.0000 Y215.5625 I-1.5625 J0.0000
G01 X262.5164
G01 X256.3914
G01 X158.7349
G01 X152.6099
G01 X54.9533
G01 X48.8283
G01 X0.0000
G03 X-1.5625 Y214.0000 I0.0000 J-1.5625
G01 Y167.6256
G01 Y161.5006
G01 Y63.8441
G01 Y57.7191
G01 Y0.0000
G03 X0.0000 Y-1.5625 I1.5625 J0.0000
G01 X37.4836
G01 X43.6086
G01 X141.2651
G01 X147.3901
G01 X245.0467
G01 X251.1717
G01 X300.0000
G03 X301.5625 Y0.0000 I0.0000 J1.5625
G01 Y46.3744
G01 Y52.4994
G01 Y53.8731 Z-6.5000 F1000
G01 Y52.4994 Z-7.0000
G01 Y150.1559 F2000
G01 Y156.2809
G01 Y214.0000
G03 X300.0000 Y215.5625 I-1.5625 J0.0000
G01 X262.5164
G01 X256.3914
G01 X158.7349
G01 X152.6099
G01 X54.9533
G01 X48.8283
G01 X0.0000
G03 X-1.5625 Y214.0000 I0.0000 J-1.5625
G01 Y167.6256
G01 Y161.5006
G01 Y63.8441
G01 Y57.7191
G01 Y0.0000
G03 X0.0000 Y-1.5625 I1.5625 J0.0000
G01 X37.4836
G01 X43.6086
G01 X141.2651
G01 X147.3901
G01 X245.0467
G01 X251.1717
G01 X300.0000
G03 X301.5625 Y0.0000 I0.0000 J1.5625
G01 Y46.3744
G01 Y52.4994
G01 Y53.8731 Z-7.5000 F1000
G01 Y52.4994 Z-8.0000
G01 Y150.1559 F2000
G01 Y156.2809
G01 Y214.0000
G03 X300.0000 Y215.5625 I-1.5625 J0.0000
G01 X262.5164
G01 X256.3914
G01 X158.7349
G01 X152.6099
G01 X54.9533
G01 X48.8283
G01 X0.0000
G03 X-1.5625 Y214.0000 I0.0000 J-1.5625
G01 Y167.6256
G01 Y161.5006
G01 Y63.8441
G01 Y57.7191
G01 Y0.0000
G03 X0.0000 Y-1.5625 I1.5625 J0.0000
G01 X37.4836
G01 X43.6086
G01 X141.2651
G01 X147.3901
G01 X245.0467
G01 X251.1717
G01 X300.0000
G03 X301.5625 Y0.0000 I0.0000 J1.5625
G01 Y46.3744
G01 Y52.4994
G01 Y53.8731 Z-8.5000 F1000
G01 Y52.4994 Z-9.0000
G01 Y150.1559 F2000
G01 Y156.2809
G01 Y214.0000
G03 X300.0000 Y215.5625 I-1.5625 J0.0000
G01 X262.5164
G01 X256.3914
G01 X158.7349
G01 X152.6099
G01 X54.9533
G01 X48.8283
G01 X0.0000
G03 X-1.5625 Y214.0000 I0.0000 J-1.5625
G01 Y167.6256
G01 Y161.5006
G01 Y63.8441
G01 Y57.7191
G01 Y0.0000
G03 X0.0000 Y-1.5625 I1.5625 J0.0000
G01 X37.4836
G01 X43.6086
G01 X141.2651
G01 X147.3901
G01 X245.0467
G01 X251.1717
G01 X300.0000
G03 X301.5625 Y0.0000 I0.0000 J1.5625
G01 Y46.3744
G01 Y52.4994
G01 Y53.8731 Z-9.5000 F1000
G01 Y52.4994 Z-10.0000
G01 Y150.1559 F2000
G00 Z-9.0000 F800
G01 Y156.2809 F2000
G01 Y157.6547 Z-9.5000 F1000
G01 Y156.2809 Z-10.0000
G01 Y214.0000 F2000
G03 X300.0000 Y215.5625 I-1.5625 J0.0000
G01 X262.5164
G00 Z-9.0000 F800
G01 X256.3914 F2000
G01 X255.0177 Z-9.5000 F1000
G01 X256.3914 Z-10.0000
G01 X158.7349 F2000
G00 Z-9.0000 F800
G01 X152.6099 F2000
G01 X151.2361 Z-9.5000 F1000
G01 X152.6099 Z-10.0000
G01 X54.9533 F2000
G00 Z-9.0000 F800
G01 X48.8283 F2000
G01 X47.4545 Z-9.5000 F1000
G01 X48.8283 Z-10.0000
G01 X0.0000 F2000
G03 X-1.5625 Y214.0000 I0.0000 J-1.5625
G01 Y167.6256
G00 Z-9.0000 F800
G01 Y161.5006 F2000
G01 Y160.1269 Z-9.5000 F1000
G01 Y161.5006 Z-10.0000
G01 Y63.8441 F2000
G00 Z-9.0000 F800
G01 Y57.7191 F2000
G01 Y56.3453 Z-9.5000 F1000
G01 Y57.7191 Z-10.0000
G01 Y0.0000 F2000
G03 X0.0000 Y-1.5625 I1.5625 J0.0000
G01 X37.4836
G00 Z-9.0000 F800
G01 X43.6086 F2000
G01 X44.9823 Z-9.5000 F1000
G01 X43.6086 Z-10.0000
G01 X141.2651 F2000
G00 Z-9.0000 F800
G01 X147.3901 F2000
G01 X148.7639 Z-9.5000 F1000
G01 X147.3901 Z-10.0000
G01 X245.0467 F2000
G00 Z-9.0000 F800
G01 X251.1717 F2000
G01 X252.5455 Z-9.5000 F1000
G01 X251.1717 Z-10.0000
G01 X300.0000 F2000
G03 X301.5625 Y0.0000 I0.0000 J1.5625
G01 Y46.3744
G00 Z-9.0000 F800
G01 Y52.4994 F2000
G00 Z-9.5000 F800
G01 Z-10.0000 F1000
G01 Y53.8731 Z-10.5000
G01 Y52.4994 Z-11.0000
G01 Y150.1559 F2000
G00 Z-9.0000 F800
G01 Y156.2809 F2000
G00 Z-9.5000 F800
G01 Z-10.0000 F1000
G01 Y157.6547 Z-10.5000
G01 Y156.2809 Z-11.0000
G01 Y214.0000 F2000
G03 X300.0000 Y215.5625 I-1.5625 J0.0000
G01 X262.5164
G00 Z-9.0000 F800
G01 X256.3914 F2000
G00 Z-9.5000 F800
G01 Z-10.0000 F1000
G01 X255.0177 Z-10.5000
G01 X256.3914 Z-11.0000
G01 X158.7349 F2000
G00 Z-9.0000 F800
G01 X152.6099 F2000
G00 Z-9.5000 F800
G01 Z-10.0000 F1000
G01 X151.2361 Z-10.5000
G01 X152.6099 Z-11.0000
G01 X54.9533 F2000
G00 Z-9.0000 F800
G01 X48.8283 F2000
G00 Z-9.5000 F800
G01 Z-10.0000 F1000
G01 X47.4545 Z-10.5000
G01 X48.8283 Z-11.0000
G01 X0.0000 F2000
G03 X-1.5625 Y214.0000 I0.0000 J-1.5625
G01 Y167.6256
G00 Z-9.0000 F800
G01 Y161.5006 F2000
G00 Z-9.5000 F800
G01 Z-10.0000 F1000
G01 Y160.1269 Z-10.5000
G01 Y161.5006 Z-11.0000
G01 Y63.8441 F2000
G00 Z-9.0000 F800
G01 Y57.7191 F2000
G00 Z-9.5000 F800
G01 Z-10.0000 F1000
G01 Y56.3453 Z-10.5000
G01 Y57.7191 Z-11.0000
G01 Y0.0000 F2000
G03 X0.0000 Y-1.5625 I1.5625 J0.0000
G01 X37.4836
G00 Z-9.0000 F800
G01 X43.6086 F2000
G00 Z-9.5000 F800
G01 Z-10.0000 F1000
G01 X44.9823 Z-10.5000
G01 X43.6086 Z-11.0000
G01 X141.2651 F2000
G00 Z-9.0000 F800
G01 X147.3901 F2000
G00 Z-9.5000 F800
G01 Z-10.0000 F1000
G01 X148.7639 Z-10.5000
G01 X147.3901 Z-11.0000
G01 X245.0467 F2000
G00 Z-9.0000 F800
G01 X251.1717 F2000
G00 Z-9.5000 F800
G01 Z-10.0000 F1000
G01 X252.5455 Z-10.5000
G01 X251.1717 Z-11.0000
G01 X300.0000 F2000
G03 X301.5625 Y0.0000 I0.0000 J1.5625
G01 Y46.3744
G00 Z-9.0000 F800
G01 Y52.4994 F2000
G00 Z-10.5000 F800
G01 Z-11.0000 F1000
G01 Y53.8731 Z-11.5000
G01 Y52.4994 Z-12.0000
G01 Y150.1559 F2000
G00 Z-9.0000 F800
G01 Y156.2809 F2000
G00 Z-10.5000 F800
G01 Z-11.0000 F1000
G01 Y157.6547 Z-11.5000
G01 Y156.2809 Z-12.0000
G01 Y214.0000 F2000
G03 X300.0000 Y215.5625 I-1.5625 J0.0000
G01 X262.5164
G00 Z-9.0000 F800
G01 X256.3914 F2000
G00 Z-10.5000 F800
G01 Z-11.0000 F1000
G01 X255.0177 Z-11.5000
G01 X256.3914 Z-12.0000
G01 X158.7349 F2000
G00 Z-9.0000 F800
G01 X152.6099 F2000
G00 Z-10.5000 F800
G01 Z-11.0000 F1000
G01 X151.2361 Z-11.5000
G01 X152.6099 Z-12.0000
G01 X54.9533 F2000
G00 Z-9.0000 F800
G01 X48.8283 F2000
G00 Z-10.5000 F800
G01 Z-11.0000 F1000
G01 X47.4545 Z-11.5000
G01 X48.8283 Z-12.0000
G01 X0.0000 F2000
G03 X-1.5625 Y214.0000 I0.0000 J-1.5625
G01 Y167.6256
G00 Z-9.0000 F800
G01 Y161.5006 F2000
G00 Z-10.5000 F800
G01 Z-11.0000 F1000
G01 Y160.1269 Z-11.5000
G01 Y161.5006 Z-12.0000
G01 Y63.8441 F2000
G00 Z-9.0000 F800
G01 Y57.7191 F2000
G00 Z-10.5000 F800
G01 Z-11.0000 F1000
G01 Y56.3453 Z-11.5000
G01 Y57.7191 Z-12.0000
G01 Y0.0000 F2000
G03 X0.0000 Y-1.5625 I1.5625 J0.0000
G01 X37.4836
G00 Z-9.0000 F800
G01 X43.6086 F2000
G00 Z-10.5000 F800
G01 Z-11.0000 F1000
G01 X44.9823 Z-11.5000
G01 X43.6086 Z-12.0000
G01 X141.2651 F2000
G00 Z-9.0000 F800
G01 X147.3901 F2000
G00 Z-10.5000 F800
G01 Z-11.0000 F1000
G01 X148.7639 Z-11.5000
G01 X147.3901 Z-12.0000
G01 X245.0467 F2000
G00 Z-9.0000 F800
G01 X251.1717 F2000
G00 Z-10.5000 F800
G01 Z-11.0000 F1000
G01 X252.5455 Z-11.5000
G01 X251.1717 Z-12.0000
G01 X300.0000 F2000
G03 X301.5625 Y0.0000 I0.0000 J1.5625
G01 Y46.3744
G00 Z-9.0000 F800
G01 Y52.4994 F2000
G00 Z-11.5000 F800
G01 Z-12.0000 F1000
G01 Y53.8731 Z-12.5000
G01 Y52.4994 Z-13.0000
G01 Y150.1559 F2000
G00 Z-9.0000 F800
G01 Y156.2809 F2000
G00 Z-11.5000 F800
G01 Z-12.0000 F1000
G01 Y157.6547 Z-12.5000
G01 Y156.2809 Z-13.0000
G01 Y214.0000 F2000
G03 X300.0000 Y215.5625 I-1.5625 J0.0000
G01 X262.5164
G00 Z-9.0000 F800
G01 X256.3914 F2000
G00 Z-11.5000 F800
G01 Z-12.0000 F1000
G01 X255.0177 Z-12.5000
G01 X256.3914 Z-13.0000
G01 X158.7349 F2000
G00 Z-9.0000 F800
G01 X152.6099 F2000
G00 Z-11.5000 F800
G01 Z-12.0000 F1000
G01 X151.2361 Z-12.5000
G01 X152.6099 Z-13.0000
G01 X54.9533 F2000
G00 Z-9.0000 F800
G01 X48.8283 F2000
G00 Z-11.5000 F800
G01 Z-12.0000 F1000
G01 X47.4545 Z-12.5000
G01 X48.8283 Z-13.0000
G01 X0.0000 F2000
G03 X-1.5625 Y214.0000 I0.0000 J-1.5625
G01 Y167.6256
G00 Z-9.0000 F800
G01 Y161.5006 F2000
G00 Z-11.5000 F800
G01 Z-12.0000 F1000
G01 Y160.1269 Z-12.5000
G01 Y161.5006 Z-13.0000
G01 Y63.8441 F2000
G00 Z-9.0000 F800
G01 Y57.7191 F2000
G00 Z-11.5000 F800
G01 Z-12.0000 F1000
G01 Y56.3453 Z-12.5000
G01 Y57.7191 Z-13.0000
G01 Y0.0000 F2000
G03 X0.0000 Y-1.5625 I1.5625 J0.0000
G01 X37.4836
G00 Z-9.0000 F800
G01 X43.6086 F2000
G00 Z-11.5000 F800
G01 Z-12.0000 F1000
G01 X44.9823 Z-12.5000
G01 X43.6086 Z-13.0000
G01 X141.2651 F2000
G00 Z-9.0000 F800
G01 X147.3901 F2000
G00 Z-11.5000 F800
G01 Z-12.0000 F1000
G01 X148.7639 Z-12.5000
G01 X147.3901 Z-13.0000
G01 X245.0467 F2000
G00 Z-9.0000 F800
G01 X251.1717 F2000
G00 Z-11.5000 F800
G01 Z-12.0000 F1000
G01 X252.5455 Z-12.5000
G01 X251.1717 Z-13.0000
G01 X300.0000 F2000
G03 X301.5625 Y0.0000 I0.0000 J1.5625
G01 Y46.3744
G00 Z-9.0000 F800
G01 Y52.4994 F2000
G00 Z5.0000 F800
G00 X0.0000 Y0.0000 F2000


M05
M30
