(Projekt window)
(Erstellt mit Estlcam 13.002)
(Laufzeit ca. 00:05:08 Stunden)

(Benoetigte Werkzeuge:)
(Beispielwerkzeug)

G21
G90
G94
M03 S24000
G00 Z5.0000 F800

(Nr. 1 Teil bearbeiten: Teil 1)
G00 X44.5625 Y45.8567 Z5.0000 F2000
G00 Z0.5000 F800
G01 Z0.0000 F1000 S24000
G01 Y46.5436 Z-0.2500
G01 Y45.8567 Z-0.5000
G01 Y117.4375 F2000
G01 X57.3529
G01 X63.4779
G01 X123.4375
G01 Y93.0258
G01 Y86.9008
G01 Y2.5296
G01 Y0.0000
G03 X125.0000 Y-1.5625 I1.5625 J0.0000
G01 X126.1415
G01 X168.0000
G03 X169.5625 Y0.0000 I0.0000 J1.5625
G01 Y40.0588
G01 Y46.1838
G01 Y130.5550
G01 Y136.6800
G01 Y175.3924
G03 X167.7150 Y176.9287 I-1.5625 J0.0000
G01 X125.5162 Y169.1015
G01 X119.4940 Y167.9844
G01 X36.5377 Y152.5974
G01 X30.5154 Y151.4804
G01 X-0.2850 Y145.7674
G03 X-1.5625 Y144.2311 I0.2850 J-1.5363
G01 Y93.3529
G01 Y87.2279
G01 Y2.8567
G01 Y0.0000
G03 X0.0000 Y-1.5625 I1.5625 J0.0000
G01 X0.8144
G01 X43.0000
G03 X44.5625 Y0.0000 I0.0000 J1.5625
G01 Y39.7317
G01 Y45.8567
G01 Y46.5436 Z-0.7500 F1000
G01 Y45.8567 Z-1.0000
G01 Y117.4375 F2000
G01 X57.3529
G01 X63.4779
G01 X123.4375
G01 Y93.0258
G01 Y86.9008
G01 Y2.5296
G01 Y0.0000
G03 X125.0000 Y-1.5625 I1.5625 J0.0000
G01 X126.1415
G01 X168.0000
G03 X169.5625 Y0.0000 I0.0000 J1.5625
G01 Y40.0588
G01 Y46.1838
G01 Y130.5550
G01 Y136.6800
G01 Y175.3924
G03 X167.7150 Y176.9287 I-1.5625 J0.0000
G01 X125.5162 Y169.1015
G01 X119.4940 Y167.9844
G01 X36.5377 Y152.5974
G01 X30.5154 Y151.4804
G01 X-0.2850 Y145.7674
G03 X-1.5625 Y144.2311 I0.2850 J-1.5363
G01 Y93.3529
G01 Y87.2279
G01 Y2.8567
G01 Y0.0000
G03 X0.0000 Y-1.5625 I1.5625 J0.0000
G01 X0.8144
G01 X43.0000
G03 X44.5625 Y0.0000 I0.0000 J1.5625
G01 Y39.7317
G01 Y45.8567
G01 Y46.5436 Z-1.2500 F1000
G01 Y45.8567 Z-1.5000
G01 Y117.4375 F2000
G01 X57.3529
G01 X63.4779
G01 X123.4375
G01 Y93.0258
G01 Y86.9008
G01 Y2.5296
G01 Y0.0000
G03 X125.0000 Y-1.5625 I1.5625 J0.0000
G01 X126.1415
G01 X168.0000
G03 X169.5625 Y0.0000 I0.0000 J1.5625
G01 Y40.0588
G01 Y46.1838
G01 Y130.5550
G01 Y136.6800
G01 Y175.3924
G03 X167.7150 Y176.9287 I-1.5625 J0.0000
G01 X125.5162 Y169.1015
G01 X119.4940 Y167.9844
G01 X36.5377 Y152.5974
G01 X30.5154 Y151.4804
G01 X-0.2850 Y145.7674
G03 X-1.5625 Y144.2311 I0.2850 J-1.5363
G01 Y93.3529
G01 Y87.2279
G01 Y2.8567
G01 Y0.0000
G03 X0.0000 Y-1.5625 I1.5625 J0.0000
G01 X0.8144
G01 X43.0000
G03 X44.5625 Y0.0000 I0.0000 J1.5625
G01 Y39.7317
G01 Y45.8567
G01 Y46.5436 Z-1.7500 F1000
G01 Y45.8567 Z-2.0000
G01 Y117.4375 F2000
G01 X57.3529
G01 X63.4779
G01 X123.4375
G01 Y93.0258
G01 Y86.9008
G01 Y2.5296
G01 Y0.0000
G03 X125.0000 Y-1.5625 I1.5625 J0.0000
G01 X126.1415
G01 X168.0000
G03 X169.5625 Y0.0000 I0.0000 J1.5625
G01 Y40.0588
G01 Y46.1838
G01 Y130.5550
G01 Y136.6800
G01 Y175.3924
G03 X167.7150 Y176.9287 I-1.5625 J0.0000
G01 X125.5162 Y169.1015
G01 X119.4940 Y167.9844
G01 X36.5377 Y152.5974
G01 X30.5154 Y151.4804
G01 X-0.2850 Y145.7674
G03 X-1.5625 Y144.2311 I0.2850 J-1.5363
G01 Y93.3529
G01 Y87.2279
G01 Y2.8567
G01 Y0.0000
G03 X0.0000 Y-1.5625 I1.5625 J0.0000
G01 X0.8144
G01 X43.0000
G03 X44.5625 Y0.0000 I0.0000 J1.5625
G01 Y39.7317
G01 Y45.8567
G01 Y46.5436 Z-2.2500 F1000
G01 Y45.8567 Z-2.5000
G01 Y117.4375 F2000
G01 X57.3529
G00 Z-2.0000 F800
G01 X63.4779 F2000
G01 X64.1648 Z-2.2500 F1000
G01 X63.4779 Z-2.5000
G01 X123.4375 F2000
G01 Y93.0258
G00 Z-2.0000 F800
G01 Y86.9008 F2000
G01 Y86.2140 Z-2.2500 F1000
G01 Y86.9008 Z-2.5000
G01 Y2.5296 F2000
G00 Z-2.0000 F800
G01 Y0.0000 F2000
G03 X125.0000 Y-1.5625 I1.5625 J0.0000
G01 X126.1415
G01 X126.8283 Z-2.2500 F1000
G01 X126.1415 Z-2.5000
G01 X168.0000 F2000
G03 X169.5625 Y0.0000 I0.0000 J1.5625
G01 Y40.0588
G00 Z-2.0000 F800
G01 Y46.1838 F2000
G01 Y46.8707 Z-2.2500 F1000
G01 Y46.1838 Z-2.5000
G01 Y130.5550 F2000
G00 Z-2.0000 F800
G01 Y136.6800 F2000
G01 Y137.3669 Z-2.2500 F1000
G01 Y136.6800 Z-2.5000
G01 Y175.3924 F2000
G03 X167.7150 Y176.9287 I-1.5625 J0.0000
G01 X125.5162 Y169.1015
G00 Z-2.0000 F800
G01 X119.4940 Y167.9844 F2000
G01 X118.8186 Y167.8592 Z-2.2500 F1000
G01 X119.4940 Y167.9844 Z-2.5000
G01 X36.5377 Y152.5974 F2000
G00 Z-2.0000 F800
G01 X30.5154 Y151.4804 F2000
G01 X29.8400 Y151.3551 Z-2.2500 F1000
G01 X30.5154 Y151.4804 Z-2.5000
G01 X-0.2850 Y145.7674 F2000
G03 X-1.5625 Y144.2311 I0.2850 J-1.5363
G01 Y93.3529
G00 Z-2.0000 F800
G01 Y87.2279 F2000
G01 Y86.5411 Z-2.2500 F1000
G01 Y87.2279 Z-2.5000
G01 Y2.8567 F2000
G00 Z-2.0000 F800
G01 Y0.0000 F2000
G03 X0.0000 Y-1.5625 I1.5625 J0.0000
G01 X0.8144
G01 X1.5012 Z-2.2500 F1000
G01 X0.8144 Z-2.5000
G01 X43.0000 F2000
G03 X44.5625 Y0.0000 I0.0000 J1.5625
G01 Y39.7317
G00 Z-2.0000 F800
G01 Y45.8567 F2000
G01 Z-2.5000 F1000
G01 Y46.5436 Z-2.7500
G01 Y45.8567 Z-3.0000
G01 Y117.4375 F2000
G01 X57.3529
G00 Z-2.0000 F800
G01 X63.4779 F2000
G01 Z-2.5000 F1000
G01 X64.1648 Z-2.7500
G01 X63.4779 Z-3.0000
G01 X123.4375 F2000
G01 Y93.0258
G00 Z-2.0000 F800
G01 Y86.9008 F2000
G01 Z-2.5000 F1000
G01 Y86.2140 Z-2.7500
G01 Y86.9008 Z-3.0000
G01 Y2.5296 F2000
G00 Z-2.0000 F800
G01 Y0.0000 F2000
G03 X125.0000 Y-1.5625 I1.5625 J0.0000
G01 X126.1415
G01 Z-2.5000 F1000
G01 X126.8283 Z-2.7500
G01 X126.1415 Z-3.0000
G01 X168.0000 F2000
G03 X169.5625 Y0.0000 I0.0000 J1.5625
G01 Y40.0588
G00 Z-2.0000 F800
G01 Y46.1838 F2000
G01 Z-2.5000 F1000
G01 Y46.8707 Z-2.7500
G01 Y46.1838 Z-3.0000
G01 Y130.5550 F2000
G00 Z-2.0000 F800
G01 Y136.6800 F2000
G01 Z-2.5000 F1000
G01 Y137.3669 Z-2.7500
G01 Y136.6800 Z-3.0000
G01 Y175.3924 F2000
G03 X167.7150 Y176.9287 I-1.5625 J0.0000
G01 X125.5162 Y169.1015
G00 Z-2.0000 F800
G01 X119.4940 Y167.9844 F2000
G01 Z-2.5000 F1000
G01 X118.8186 Y167.8592 Z-2.7500
G01 X119.4940 Y167.9844 Z-3.0000
G01 X36.5377 Y152.5974 F2000
G00 Z-2.0000 F800
G01 X30.5154 Y151.4804 F2000
G01 Z-2.5000 F1000
G01 X29.8400 Y151.3551 Z-2.7500
G01 X30.5154 Y151.4804 Z-3.0000
G01 X-0.2850 Y145.7674 F2000
G03 X-1.5625 Y144.2311 I0.2850 J-1.5363
G01 Y93.3529
G00 Z-2.0000 F800
G01 Y87.2279 F2000
G01 Z-2.5000 F1000
G01 Y86.5411 Z-2.7500
G01 Y87.2279 Z-3.0000
G01 Y2.8567 F2000
G00 Z-2.0000 F800
G01 Y0.0000 F2000
G03 X0.0000 Y-1.5625 I1.5625 J0.0000
G01 X0.8144
G01 Z-2.5000 F1000
G01 X1.5012 Z-2.7500
G01 X0.8144 Z-3.0000
G01 X43.0000 F2000
G03 X44.5625 Y0.0000 I0.0000 J1.5625
G01 Y39.7317
G00 Z-2.0000 F800
G01 Y45.8567 F2000
G00 Z-2.5000 F800
G01 Z-3.0000 F1000
G01 Y46.5436 Z-3.2500
G01 Y45.8567 Z-3.5000
G01 Y117.4375 F2000
G01 X57.3529
G00 Z-2.0000 F800
G01 X63.4779 F2000
G00 Z-2.5000 F800
G01 Z-3.0000 F1000
G01 X64.1648 Z-3.2500
G01 X63.4779 Z-3.5000
G01 X123.4375 F2000
G01 Y93.0258
G00 Z-2.0000 F800
G01 Y86.9008 F2000
G00 Z-2.5000 F800
G01 Z-3.0000 F1000
G01 Y86.2140 Z-3.2500
G01 Y86.9008 Z-3.5000
G01 Y2.5296 F2000
G00 Z-2.0000 F800
G01 Y0.0000 F2000
G03 X125.0000 Y-1.5625 I1.5625 J0.0000
G01 X126.1415
G00 Z-2.5000 F800
G01 Z-3.0000 F1000
G01 X126.8283 Z-3.2500
G01 X126.1415 Z-3.5000
G01 X168.0000 F2000
G03 X169.5625 Y0.0000 I0.0000 J1.5625
G01 Y40.0588
G00 Z-2.0000 F800
G01 Y46.1838 F2000
G00 Z-2.5000 F800
G01 Z-3.0000 F1000
G01 Y46.8707 Z-3.2500
G01 Y46.1838 Z-3.5000
G01 Y130.5550 F2000
G00 Z-2.0000 F800
G01 Y136.6800 F2000
G00 Z-2.5000 F800
G01 Z-3.0000 F1000
G01 Y137.3669 Z-3.2500
G01 Y136.6800 Z-3.5000
G01 Y175.3924 F2000
G03 X167.7150 Y176.9287 I-1.5625 J0.0000
G01 X125.5162 Y169.1015
G00 Z-2.0000 F800
G01 X119.4940 Y167.9844 F2000
G00 Z-2.5000 F800
G01 Z-3.0000 F1000
G01 X118.8186 Y167.8592 Z-3.2500
G01 X119.4940 Y167.9844 Z-3.5000
G01 X36.5377 Y152.5974 F2000
G00 Z-2.0000 F800
G01 X30.5154 Y151.4804 F2000
G00 Z-2.5000 F800
G01 Z-3.0000 F1000
G01 X29.8400 Y151.3551 Z-3.2500
G01 X30.5154 Y151.4804 Z-3.5000
G01 X-0.2850 Y145.7674 F2000
G03 X-1.5625 Y144.2311 I0.2850 J-1.5363
G01 Y93.3529
G00 Z-2.0000 F800
G01 Y87.2279 F2000
G00 Z-2.5000 F800
G01 Z-3.0000 F1000
G01 Y86.5411 Z-3.2500
G01 Y87.2279 Z-3.5000
G01 Y2.8567 F2000
G00 Z-2.0000 F800
G01 Y0.0000 F2000
G03 X0.0000 Y-1.5625 I1.5625 J0.0000
G01 X0.8144
G00 Z-2.5000 F800
G01 Z-3.0000 F1000
G01 X1.5012 Z-3.2500
G01 X0.8144 Z-3.5000
G01 X43.0000 F2000
G03 X44.5625 Y0.0000 I0.0000 J1.5625
G01 Y39.7317
G00 Z-2.0000 F800
G01 Y45.8567 F2000
G00 Z-3.0000 F800
G01 Z-3.5000 F1000
G01 Y46.5436 Z-3.7500
G01 Y45.8567 Z-4.0000
G01 Y117.4375 F2000
G01 X57.3529
G00 Z-2.0000 F800
G01 X63.4779 F2000
G00 Z-3.0000 F800
G01 Z-3.5000 F1000
G01 X64.1648 Z-3.7500
G01 X63.4779 Z-4.0000
G01 X123.4375 F2000
G01 Y93.0258
G00 Z-2.0000 F800
G01 Y86.9008 F2000
G00 Z-3.0000 F800
G01 Z-3.5000 F1000
G01 Y86.2140 Z-3.7500
G01 Y86.9008 Z-4.0000
G01 Y2.5296 F2000
G00 Z-2.0000 F800
G01 Y0.0000 F2000
G03 X125.0000 Y-1.5625 I1.5625 J0.0000
G01 X126.1415
G00 Z-3.0000 F800
G01 Z-3.5000 F1000
G01 X126.8283 Z-3.7500
G01 X126.1415 Z-4.0000
G01 X168.0000 F2000
G03 X169.5625 Y0.0000 I0.0000 J1.5625
G01 Y40.0588
G00 Z-2.0000 F800
G01 Y46.1838 F2000
G00 Z-3.0000 F800
G01 Z-3.5000 F1000
G01 Y46.8707 Z-3.7500
G01 Y46.1838 Z-4.0000
G01 Y130.5550 F2000
G00 Z-2.0000 F800
G01 Y136.6800 F2000
G00 Z-3.0000 F800
G01 Z-3.5000 F1000
G01 Y137.3669 Z-3.7500
G01 Y136.6800 Z-4.0000
G01 Y175.3924 F2000
G03 X167.7150 Y176.9287 I-1.5625 J0.0000
G01 X125.5162 Y169.1015
G00 Z-2.0000 F800
G01 X119.4940 Y167.9844 F2000
G00 Z-3.0000 F800
G01 Z-3.5000 F1000
G01 X118.8186 Y167.8592 Z-3.7500
G01 X119.4940 Y167.9844 Z-4.0000
G01 X36.5377 Y152.5974 F2000
G00 Z-2.0000 F800
G01 X30.5154 Y151.4804 F2000
G00 Z-3.0000 F800
G01 Z-3.5000 F1000
G01 X29.8400 Y151.3551 Z-3.7500
G01 X30.5154 Y151.4804 Z-4.0000
G01 X-0.2850 Y145.7674 F2000
G03 X-1.5625 Y144.2311 I0.2850 J-1.5363
G01 Y93.3529
G00 Z-2.0000 F800
G01 Y87.2279 F2000
G00 Z-3.0000 F800
G01 Z-3.5000 F1000
G01 Y86.5411 Z-3.7500
G01 Y87.2279 Z-4.0000
G01 Y2.8567 F2000
G00 Z-2.0000 F800
G01 Y0.0000 F2000
G03 X0.0000 Y-1.5625 I1.5625 J0.0000
G01 X0.8144
G00 Z-3.0000 F800
G01 Z-3.5000 F1000
G01 X1.5012 Z-3.7500
G01 X0.8144 Z-4.0000
G01 X43.0000 F2000
G03 X44.5625 Y0.0000 I0.0000 J1.5625
G01 Y39.7317
G00 Z-2.0000 F800
G01 Y45.8567 F2000
G00 Z5.0000 F800
G00 X0.0000 Y0.0000 F2000


M05
M30
